;FLAVOR:RepRap
;TIME:18061
;Generated with Cura_SteamEngine 2.3.1
G21 ; set units to millimeters
G90 ; use absolute positioning
M82 ; absolute extrusion mode
G28 W ; home all without mesh bed level
G80 ; mesh bed leveling
M104 S210 ; set extruder temp
M140 S55 ; set bed temp
M190 S55 ; wait for bed temp
M109 S210 ; wait for extruder temp
G92 E0.0 ; reset extruder distance position
G1 Y-3.0 F1000.0 ; go outside print area
G1 X60.0 E9.0 F1000.0 ; intro line
G1 X100.0 E21.5 F1000.0 ; intro line
G92 E0.0 ; reset extruder distance position
;LAYER_COUNT:178
;LAYER:0
M107
G1 F2100 E-0.8
G0 F3600 X70.957 Y34.725 Z.15
;TYPE:SKIRT
G1 F2100 E0
G1 F1800 X72.046 Y32.434 E0.06328
G1 X72.383 Y31.878 E0.0795
G1 X73.916 Y29.85 E0.14291
G1 X74.358 Y29.375 E0.1591
G1 X76.264 Y27.702 E0.22236
G1 X76.797 Y27.323 E0.23867
G1 X79.026 Y26.059 E0.30259
G1 X79.322 Y25.911 E0.31085
G1 X85.026 Y23.416 E0.46615
G1 X89.893 Y20.935 E0.60243
G1 X94.623 Y18.175 E0.73903
G1 X99.194 Y15.15 E0.87577
G1 X103.598 Y11.862 E1.01286
G1 X106.4 Y9.557 E1.10337
G1 X106.815 Y9.267 E1.116
G1 X107.27 Y9.047 E1.12861
G1 X107.754 Y8.901 E1.14122
G1 X108.433 Y8.828 E1.15825
G1 X118.411 Y8.828 E1.40716
G1 X118.915 Y8.868 E1.41977
G1 X119.406 Y8.987 E1.43237
G1 X119.873 Y9.181 E1.44498
G1 X120.303 Y9.447 E1.4576
G1 X120.686 Y9.777 E1.47021
G1 X121.012 Y10.164 E1.48283
G1 X121.152 Y10.377 E1.48919
G1 X124.161 Y15.373 E1.63467
G1 X124.387 Y15.825 E1.64728
G1 X124.547 Y16.344 E1.66083
G1 X135.319 Y65.885 E2.92551
G1 X136.652 Y71.277 E3.06406
G1 X138.256 Y76.488 E3.20007
G1 X140.164 Y81.631 E3.33691
G1 X168.794 Y147.87 E5.13698
G1 X171.129 Y152.874 E5.27473
G1 X173.73 Y157.712 E5.41175
G1 X176.593 Y162.385 E5.54845
G1 X177.569 Y163.85 E5.59237
G1 X177.766 Y164.189 E5.60215
G1 X178.912 Y166.475 E5.66594
G1 X179.143 Y167.083 E5.68216
G1 X179.797 Y169.531 E5.74537
G1 X179.9 Y170.174 E5.76161
G1 X180.045 Y172.705 E5.82485
G1 X180.016 Y173.354 E5.84106
G1 X179.646 Y175.869 E5.90447
G1 X179.486 Y176.5 E5.92071
G1 X178.615 Y178.886 E5.98407
G1 X178.331 Y179.472 E6.00031
G1 X176.997 Y181.629 E6.06358
G1 X176.601 Y182.144 E6.07978
G1 X174.856 Y183.991 E6.14317
G1 X174.38 Y184.404 E6.15889
G1 X172.902 Y185.451 E6.20407
G1 X172.685 Y185.592 E6.21053
G1 X171.35 Y186.384 E6.24925
G1 X171.213 Y186.461 E6.25317
G1 X167.696 Y188.322 E6.35242
G1 X162.99 Y191.126 E6.48907
G1 X158.445 Y194.196 E6.62589
G1 X154.083 Y197.516 E6.76263
G1 X150.627 Y200.418 E6.87521
G1 X150.215 Y200.712 E6.88783
G1 X149.763 Y200.937 E6.90043
G1 X149.28 Y201.088 E6.91305
G1 X148.78 Y201.161 E6.92565
G1 X148.274 Y201.154 E6.93828
G1 X147.776 Y201.068 E6.95088
G1 X147.298 Y200.905 E6.96348
G1 X146.851 Y200.668 E6.9761
G1 X146.447 Y200.364 E6.98872
G1 X146.154 Y200.067 E6.99912
G1 X142.293 Y195.624 E7.14596
G1 X142.171 Y195.475 E7.15076
G1 X139.89 Y192.507 E7.24414
G1 X136.329 Y188.291 E7.3818
G1 X132.57 Y184.319 E7.51822
G1 X130.618 Y182.426 E7.58605
G1 X126.521 Y178.774 E7.72295
G1 X122.245 Y175.375 E7.85921
G1 X116.681 Y171.496 E8.02841
G1 X116.29 Y171.175 E8.04103
G1 X115.967 Y170.812 E8.05315
G1 X110.314 Y163.401 E8.28566
G1 X110.04 Y162.976 E8.29827
G1 X109.836 Y162.513 E8.31089
G1 X109.719 Y162.084 E8.32199
G1 X108.02 Y153.544 E8.53919
G1 X106.795 Y148.15 E8.67717
G1 X106.079 Y145.517 E8.74524
G1 X104.859 Y141.586 E8.84791
G1 X78.051 Y61.405 E10.95687
G1 X76.033 Y56.334 E11.09301
G1 X73.712 Y51.343 E11.23032
G1 X71.671 Y47.475 E11.33941
G1 X71.519 Y47.143 E11.34852
G1 X70.595 Y44.769 E11.41207
G1 X70.422 Y44.14 E11.42834
G1 X69.998 Y41.627 E11.49191
G1 X69.955 Y40.979 E11.50811
G1 X70.047 Y38.447 E11.57132
G1 X70.136 Y37.804 E11.58751
G1 X70.738 Y35.34 E11.65078
G1 X70.957 Y34.725 E11.66707
G1 F2100 E10.86707
G0 F3600 X73.273 Y35.723
G0 X74.45 Y36.285
G0 X74.507 Y36.305
G0 X74.413 Y36.272
;TYPE:WALL-INNER
G1 F2100 E11.66707
G1 F1800 X75.453 Y34.096 E11.72723
G1 X76.917 Y32.167 E11.78764
G1 X78.74 Y30.573 E11.84804
G1 X80.84 Y29.387 E11.9082
G1 X83.141 Y28.647 E11.9685
G1 X85.551 Y28.387 E12.02897
G1 X87.954 Y28.619 E12.08919
G1 X90.263 Y29.332 E12.14947
G1 X92.38 Y30.499 E12.20977
G1 X94.22 Y32.068 E12.27009
G1 X95.702 Y33.978 E12.3304
G1 X96.768 Y36.149 E12.39073
G1 X97.374 Y38.491 E12.45107
G1 X97.495 Y40.902 E12.51129
G1 X97.092 Y43.492 E12.57668
G1 X125.444 Y132.855 E14.91535
G1 X154.525 Y185.88 E16.42393
G1 X155.466 Y191.193 E16.55853
G1 X148.628 Y197.136 E16.78452
G1 X145.544 Y193.588 E16.90179
G1 X151.581 Y188.34 E17.10133
G1 X124.619 Y157.321 E18.12655
G1 X124.488 Y157.171 E18.13151
G1 X124.338 Y157.302 E18.13473
G1 X118.903 Y162.026 E18.31436
G1 X121.593 Y165.121 E18.41665
G1 X121.724 Y165.271 E18.42162
G1 X121.574 Y165.402 E18.42483
G1 X118.744 Y167.861 E18.51835
G1 X118.584 Y168 E18.52364
G1 X118.456 Y167.832 E18.52699
G1 X118.455 Y167.831 E18.52702
G1 X113.407 Y161.208 E18.73475
G1 X110.497 Y146.476 E19.10934
G1 X78.151 Y49.578 E21.65759
G1 X76.317 Y47.706 E21.72296
G1 X75.011 Y45.68 E21.78309
G1 X74.138 Y43.422 E21.84348
G1 X73.742 Y41.038 E21.90377
G1 X73.835 Y38.616 E21.96423
G1 X74.413 Y36.272 E22.02445
G0 F3600 X74.035 Y36.136
;TYPE:WALL-OUTER
G1 F1800 X75.111 Y33.884 E22.08671
G1 X76.621 Y31.895 E22.149
G1 X78.508 Y30.245 E22.21153
G1 X80.681 Y29.018 E22.27378
G1 X83.057 Y28.253 E22.33605
G1 X85.546 Y27.985 E22.3985
G1 X88.033 Y28.225 E22.46082
G1 X90.42 Y28.962 E22.52314
G1 X92.61 Y30.169 E22.58552
G1 X94.51 Y31.79 E22.64782
G1 X96.043 Y33.765 E22.71018
G1 X97.145 Y36.009 E22.77255
G1 X97.771 Y38.429 E22.8349
G1 X97.896 Y40.924 E22.89722
G1 X97.502 Y43.461 E22.96126
G1 X125.813 Y132.697 E25.2966
G1 X154.908 Y185.746 E26.80588
G1 X155.899 Y191.346 E26.94774
G1 X148.589 Y197.7 E27.18935
G1 X145.111 Y193.699 E27.32159
G1 X144.98 Y193.549 E27.32656
G1 X145.13 Y193.418 E27.32977
G1 X151.017 Y188.301 E27.52435
G1 X124.449 Y157.735 E28.53459
G1 X119.617 Y161.934 E28.69428
G1 X119.467 Y162.065 E28.69924
G1 X119.598 Y162.215 E28.70246
G1 X122.157 Y165.16 E28.79978
G1 X122.288 Y165.31 E28.80475
G1 X122.138 Y165.441 E28.80796
G1 X118.685 Y168.442 E28.92208
G1 X118.525 Y168.581 E28.92737
G1 X118.397 Y168.413 E28.93072
G1 X118.396 Y168.412 E28.93075
G1 X113.033 Y161.376 E29.15144
G1 X110.11 Y146.578 E29.52771
G1 X77.801 Y49.792 E32.07301
G1 X76.004 Y47.958 E32.13706
G1 X74.653 Y45.863 E32.19925
G1 X73.749 Y43.525 E32.26178
G1 X73.34 Y41.064 E32.32401
G1 X73.436 Y38.563 E32.38644
G1 X74.035 Y36.136 E32.4488
G0 F3600 X74.652 Y36.185
;TYPE:SKIN
G1 F1800 X103.847 Y65.381 E33.47875
G0 X103.917 Y65.451
G0 F3600 X104.11 Y66.209
G1 F1800 X74.512 Y36.611 E34.5229
G0 X74.442 Y36.541
G0 F3600 X74.401 Y37.065
G1 F1800 X104.373 Y67.038 E35.58026
G0 X104.443 Y67.108
G0 F3600 X104.636 Y67.866
G1 F1800 X74.289 Y37.519 E36.65083
G0 X74.219 Y37.449
G0 F3600 X74.177 Y37.973
G1 F1800 X104.899 Y68.695 E37.73463
G0 X104.969 Y68.765
G0 F3600 X105.162 Y69.524
G1 F1800 X74.065 Y38.427 E38.83166
G0 X73.995 Y38.357
G0 F3600 X74.002 Y38.929
G1 F1800 X105.425 Y70.352 E39.9402
G0 X105.495 Y70.422
G0 F3600 X105.687 Y71.18
G1 F1800 X73.981 Y39.474 E41.05871
G0 X73.911 Y39.404
G0 F3600 X73.96 Y40.019
G1 F1800 X105.95 Y72.009 E42.18724
G0 X106.02 Y72.079
G0 F3600 X106.213 Y72.838
G1 F1800 X73.94 Y40.564 E43.32578
G0 X73.87 Y40.494
G0 F3600 X73.938 Y41.128
G1 F1800 X106.476 Y73.667 E44.47366
G0 X106.546 Y73.737
G0 F3600 X106.739 Y74.495
G1 F1800 X74.051 Y41.807 E45.62682
G0 X73.981 Y41.737
G0 F3600 X74.164 Y42.485
G1 F1800 X107.002 Y75.323 E46.78527
G0 X107.072 Y75.393
G0 F3600 X107.265 Y76.152
G1 F1800 X74.276 Y43.163 E47.94905
G0 X74.206 Y43.093
G0 F3600 X74.558 Y44.011
G1 F1800 X107.528 Y76.981 E49.11215
G0 X107.598 Y77.051
G0 F3600 X107.791 Y77.81
G1 F1800 X74.915 Y44.933 E50.27196
G0 X74.845 Y44.863
G0 F3600 X75.456 Y46.041
G1 F1800 X108.053 Y78.638 E51.42191
G0 X108.123 Y78.708
G0 F3600 X108.316 Y79.466
G1 F1800 X77.141 Y48.291 E52.52169
G0 X77.071 Y48.221
G0 F3600 X78.185 Y49.558
G0 X78.577 Y50.293
G1 F1800 X108.579 Y80.295 E53.58009
G0 X108.649 Y80.365
G0 F3600 X108.842 Y81.124
G1 F1800 X78.861 Y51.142 E54.63777
G0 X78.791 Y51.072
G0 F3600 X79.145 Y51.992
G1 F1800 X109.105 Y81.952 E55.69469
G0 X109.175 Y82.022
G0 F3600 X109.368 Y82.78
G1 F1800 X79.428 Y52.841 E56.75088
G0 X79.358 Y52.771
G0 F3600 X79.712 Y53.69
G1 F1800 X109.631 Y83.609 E57.80636
G0 X109.701 Y83.679
G0 F3600 X109.894 Y84.438
G1 F1800 X79.995 Y54.539 E58.86113
G0 X79.925 Y54.469
G0 F3600 X80.279 Y55.389
G1 F1800 X110.156 Y85.266 E59.91512
G0 X110.226 Y85.336
G0 F3600 X110.419 Y86.095
G1 F1800 X80.562 Y56.238 E60.9684
G0 X80.492 Y56.168
G0 F3600 X80.846 Y57.087
G1 F1800 X110.682 Y86.923 E62.02095
G0 X110.752 Y86.993
G0 F3600 X110.945 Y87.752
G1 F1800 X81.129 Y57.936 E63.07279
G0 X81.059 Y57.866
G0 F3600 X81.412 Y58.785
G1 F1800 X111.208 Y88.581 E64.12392
G0 X111.278 Y88.651
G0 F3600 X111.471 Y89.409
G1 F1800 X81.696 Y59.634 E65.17432
G0 X81.626 Y59.564
G0 F3600 X81.979 Y60.483
G1 F1800 X111.734 Y90.238 E66.22401
G0 X111.804 Y90.308
G0 F3600 X111.997 Y91.066
G1 F1800 X82.263 Y61.333 E67.27293
G0 X82.193 Y61.263
G0 F3600 X82.546 Y62.182
G1 F1800 X112.26 Y91.895 E68.32116
G0 X112.33 Y91.965
G0 F3600 X112.522 Y92.723
G1 F1800 X82.83 Y63.031 E69.36862
G0 X82.76 Y62.961
G0 F3600 X83.114 Y63.88
G1 F1800 X112.785 Y93.552 E70.41537
G0 X112.855 Y93.622
G0 F3600 X113.048 Y94.381
G1 F1800 X83.397 Y64.729 E71.4614
G0 X83.327 Y64.659
G0 F3600 X83.681 Y65.579
G1 F1800 X113.311 Y95.209 E72.50668
G0 X113.381 Y95.279
G0 F3600 X113.574 Y96.037
G1 F1800 X83.964 Y66.428 E73.55124
G0 X83.894 Y66.358
G0 F3600 X84.247 Y67.276
G1 F1800 X113.837 Y96.866 E74.5951
G0 X113.907 Y96.936
G0 F3600 X114.1 Y97.695
G1 F1800 X84.531 Y68.126 E75.63823
G0 X84.461 Y68.056
G0 F3600 X84.814 Y68.975
G1 F1800 X114.363 Y98.524 E76.68065
G0 X114.433 Y98.594
G0 F3600 X114.625 Y99.352
G1 F1800 X85.098 Y69.824 E77.72231
G0 X85.028 Y69.754
G0 F3600 X85.381 Y70.673
G1 F1800 X114.888 Y100.18 E78.76325
G0 X114.958 Y100.25
G0 F3600 X115.151 Y101.009
G1 F1800 X85.665 Y71.523 E79.80345
G0 X85.595 Y71.453
G0 F3600 X85.948 Y72.372
G1 F1800 X115.414 Y101.838 E80.84294
G0 X115.484 Y101.908
G0 F3600 X115.677 Y102.666
G1 F1800 X86.232 Y73.221 E81.8817
G0 X86.162 Y73.151
G0 F3600 X86.515 Y74.07
G1 F1800 X115.94 Y103.494 E82.91972
G0 X116.01 Y103.564
G0 F3600 X116.203 Y104.323
G1 F1800 X86.799 Y74.92 E83.95701
G0 X86.729 Y74.85
G0 F3600 X87.082 Y75.768
G1 F1800 X116.466 Y105.152 E84.99361
G0 X116.536 Y105.222
G0 F3600 X116.729 Y105.981
G1 F1800 X87.365 Y76.617 E86.02951
G0 X87.295 Y76.547
G0 F3600 X87.649 Y77.467
G1 F1800 X116.991 Y106.809 E87.06462
G0 X117.061 Y106.879
G0 F3600 X117.254 Y107.637
G1 F1800 X87.932 Y78.316 E88.09902
G0 X87.862 Y78.246
G0 F3600 X88.216 Y79.165
G1 F1800 X117.517 Y108.466 E89.13269
G0 X117.587 Y108.536
G0 F3600 X117.78 Y109.295
G1 F1800 X88.5 Y80.014 E90.16564
G0 X88.43 Y79.944
G0 F3600 X88.783 Y80.864
G1 F1800 X118.042 Y110.123 E91.19783
G0 X118.112 Y110.193
G0 F3600 X118.306 Y110.952
G1 F1800 X89.067 Y81.713 E92.22931
G0 X88.997 Y81.643
G0 F3600 X89.35 Y82.562
G1 F1800 X118.569 Y111.78 E93.26008
G0 X118.639 Y111.85
G0 F3600 X118.832 Y112.609
G1 F1800 X89.634 Y83.411 E94.29011
G0 X89.564 Y83.341
G0 F3600 X89.917 Y84.26
G1 F1800 X119.095 Y113.438 E95.31945
G0 X119.165 Y113.508
G0 F3600 X119.357 Y114.266
G1 F1800 X90.2 Y85.109 E96.34804
G0 X90.13 Y85.039
G0 F3600 X90.484 Y85.958
G1 F1800 X119.62 Y115.095 E97.37591
G0 X119.69 Y115.165
G0 F3600 X119.883 Y115.923
G1 F1800 X90.767 Y86.807 E98.40305
G0 X90.697 Y86.737
G0 F3600 X91.051 Y87.657
G1 F1800 X120.146 Y116.752 E99.42946
G0 X120.216 Y116.822
G0 F3600 X120.408 Y117.58
G1 F1800 X91.334 Y88.506 E100.45512
G0 X91.264 Y88.436
G0 F3600 X91.618 Y89.355
G1 F1800 X120.672 Y118.409 E101.48008
G0 X120.742 Y118.479
G0 F3600 X120.935 Y119.238
G1 F1800 X91.901 Y90.204 E102.50433
G0 X91.831 Y90.134
G0 F3600 X92.185 Y91.054
G1 F1800 X121.198 Y120.066 E103.52783
G0 X121.268 Y120.136
G0 F3600 X121.46 Y120.894
G1 F1800 X92.469 Y91.903 E104.55056
G0 X92.399 Y91.833
G0 F3600 X92.751 Y92.751
G1 F1800 X121.723 Y121.723 E105.57263
G0 X121.793 Y121.793
G0 F3600 X121.986 Y122.552
G1 F1800 X93.035 Y93.601 E106.59395
G0 X92.965 Y93.531
G0 F3600 X93.319 Y94.45
G1 F1800 X122.249 Y123.38 E107.61454
G0 X122.319 Y123.45
G0 F3600 X122.511 Y124.208
G1 F1800 X93.602 Y95.299 E108.63438
G0 X93.532 Y95.229
G0 F3600 X93.886 Y96.148
G1 F1800 X122.774 Y125.037 E109.6535
G0 X122.844 Y125.107
G0 F3600 X123.037 Y125.866
G1 F1800 X94.169 Y96.998 E110.6719
G0 X94.099 Y96.928
G0 F3600 X94.453 Y97.847
G1 F1800 X123.301 Y126.695 E111.68959
G0 X123.371 Y126.765
G0 F3600 X123.564 Y127.523
G1 F1800 X94.736 Y98.696 E112.70656
G0 X94.666 Y98.626
G0 F3600 X95.02 Y99.545
G1 F1800 X123.826 Y128.351 E113.72277
G0 X123.896 Y128.421
G0 F3600 X124.089 Y129.18
G1 F1800 X95.303 Y100.395 E114.73825
G0 X95.233 Y100.325
G0 F3600 X95.586 Y101.243
G1 F1800 X124.352 Y130.009 E115.75305
G0 X124.422 Y130.079
G0 F3600 X124.615 Y130.838
G1 F1800 X95.87 Y102.092 E116.76713
G0 X95.8 Y102.022
G0 F3600 X96.153 Y102.942
G1 F1800 X124.877 Y131.666 E117.78044
G0 X124.947 Y131.736
G0 F3600 X125.14 Y132.494
G1 F1800 X96.437 Y103.791 E118.79302
G0 X96.367 Y103.721
G0 F3600 X96.72 Y104.64
G1 F1800 X125.608 Y133.527 E119.8121
G0 X125.678 Y133.597
G0 F3600 X126.295 Y134.78
G1 F1800 X97.004 Y105.489 E120.84542
G0 X96.934 Y105.419
G0 F3600 X97.287 Y106.338
G1 F1800 X126.982 Y136.033 E121.89299
G0 X127.052 Y136.103
G0 F3600 X127.669 Y137.286
G1 F1800 X97.571 Y107.188 E122.95478
G0 X97.501 Y107.118
G0 F3600 X97.855 Y108.037
G1 F1800 X128.356 Y138.539 E124.0308
G0 X128.426 Y138.609
G0 F3600 X129.043 Y139.791
G1 F1800 X98.138 Y108.886 E125.12106
G0 X98.068 Y108.816
G0 F3600 X98.422 Y109.735
G1 F1800 X129.73 Y141.044 E126.22555
G0 X129.8 Y141.114
G0 F3600 X130.418 Y142.297
G1 F1800 X98.705 Y110.584 E127.34431
G0 X98.635 Y110.514
G0 F3600 X98.988 Y111.433
G1 F1800 X131.104 Y143.549 E128.47729
G0 X131.174 Y143.619
G0 F3600 X131.791 Y144.802
G1 F1800 X99.272 Y112.282 E129.62451
G0 X99.202 Y112.212
G0 F3600 X99.555 Y113.132
G1 F1800 X132.479 Y146.055 E130.78597
G0 X132.549 Y146.125
G0 F3600 X133.165 Y147.308
G1 F1800 X99.839 Y113.981 E131.96165
G0 X99.769 Y113.911
G0 F3600 X100.122 Y114.83
G1 F1800 X133.853 Y148.561 E133.15161
G0 X133.923 Y148.631
G0 F3600 X134.539 Y149.813
G1 F1800 X100.406 Y115.679 E134.35576
G0 X100.336 Y115.609
G0 F3600 X100.689 Y116.529
G1 F1800 X135.227 Y151.066 E135.57416
G0 X135.297 Y151.136
G0 F3600 X135.914 Y152.319
G1 F1800 X100.973 Y117.378 E136.8068
G0 X100.903 Y117.308
G0 F3600 X101.256 Y118.227
G1 F1800 X136.601 Y153.571 E138.05367
G0 X136.671 Y153.641
G0 F3600 X137.288 Y154.824
G1 F1800 X101.539 Y119.076 E139.3148
G0 X101.469 Y119.006
G0 F3600 X101.823 Y119.925
G1 F1800 X137.974 Y156.076 E140.59012
G0 X138.044 Y156.146
G0 F3600 X138.662 Y157.329
G1 F1800 X102.106 Y120.774 E141.87972
G0 X102.036 Y120.704
G0 F3600 X102.39 Y121.623
G1 F1800 X139.349 Y158.582 E143.18354
G0 X139.419 Y158.652
G0 F3600 X140.036 Y159.835
G1 F1800 X102.674 Y122.473 E144.50159
G0 X102.604 Y122.403
G0 F3600 X102.957 Y123.322
G1 F1800 X140.723 Y161.088 E145.83389
G0 X140.793 Y161.158
G0 F3600 X141.41 Y162.341
G1 F1800 X103.241 Y124.171 E147.18042
G0 X103.171 Y124.101
G0 F3600 X103.524 Y125.02
G1 F1800 X142.097 Y163.593 E148.54119
G0 X142.167 Y163.663
G0 F3600 X142.784 Y164.846
G1 F1800 X103.808 Y125.869 E149.91619
G0 X103.738 Y125.799
G0 F3600 X104.091 Y126.719
G1 F1800 X143.471 Y166.098 E151.30541
G0 X143.541 Y166.168
G0 F3600 X144.158 Y167.351
G1 F1800 X104.374 Y127.567 E152.70889
G0 X104.304 Y127.497
G0 F3600 X104.658 Y128.416
G1 F1800 X144.845 Y168.604 E154.12662
G0 X144.915 Y168.674
G0 F3600 X145.532 Y169.856
G1 F1800 X104.941 Y129.266 E155.55856
G0 X104.871 Y129.196
G0 F3600 X105.225 Y130.115
G1 F1800 X146.219 Y171.109 E157.00473
G0 X146.289 Y171.179
G0 F3600 X146.907 Y172.362
G1 F1800 X105.508 Y130.964 E158.46517
G0 X105.438 Y130.894
G0 F3600 X105.792 Y131.813
G1 F1800 X147.593 Y173.615 E159.93983
G0 X147.663 Y173.685
G0 F3600 X148.28 Y174.868
G1 F1800 X106.075 Y132.663 E161.42873
G0 X106.005 Y132.593
G0 F3600 X106.359 Y133.512
G1 F1800 X148.967 Y176.12 E162.93184
G0 X149.037 Y176.19
