;FLAVOR:RepRap
;TIME:5650
;Generated with Cura_SteamEngine 2.3.1
G21 ; set units to millimeters
G90 ; use absolute positioning
M82 ; absolute extrusion mode
G28 W ; home all without mesh bed level
G80 ; mesh bed leveling
M104 S210 ; set extruder temp
M140 S55 ; set bed temp
M190 S55 ; wait for bed temp
M109 S210 ; wait for extruder temp
G92 E0.0 ; reset extruder distance position
G1 Y-3.0 F1000.0 ; go outside print area
G1 X60.0 E9.0 F1000.0 ; intro line
G1 X100.0 E21.5 F1000.0 ; intro line
G92 E0.0 ; reset extruder distance position
;LAYER_COUNT:100
;LAYER:0
M107
G1 F2100 E-0.8
G0 F3600 X92.934 Y83.743 Z.15
;TYPE:SKIRT
G1 F2100 E0
G1 F1800 X94.976 Y81.701 E0.07204
G1 X95.383 Y81.352 E0.08541
G1 X95.837 Y81.066 E0.0988
G1 X96.244 Y80.881 E0.10995
G1 X98.555 Y80.003 E0.17162
G1 X103.575 Y77.857 E0.3078
G1 X108.466 Y75.431 E0.44399
G1 X113.205 Y72.737 E0.57998
G1 X117.78 Y69.782 E0.71583
G1 X122.222 Y66.542 E0.85299
G1 X125.708 Y63.767 E0.96413
G1 X126.2 Y63.437 E0.97891
G1 X127.212 Y62.874 E1.0078
G1 X127.814 Y62.608 E1.02422
G1 X129.035 Y62.197 E1.05635
G1 X129.554 Y62.064 E1.06972
G1 X130.088 Y62.01 E1.08311
G1 X130.606 Y62.034 E1.09604
G1 X131.02 Y62.083 E1.10644
G1 X131.547 Y62.185 E1.11983
G1 X132.052 Y62.365 E1.1332
G1 X132.482 Y62.591 E1.14532
G1 X132.874 Y62.832 E1.1568
G1 X133.309 Y63.146 E1.17018
G1 X133.582 Y63.402 E1.17952
G1 X137.959 Y67.947 E1.33692
G1 X141.215 Y71.02 E1.4486
G1 X141.292 Y71.095 E1.45129
G1 X149.228 Y79.046 E1.73151
G1 X149.304 Y79.124 E1.73423
G1 X151.753 Y81.731 E1.82346
G1 X156.569 Y86.439 E1.99146
G1 X156.923 Y86.841 E2.00482
G1 X157.214 Y87.292 E2.01821
G1 X157.414 Y87.726 E2.03013
G1 X157.517 Y87.995 E2.03732
G1 X157.671 Y88.508 E2.05068
G1 X157.748 Y89.061 E2.0646
G1 X158.097 Y94.745 E2.20666
G1 X158.09 Y95.282 E2.22006
G1 X158.003 Y95.811 E2.23343
G1 X157.839 Y96.321 E2.24679
G1 X157.601 Y96.802 E2.26018
G1 X157.294 Y97.241 E2.27354
G1 X157.049 Y97.512 E2.28266
G1 X107.617 Y146.94 E4.02643
G1 X107.211 Y147.29 E4.0398
G1 X106.757 Y147.575 E4.05318
G1 X106.266 Y147.79 E4.06655
G1 X105.748 Y147.93 E4.07993
G1 X105.072 Y147.994 E4.09687
G1 X95.479 Y147.994 E4.33617
G1 X94.944 Y147.954 E4.34955
G1 X94.421 Y147.835 E4.36293
G1 X93.922 Y147.64 E4.3763
G1 X93.457 Y147.372 E4.38968
G1 X93.037 Y147.039 E4.40305
G1 X92.671 Y146.647 E4.41643
G1 X92.368 Y146.205 E4.4298
G1 X92.133 Y145.722 E4.4432
G1 X91.973 Y145.211 E4.45656
G1 X91.89 Y144.681 E4.46994
G1 X91.879 Y144.393 E4.47713
G1 X91.88 Y141.022 E4.56122
G1 X91.92 Y140.487 E4.5746
G1 X91.994 Y140.126 E4.58379
G1 X92.61 Y137.731 E4.64548
G1 X93.775 Y132.325 E4.78343
G1 X94.219 Y129.712 E4.84955
G1 X94.913 Y124.271 E4.98637
G1 X95.296 Y118.841 E5.12216
G1 X95.373 Y113.381 E5.25837
G1 X95.139 Y107.925 E5.3946
G1 X94.599 Y102.507 E5.53042
G1 X93.751 Y97.112 E5.66665
G1 X93.222 Y94.474 E5.73377
G1 X91.982 Y89.365 E5.86491
G1 X91.894 Y88.836 E5.87829
G1 X91.88 Y88.516 E5.88628
G1 X91.88 Y86.289 E5.94183
G1 X91.92 Y85.754 E5.95522
G1 X92.039 Y85.231 E5.9686
G1 X92.234 Y84.732 E5.98196
G1 X92.502 Y84.267 E5.99535
G1 X92.934 Y83.743 E6.01229
G0 F3600 X93.217 Y84.026
G1 F1800 X95.259 Y81.984 E6.08433
G1 X95.644 Y81.656 E6.09694
G1 X96.075 Y81.393 E6.10954
G1 X96.386 Y81.255 E6.11802
G1 X98.706 Y80.374 E6.17993
G1 X103.738 Y78.223 E6.31644
G1 X108.65 Y75.787 E6.45321
G1 X113.419 Y73.074 E6.59008
G1 X118.01 Y70.109 E6.72641
G1 X122.459 Y66.865 E6.86376
G1 X125.957 Y64.08 E6.97529
G1 X126.394 Y63.787 E6.98842
G1 X127.406 Y63.224 E7.01731
G1 X127.941 Y62.987 E7.0319
G1 X129.162 Y62.576 E7.06404
G1 X129.653 Y62.453 E7.07667
G1 X130.156 Y62.409 E7.08926
G1 X130.559 Y62.431 E7.09933
G1 X130.973 Y62.48 E7.10973
G1 X131.469 Y62.579 E7.12235
G1 X131.943 Y62.755 E7.13496
G1 X132.273 Y62.932 E7.1443
G1 X132.665 Y63.173 E7.15578
G1 X133.073 Y63.471 E7.16838
G1 X133.294 Y63.679 E7.17595
G1 X137.679 Y68.232 E7.33364
G1 X140.941 Y71.311 E7.44553
G1 X141.009 Y71.377 E7.44789
G1 X148.945 Y79.328 E7.72812
G1 X149.012 Y79.398 E7.73054
G1 X151.464 Y82.008 E7.81987
G1 X156.289 Y86.725 E7.98819
G1 X156.621 Y87.106 E8.0008
G1 X156.89 Y87.534 E8.01341
G1 X157.04 Y87.869 E8.02256
G1 X157.143 Y88.138 E8.02975
G1 X157.286 Y88.623 E8.04236
G1 X157.349 Y89.086 E8.05402
G1 X157.698 Y94.77 E8.19607
G1 X157.689 Y95.275 E8.20867
G1 X157.601 Y95.773 E8.22129
G1 X157.435 Y96.251 E8.23391
G1 X157.196 Y96.696 E8.24651
G1 X156.767 Y97.229 E8.26358
G1 X107.335 Y146.657 E10.00736
G1 X106.95 Y146.985 E10.01997
G1 X106.519 Y147.248 E10.03257
G1 X106.051 Y147.441 E10.04519
G1 X105.559 Y147.557 E10.0578
G1 X105.072 Y147.594 E10.06999
G1 X95.479 Y147.594 E10.30929
G1 X94.975 Y147.554 E10.3219
G1 X94.484 Y147.435 E10.3345
G1 X94.017 Y147.241 E10.34711
G1 X93.587 Y146.975 E10.35973
G1 X93.204 Y146.645 E10.37234
G1 X92.878 Y146.258 E10.38496
G1 X92.617 Y145.825 E10.39757
G1 X92.427 Y145.357 E10.41017
G1 X92.314 Y144.864 E10.42279
G1 X92.279 Y144.393 E10.43457
G1 X92.28 Y141.022 E10.51866
G1 X92.32 Y140.518 E10.53127
G1 X92.381 Y140.226 E10.53871
G1 X93.001 Y137.818 E10.60074
G1 X94.166 Y132.407 E10.73881
G1 X94.617 Y129.756 E10.80589
G1 X95.311 Y124.315 E10.94272
G1 X95.696 Y118.857 E11.07921
G1 X95.773 Y113.369 E11.21612
G1 X95.539 Y107.903 E11.35259
G1 X94.996 Y102.459 E11.48907
G1 X94.142 Y97.022 E11.62636
G1 X93.62 Y94.422 E11.69251
G1 X92.37 Y89.271 E11.82473
G1 X92.29 Y88.771 E11.83736
G1 X92.28 Y88.516 E11.84373
G1 X92.28 Y86.289 E11.89928
G1 X92.32 Y85.785 E11.91189
G1 X92.439 Y85.294 E11.92449
G1 X92.633 Y84.827 E11.93711
G1 X92.899 Y84.397 E11.94972
G1 X93.217 Y84.026 E11.96191
G1 F2100 E11.16191
G0 F3600 X95.186 Y85.628
G0 X96.106 Y86.547
G0 X96.116 Y86.551
G0 X96.12 Y86.532
;TYPE:WALL-INNER
G1 F2100 E11.96191
G1 F1800 X96.12 Y87.914 E11.99639
G1 X96.07 Y87.914 E11.99763
G1 X96.07 Y86.532 E12.00194
G1 X96.12 Y86.482 E12.00371
G0 X96.12 Y86.532
G1 F2100 E11.20371
G0 F3600 X96.116 Y86.551
G0 X96.106 Y86.519
G0 X96.474 Y86.149
G0 X99.14 Y86.094
G0 X99.07 Y86.164
G1 F2100 E12.00371
G1 F1800 X96.92 Y86.164 E12.05734
G1 X96.918 Y86.164 E12.05739
G1 X96.438 Y86.164 E12.06936
G1 X96.778 Y85.824 E12.07581
G1 X97.767 Y84.834 E12.11072
G1 X99.053 Y84.798 E12.14281
G1 X117.61 Y84.489 E12.60578
G1 X118.037 Y84.455 E12.61647
G1 X118.482 Y84.349 E12.62788
G1 X118.903 Y84.175 E12.63924
G1 X119.293 Y83.935 E12.65067
G1 X119.64 Y83.638 E12.66206
G1 X120.077 Y83.125 E12.67887
G1 X119.994 Y83.037 E12.68189
G1 X124.67 Y74.352 E12.92794
G1 X124.888 Y74.097 E12.93631
G1 X125.126 Y73.707 E12.94771
G1 X125.301 Y73.284 E12.95913
G1 X125.405 Y72.84 E12.9705
G1 X125.528 Y71.34 E13.00805
G1 X125.785 Y70.321 E13.03426
G1 X126.199 Y69.37 E13.06013
G1 X126.768 Y68.489 E13.0863
G1 X127.472 Y67.714 E13.11241
G1 X128.293 Y67.064 E13.13853
G1 X129.21 Y66.557 E13.16467
G1 X130.183 Y66.21 E13.19044
G1 X130.249 Y66.198 E13.19212
G1 X130.315 Y66.196 E13.19376
G1 X130.381 Y66.207 E13.19543
G1 X130.497 Y66.257 E13.19858
G1 X130.553 Y66.3 E13.20034
G1 X130.599 Y66.347 E13.20198
G1 X130.629 Y66.393 E13.20335
G1 X130.661 Y66.463 E13.20527
G1 X130.679 Y66.528 E13.20696
G1 X130.684 Y66.584 E13.20836
G1 X130.662 Y66.723 E13.21187
G1 X130.637 Y66.781 E13.21345
G1 X130.605 Y66.832 E13.21495
G1 X130.56 Y66.882 E13.21662
G1 X130.506 Y66.925 E13.21835
G1 X130.453 Y66.955 E13.21987
G1 X129.506 Y67.295 E13.24497
G1 X128.689 Y67.756 E13.26837
G1 X127.961 Y68.346 E13.29174
G1 X127.342 Y69.049 E13.31511
G1 X126.847 Y69.846 E13.33851
G1 X126.493 Y70.714 E13.36189
G1 X126.288 Y71.629 E13.38528
G1 X126.239 Y72.564 E13.40864
G1 X126.347 Y73.498 E13.43209
G1 X126.609 Y74.397 E13.45545
G1 X127.016 Y75.24 E13.4788
G1 X127.56 Y76.006 E13.50224
G1 X128.222 Y76.668 E13.52559
G1 X128.988 Y77.212 E13.54903
G1 X129.831 Y77.619 E13.57238
G1 X130.73 Y77.881 E13.59574
G1 X131.664 Y77.989 E13.61919
G1 X132.598 Y77.94 E13.64253
G1 X133.514 Y77.736 E13.66594
G1 X134.382 Y77.381 E13.68933
G1 X135.179 Y76.886 E13.71273
G1 X135.883 Y76.267 E13.73612
G1 X136.472 Y75.539 E13.75948
G1 X136.933 Y74.721 E13.7829
G1 X137.272 Y73.777 E13.80792
G1 X137.302 Y73.723 E13.80946
G1 X137.343 Y73.67 E13.81113
G1 X137.45 Y73.589 E13.81448
G1 X137.497 Y73.568 E13.81576
G1 X137.559 Y73.552 E13.81736
G1 X137.63 Y73.544 E13.81914
G1 X137.748 Y73.562 E13.82212
G1 X137.82 Y73.59 E13.82405
G1 X137.866 Y73.618 E13.82539
G1 X137.937 Y73.679 E13.82773
G1 X145.699 Y81.441 E14.10155
G1 X145.84 Y81.582 E14.10653
G1 X145.699 Y81.723 E14.10974
G1 X143.418 Y84.003 E14.19019
G1 X142.832 Y84.696 E14.21283
G1 X142.356 Y85.498 E14.23609
G1 X142.02 Y86.367 E14.25933
G1 X141.832 Y87.281 E14.28261
G1 X141.8 Y88.213 E14.30587
G1 X141.921 Y89.137 E14.32912
G1 X142.194 Y90.028 E14.35236
G1 X142.612 Y90.861 E14.37561
G1 X143.161 Y91.614 E14.39886
G1 X143.828 Y92.266 E14.42213
G1 X144.594 Y92.798 E14.44539
G1 X145.438 Y93.194 E14.46865
G1 X146.335 Y93.446 E14.49189
G1 X147.261 Y93.546 E14.51512
G1 X148.193 Y93.491 E14.53841
G1 X149.101 Y93.281 E14.56166
G1 X149.962 Y92.925 E14.5849
G1 X150.753 Y92.43 E14.60818
G1 X151.45 Y91.811 E14.63143
G1 X152.034 Y91.085 E14.65467
G1 X152.491 Y90.273 E14.67792
G1 X152.827 Y89.337 E14.70272
G1 X152.862 Y89.273 E14.70454
G1 X152.903 Y89.222 E14.70618
G1 X152.945 Y89.185 E14.70757
G1 X153.008 Y89.145 E14.70943
G1 X153.066 Y89.12 E14.71101
G1 X153.127 Y89.106 E14.71257
G1 X153.198 Y89.101 E14.71435
G1 X153.267 Y89.107 E14.71607
G1 X153.386 Y89.151 E14.71924
G1 X153.49 Y89.236 E14.72259
G1 X153.558 Y89.345 E14.72579
G1 X153.577 Y89.406 E14.72739
G1 X153.588 Y89.471 E14.72903
G1 X153.587 Y89.537 E14.73068
G1 X153.575 Y89.604 E14.73238
G1 X153.206 Y90.622 E14.75939
G1 X152.492 Y91.879 E14.79545
G1 X153.814 Y94.82 E14.87588
G1 X104.83 Y143.804 E16.60393
G1 X96.07 Y143.804 E16.82244
G1 X96.07 Y143.363 E16.83345
G1 X96.07 Y141.613 E16.8771
G1 X96.12 Y141.613 E16.87835
G1 X96.12 Y143.363 E16.8838
G1 X99.07 Y143.363 E16.95739
G1 X99.07 Y138.28 E17.08419
G1 X102.141 Y138.28 E17.16079
G1 X102.141 Y138.051 E17.16651
G1 X102.141 Y137.569 E17.17853
G1 X102.482 Y137.91 E17.18501
G1 X102.85 Y138.278 E17.19799
G1 X103.787 Y138.282 E17.22136
G1 X103.987 Y138.282 E17.22635
G1 X103.987 Y138.082 E17.22958
G1 X103.986 Y91.248 E18.39786
G1 X99.07 Y91.247 E18.52049
G1 X99.07 Y86.164 E18.64729
G0 F3600 X99.14 Y86.094
G0 X106.413 Y93.418
G0 X106.491 Y93.48
G1 F1800 X105.399 Y94.985 E18.69367
G1 X105.399 Y112.104 E19.12071
G1 X106.045 Y113.008 E19.14842
G1 X106.492 Y113.618 E19.16729
G1 X107.591 Y114.869 E19.20882
G1 X108.817 Y116.001 E19.25045
G1 X110.151 Y117 E19.29202
G1 X111.221 Y117.641 E19.32314
G1 X111.372 Y117.732 E19.32754
G1 X111.583 Y117.859 E19.33368
G1 X111.879 Y117.998 E19.34184
G0 X111.578 Y117.986
G1 X111.229 Y117.971 E19.34361
G1 X111.054 Y117.992 E19.34737
G1 X110.157 Y118.101 E19.36991
G1 X109.12 Y118.401 E19.39684
G1 X108.144 Y118.865 E19.4238
G1 X107.255 Y119.478 E19.45074
G1 X106.477 Y120.226 E19.47766
G1 X105.828 Y121.09 E19.50461
G1 X105.326 Y122.046 E19.53155
G1 X104.983 Y123.071 E19.55851
G1 X104.811 Y124.137 E19.58545
G1 X104.811 Y125.214 E19.61231
G1 X104.983 Y126.28 E19.63925
G1 X105.326 Y127.305 E19.66621
G1 X105.828 Y128.26 E19.69312
G1 X106.477 Y129.125 E19.7201
G1 X107.255 Y129.873 E19.74702
G1 X108.144 Y130.487 E19.77397
G1 X109.12 Y130.949 E19.80091
G1 X110.157 Y131.25 E19.82784
G1 X111.23 Y131.379 E19.8548
G1 X112.306 Y131.335 E19.88167
G1 X113.364 Y131.121 E19.90859
G1 X114.375 Y130.738 E19.93556
G1 X115.31 Y130.197 E19.96251
G1 X116.146 Y129.514 E19.98944
G1 X116.862 Y128.706 E20.01637
G1 X117.44 Y127.793 E20.04332
G1 X117.863 Y126.8 E20.07025
G1 X118.122 Y125.751 E20.0972
G1 X118.209 Y124.675 E20.12413
G1 X118.122 Y123.599 E20.15106
G1 X117.863 Y122.551 E20.17799
G1 X117.44 Y121.559 E20.20489
G1 X116.862 Y120.644 E20.23189
G1 X116.171 Y119.864 E20.25788
G1 X116.146 Y119.836 E20.25882
G1 X116.068 Y119.773 E20.26132
G1 X115.499 Y119.308 E20.27965
G1 X116.23 Y119.48 E20.28785
G1 X116.293 Y119.495 E20.28905
G1 X116.33 Y119.499 E20.28998
G1 X117.948 Y119.709 E20.33068
G1 X119.615 Y119.751 E20.37227
G1 X121.278 Y119.621 E20.41388
G1 X122.919 Y119.322 E20.45549
G1 X124.521 Y118.854 E20.49713
G1 X126.065 Y118.226 E20.53871
G1 X127.538 Y117.442 E20.58033
G1 X128.922 Y116.509 E20.62197
G1 X130.202 Y115.441 E20.66355
G1 X131.366 Y114.245 E20.70518
G1 X132.401 Y112.936 E20.74681
G1 X133.298 Y111.529 E20.78843
G1 X134.044 Y110.036 E20.83007
G1 X134.632 Y108.476 E20.87165
G1 X135.057 Y106.862 E20.91329
G1 X135.312 Y105.214 E20.95489
G1 X135.399 Y103.549 E20.99648
G1 X135.312 Y101.883 E21.03809
G1 X135.057 Y100.235 E21.07969
G1 X134.632 Y98.621 E21.12132
G1 X134.047 Y97.069 E21.1627
G1 X125.699 Y88.721 E21.4572
G1 X124.521 Y88.243 E21.48891
G1 X122.919 Y87.775 E21.53054
G1 X121.278 Y87.475 E21.57215
G1 X119.614 Y87.346 E21.61379
G1 X117.949 Y87.388 E21.65533
G1 X116.294 Y87.602 E21.69696
G1 X114.67 Y87.984 E21.73858
G1 X113.094 Y88.531 E21.78019
G1 X111.583 Y89.238 E21.82181
G1 X110.151 Y90.097 E21.86346
G1 X108.817 Y91.096 E21.90503
G1 X107.591 Y92.228 E21.94666
G1 X106.491 Y93.48 E21.98823
G0 F3600 X106.413 Y93.418
G0 X105.299 Y95.115
G0 X105.799 Y95.115
;TYPE:WALL-OUTER
G1 F1800 X105.799 Y111.976 E22.40883
G1 X106.369 Y112.773 E22.43328
G1 X106.804 Y113.367 E22.45164
G1 X107.878 Y114.589 E22.49222
G1 X109.073 Y115.693 E22.53281
G1 X110.374 Y116.668 E22.57336
G1 X111.771 Y117.505 E22.61399
G1 X113.245 Y118.195 E22.65459
G1 X113.346 Y118.23 E22.65725
G1 X113.382 Y118.242 E22.6582
G1 X113.551 Y118.3 E22.66266
G1 X114.781 Y118.728 E22.69514
G1 X116.365 Y119.101 E22.73574
G1 X117.979 Y119.31 E22.77633
G1 X119.604 Y119.351 E22.81688
G1 X121.226 Y119.224 E22.85747
G1 X122.827 Y118.932 E22.89806
G1 X124.389 Y118.476 E22.93865
G1 X125.895 Y117.863 E22.97921
G1 X127.332 Y117.099 E23.01981
G1 X128.681 Y116.189 E23.0604
G1 X129.93 Y115.147 E23.10098
G1 X131.065 Y113.981 E23.14157
G1 X132.075 Y112.704 E23.18218
G1 X132.949 Y111.332 E23.22276
G1 X133.677 Y109.876 E23.26337
G1 X134.25 Y108.354 E23.30394
G1 X134.665 Y106.78 E23.34454
G1 X134.914 Y105.173 E23.38511
G1 X134.998 Y103.549 E23.42567
G1 X134.914 Y101.924 E23.46626
G1 X134.665 Y100.317 E23.50683
G1 X134.25 Y98.743 E23.54743
G1 X133.703 Y97.291 E23.58614
G1 X125.473 Y89.061 E23.87647
G1 X124.389 Y88.621 E23.90566
G1 X122.827 Y88.165 E23.94625
G1 X121.226 Y87.872 E23.98685
G1 X119.604 Y87.746 E24.02743
G1 X117.98 Y87.787 E24.06796
G1 X116.366 Y87.996 E24.10855
G1 X114.782 Y88.369 E24.14915
G1 X113.245 Y88.902 E24.18973
G1 X111.771 Y89.592 E24.23033
G1 X110.374 Y90.429 E24.27095
G1 X109.073 Y91.404 E24.31151
G1 X107.878 Y92.508 E24.35209
G1 X106.804 Y93.73 E24.39267
G1 X105.799 Y95.115 E24.43536
G0 F3600 X105.299 Y95.115
G0 X104.014 Y91.22
G0 X103.587 Y91.148
G0 X103.586 Y91.648
G1 F1800 X98.67 Y91.647 E24.55799
G1 X98.67 Y86.564 E24.68478
G1 X96.52 Y86.564 E24.73842
G1 X96.52 Y88.314 E24.78207
G1 X95.67 Y88.314 E24.80327
G1 X95.67 Y86.366 E24.85187
G1 X97.597 Y84.438 E24.91986
G1 X99.042 Y84.398 E24.95592
G1 X117.591 Y84.089 E25.41869
G1 X117.974 Y84.059 E25.42828
G1 X118.358 Y83.967 E25.43813
G1 X118.721 Y83.817 E25.44793
G1 X119.057 Y83.611 E25.45776
G1 X119.356 Y83.355 E25.46758
G1 X119.54 Y83.139 E25.47465
G1 X119.505 Y83.102 E25.47592
G1 X124.338 Y74.124 E25.73027
G1 X124.563 Y73.861 E25.7389
G1 X124.768 Y73.525 E25.74872
G1 X124.919 Y73.161 E25.75855
G1 X125.009 Y72.778 E25.76837
G1 X125.132 Y71.275 E25.80598
G1 X125.405 Y70.193 E25.83382
G1 X125.845 Y69.18 E25.86137
G1 X126.45 Y68.244 E25.88917
G1 X127.199 Y67.42 E25.91695
G1 X128.071 Y66.73 E25.94469
G1 X129.044 Y66.191 E25.97243
G1 X130.076 Y65.823 E25.99977
G1 X130.212 Y65.798 E26.00322
G1 X130.34 Y65.796 E26.00641
G1 X130.476 Y65.817 E26.00984
G1 X130.598 Y65.858 E26.01305
G1 X130.709 Y65.916 E26.01618
G1 X130.82 Y66 E26.01965
G1 X130.913 Y66.098 E26.02302
G1 X130.982 Y66.201 E26.02611
G1 X131.038 Y66.325 E26.02951
G1 X131.073 Y66.452 E26.03279
G1 X131.086 Y66.584 E26.0361
G1 X131.076 Y66.71 E26.03925
G1 X131.045 Y66.843 E26.04266
G1 X130.992 Y66.968 E26.04605
G1 X130.923 Y67.076 E26.04924
G1 X130.836 Y67.174 E26.05251
G1 X130.731 Y67.257 E26.05585
G1 X130.618 Y67.321 E26.05909
G1 X129.673 Y67.66 E26.08413
G1 X128.915 Y68.088 E26.10585
