;FLAVOR:RepRap
;TIME:8078
;Generated with Cura_SteamEngine 2.3.1
G21 ; set units to millimeters
G90 ; use absolute positioning
M82 ; absolute extrusion mode
G28 W ; home all without mesh bed level
G80 ; mesh bed leveling
M104 S210 ; set extruder temp
M140 S55 ; set bed temp
M190 S55 ; wait for bed temp
M109 S210 ; wait for extruder temp
G92 E0.0 ; reset extruder distance position
G1 Y-3.0 F1000.0 ; go outside print area
G1 X60.0 E9.0 F1000.0 ; intro line
G1 X100.0 E21.5 F1000.0 ; intro line
G92 E0.0 ; reset extruder distance position
;LAYER_COUNT:160
;LAYER:0
M107
G1 F2100 E-0.8
G0 F3600 X104.098 Y57.104 Z.15
;TYPE:SKIRT
G1 F2100 E0
G1 F1800 X104.365 Y56.674 E0.01263
G1 X104.718 Y56.269 E0.02603
G1 X104.779 Y56.21 E0.02814
G1 X105.169 Y55.888 E0.04076
G1 X105.605 Y55.632 E0.05337
G1 X106.076 Y55.448 E0.06599
G1 X106.57 Y55.34 E0.0786
G1 X107.004 Y55.31 E0.08945
G1 X108.192 Y55.31 E0.11909
G1 X108.696 Y55.35 E0.1317
G1 X109.187 Y55.469 E0.1443
G1 X109.748 Y55.714 E0.15957
G1 X114.55 Y58.386 E0.29665
G1 X119.49 Y60.794 E0.43374
G1 X124.527 Y62.907 E0.57
G1 X129.689 Y64.735 E0.7066
G1 X134.957 Y66.272 E0.84349
G1 X139.727 Y67.394 E0.96573
G1 X140.208 Y67.548 E0.97833
G1 X140.659 Y67.776 E0.99093
G1 X141.253 Y68.243 E1.00978
G1 X145.778 Y72.753 E1.16915
G1 X145.885 Y72.864 E1.17299
G1 X146.345 Y73.369 E1.19003
G1 X146.655 Y73.769 E1.20266
G1 X146.898 Y74.212 E1.21526
G1 X147.068 Y74.688 E1.22787
G1 X147.161 Y75.185 E1.24048
G1 X147.179 Y75.521 E1.24888
G1 X147.2 Y97.79 E1.80438
G1 X147.198 Y97.91 E1.80737
G1 X146.991 Y103.586 E1.94906
G1 X147.066 Y109.108 E2.08682
G1 X147.197 Y111.912 E2.15684
G1 X147.2 Y112.062 E2.16058
G1 X147.19 Y134.492 E2.7201
G1 X147.15 Y134.996 E2.73271
G1 X147.031 Y135.488 E2.74534
G1 X146.836 Y135.954 E2.75794
G1 X146.57 Y136.384 E2.77055
G1 X146.254 Y136.753 E2.78267
G1 X141.261 Y141.751 E2.9589
G1 X140.876 Y142.079 E2.97152
G1 X140.445 Y142.343 E2.98412
G1 X139.738 Y142.602 E3.00291
G1 X134.369 Y143.88 E3.14058
G1 X129.074 Y145.46 E3.27842
G1 X126.549 Y146.333 E3.34506
G1 X121.425 Y148.35 E3.48243
G1 X116.438 Y150.647 E3.61939
G1 X111.58 Y153.227 E3.7566
G1 X109.802 Y154.258 E3.80787
G1 X109.346 Y154.477 E3.82049
G1 X108.861 Y154.62 E3.83311
G1 X108.197 Y154.69 E3.84976
G1 X107.009 Y154.69 E3.8794
G1 X106.505 Y154.65 E3.89201
G1 X106.014 Y154.531 E3.90461
G1 X105.547 Y154.337 E3.91722
G1 X105.117 Y154.071 E3.92984
G1 X104.82 Y153.825 E3.93946
G1 X104.724 Y153.735 E3.94274
G1 X104.384 Y153.361 E3.95535
G1 X104.107 Y152.938 E3.96796
G1 X103.9 Y152.477 E3.98057
G1 X103.768 Y151.989 E3.99318
G1 X103.713 Y151.398 E4.00798
G1 X103.734 Y114.889 E4.9187
G1 X103.742 Y114.665 E4.9243
G1 X104.134 Y109.119 E5.06299
G1 X104.211 Y103.631 E5.1999
G1 X103.977 Y98.139 E5.33702
G1 X103.709 Y94.611 E5.42528
G1 X103.7 Y94.365 E5.43142
G1 X103.743 Y58.565 E6.32446
G1 X103.784 Y58.061 E6.33707
G1 X103.903 Y57.57 E6.34967
G1 X104.098 Y57.104 E6.36228
G1 F2100 E5.56228
G0 F3600 X106.235 Y59.129
G0 X107.527 Y59.128
G0 X107.6 Y59.3
G0 X107.499 Y59.3
;TYPE:WALL-INNER
G1 F2100 E6.36228
G1 F1800 X107.499 Y59.1 E6.36726
G1 X107.699 Y59.1 E6.37049
G1 X107.953 Y59.1 E6.37683
G1 X113.4 Y64.548 E6.56901
G1 X113.4 Y70.661 E6.7215
G1 X117.654 Y78.029 E6.93373
G1 X126.346 Y78.029 E7.15055
G1 X130.346 Y71.1 E7.35013
G1 X138.752 Y71.1 E7.55981
G1 X143.4 Y75.748 E7.72379
G1 X143.4 Y98.252 E8.28515
G1 X138.752 Y102.9 E8.44912
G1 X113.311 Y102.9 E9.08375
G1 X107.5 Y94.682 E9.33482
G1 X107.499 Y59.3 E10.21743
G0 F3600 X107.6 Y59.3
G0 X117.605 Y80.886
G0 X117.654 Y80.972
G1 F1800 X113.307 Y88.5 E10.43427
G1 X117.654 Y96.029 E10.65114
G1 X126.346 Y96.029 E10.86796
G1 X130.693 Y88.5 E11.08483
G1 X126.346 Y80.972 E11.30168
G1 X117.654 Y80.972 E11.5185
G0 F3600 X117.605 Y80.886
G0 X129.712 Y79.487
G0 X129.809 Y79.467
G1 F1800 X130.758 Y81.599 E11.57672
G1 X132.493 Y83.162 E11.63497
G1 X134.713 Y83.883 E11.69319
G1 X137.034 Y83.639 E11.75141
G1 X139.056 Y82.472 E11.80965
G1 X140.428 Y80.583 E11.86789
G1 X140.912 Y78.3 E11.9261
G1 X140.428 Y76.018 E11.98429
G1 X139.056 Y74.129 E12.04253
G1 X137.034 Y72.962 E12.10077
G1 X134.713 Y72.718 E12.15898
G1 X132.493 Y73.439 E12.21721
G1 X130.758 Y75.002 E12.27546
G1 X129.809 Y77.134 E12.33367
G1 X129.809 Y79.467 E12.39187
G0 F3600 X129.712 Y79.487
G0 X132.894 Y91.133
G0 X132.944 Y91.219
G1 F1800 X131.486 Y92.531 E12.4408
G1 X130.689 Y94.321 E12.48968
G1 X130.689 Y96.28 E12.53854
G1 X131.486 Y98.07 E12.58742
G1 X132.944 Y99.382 E12.63635
G1 X134.807 Y99.988 E12.68522
G1 X136.755 Y99.783 E12.73408
G1 X138.454 Y98.803 E12.78301
G1 X139.606 Y97.217 E12.83191
G1 X140.013 Y95.3 E12.88079
G1 X139.606 Y93.384 E12.92965
G1 X138.454 Y91.798 E12.97855
G1 X136.755 Y90.818 E13.02748
G1 X134.807 Y90.613 E13.07634
G1 X132.944 Y91.219 E13.12521
G0 F3600 X133.148 Y91.573
;TYPE:WALL-OUTER
G1 F1800 X131.817 Y92.771 E13.16988
G1 X131.089 Y94.406 E13.21452
G1 X131.089 Y96.195 E13.25915
G1 X131.817 Y97.83 E13.3038
G1 X133.148 Y99.028 E13.34847
G1 X134.85 Y99.581 E13.39311
G1 X136.629 Y99.394 E13.43773
G1 X138.18 Y98.499 E13.4824
G1 X139.232 Y97.051 E13.52705
G1 X139.604 Y95.3 E13.5717
G1 X139.232 Y93.55 E13.61633
G1 X138.18 Y92.102 E13.66098
G1 X136.629 Y91.207 E13.70565
G1 X134.85 Y91.02 E13.75027
G1 X133.148 Y91.573 E13.79491
G0 F3600 X132.815 Y91.201
G0 X130.663 Y88.75
G0 X130.231 Y88.5
G1 F1800 X126.115 Y81.372 E14.00023
G1 X117.885 Y81.372 E14.20553
G1 X113.769 Y88.5 E14.41085
G1 X117.885 Y95.629 E14.6162
G1 X126.115 Y95.629 E14.8215
G1 X130.231 Y88.5 E15.02684
G0 F3600 X130.663 Y88.75
G0 X132.542 Y83.282
G0 X132.697 Y82.808
G1 F1800 X134.756 Y83.476 E15.08084
G1 X136.908 Y83.25 E15.13482
G1 X138.782 Y82.168 E15.1888
G1 X140.054 Y80.417 E15.24279
G1 X140.503 Y78.3 E15.29677
G1 X140.054 Y76.184 E15.35073
G1 X138.782 Y74.433 E15.40472
G1 X136.908 Y73.351 E15.45869
G1 X134.756 Y73.125 E15.51267
G1 X132.697 Y73.793 E15.56667
G1 X131.089 Y75.242 E15.62066
G1 X130.209 Y77.219 E15.67465
G1 X130.209 Y79.382 E15.7286
G1 X131.089 Y81.359 E15.78258
G1 X132.697 Y82.808 E15.83658
G0 F3600 X132.542 Y83.282
G0 X126.115 Y78.129
G0 X126.115 Y77.629
G1 F1800 X130.115 Y70.7 E16.03616
G1 X138.918 Y70.7 E16.25575
G1 X143.8 Y75.582 E16.42797
G1 X143.8 Y98.418 E16.99762
G1 X138.918 Y103.3 E17.16985
G1 X113.104 Y103.3 E17.81378
G1 X107.1 Y94.81 E18.07317
G1 X107.099 Y58.9 E18.96895
G1 X107.099 Y58.7 E18.97394
G1 X107.299 Y58.7 E18.97717
G1 X108.119 Y58.7 E18.99762
G1 X113.8 Y64.382 E19.19805
G1 X113.8 Y70.554 E19.35201
G1 X117.885 Y77.629 E19.55581
G1 X126.115 Y77.629 E19.7611
G0 F3600 X126.598 Y77.949
;TYPE:SKIN
G1 F1800 X143.219 Y94.57 E20.34745
G0 X143.289 Y94.64
G0 F3600 X143.219 Y94.004
G1 F1800 X132.601 Y83.386 E20.72203
G0 X132.531 Y83.316
G0 F3600 X133.438 Y83.658
G1 F1800 X143.219 Y93.439 E21.06708
G0 X143.289 Y93.509
G0 F3600 X143.219 Y92.873
G1 F1800 X134.276 Y83.93 E21.38257
G0 X134.206 Y83.86
G0 F3600 X134.95 Y84.038
G1 F1800 X143.219 Y92.307 E21.67428
G0 X143.289 Y92.377
G0 F3600 X143.219 Y91.742
G1 F1800 X135.462 Y83.985 E21.94793
G0 X135.392 Y83.915
G0 F3600 X135.974 Y83.931
G1 F1800 X143.219 Y91.176 E22.20352
G0 X143.289 Y91.246
G0 F3600 X143.219 Y90.61
G1 F1800 X136.486 Y83.877 E22.44104
G0 X136.416 Y83.807
G0 F3600 X136.997 Y83.823
G1 F1800 X143.219 Y90.045 E22.66054
G0 X143.289 Y90.115
G0 F3600 X143.219 Y89.479
G1 F1800 X137.384 Y83.644 E22.86639
G0 X137.314 Y83.574
G0 F3600 X137.742 Y83.437
G1 F1800 X143.219 Y88.913 E23.05959
G0 X143.289 Y88.983
G0 F3600 X143.219 Y88.348
G1 F1800 X138.102 Y83.23 E23.24012
G0 X138.032 Y83.16
G0 F3600 X138.46 Y83.023
G1 F1800 X143.219 Y87.782 E23.40801
G0 X143.289 Y87.852
G0 F3600 X143.219 Y87.216
G1 F1800 X138.819 Y82.816 E23.56323
G0 X138.749 Y82.746
G0 F3600 X139.177 Y82.609
G1 F1800 X143.219 Y86.65 E23.7058
G0 X143.289 Y86.72
G0 F3600 X143.219 Y86.085
G1 F1800 X139.415 Y82.281 E23.84
G0 X139.345 Y82.211
G0 F3600 X139.653 Y81.953
G1 F1800 X143.219 Y85.519 E23.9658
G0 X143.289 Y85.589
G0 F3600 X143.219 Y84.953
G1 F1800 X139.891 Y81.626 E24.08319
G0 X139.821 Y81.556
G0 F3600 X140.129 Y81.298
G1 F1800 X143.219 Y84.388 E24.19219
G0 X143.289 Y84.458
G0 F3600 X143.219 Y83.822
G1 F1800 X140.367 Y80.97 E24.29281
G0 X140.297 Y80.9
G0 F3600 X140.599 Y80.637
G1 F1800 X143.219 Y83.256 E24.38522
G0 X143.289 Y83.326
G0 F3600 X143.219 Y82.691
G1 F1800 X140.697 Y80.169 E24.47419
G0 X140.627 Y80.099
G0 F3600 X140.796 Y79.702
G1 F1800 X143.219 Y82.125 E24.55966
G0 X143.289 Y82.195
G0 F3600 X143.219 Y81.559
G1 F1800 X140.895 Y79.236 E24.64163
G0 X140.825 Y79.166
G0 F3600 X140.994 Y78.768
G1 F1800 X143.219 Y80.994 E24.72014
G0 X143.289 Y81.064
G0 F3600 X143.219 Y80.428
G1 F1800 X141.093 Y78.302 E24.79514
G0 X141.023 Y78.232
G0 F3600 X140.942 Y77.585
G1 F1800 X143.219 Y79.862 E24.87547
G0 X143.289 Y79.932
G0 F3600 X143.219 Y79.297
G1 F1800 X140.79 Y76.868 E24.96116
G0 X140.72 Y76.798
G0 F3600 X140.639 Y76.151
G1 F1800 X143.219 Y78.731 E25.05218
G0 X143.289 Y78.801
G0 F3600 X143.219 Y78.165
G1 F1800 X139.53 Y74.476 E25.18232
G0 X139.46 Y74.406
G0 F3600 X138.864 Y73.81
G1 F1800 X136.333 Y71.279 E25.2716
G0 X136.263 Y71.209
G0 F3600 X135.768 Y71.279
G1 F1800 X137.528 Y73.039 E25.33369
G0 X137.598 Y73.109
G0 F3600 X136.665 Y72.742
G1 F1800 X135.202 Y71.279 E25.3853
G0 X135.132 Y71.209
G0 F3600 X134.636 Y71.279
G1 F1800 X136.033 Y72.676 E25.43459
G0 X136.103 Y72.746
G0 F3600 X135.4 Y72.609
G1 F1800 X134.07 Y71.279 E25.48151
G0 X134 Y71.209
G0 F3600 X133.505 Y71.279
G1 F1800 X134.768 Y72.542 E25.52606
G0 X134.838 Y72.612
G0 F3600 X134.317 Y72.657
G1 F1800 X132.939 Y71.279 E25.57467
G0 X132.869 Y71.209
G0 F3600 X132.373 Y71.279
G1 F1800 X133.889 Y72.795 E25.62816
G0 X133.959 Y72.865
G0 F3600 X133.462 Y72.934
G1 F1800 X131.808 Y71.279 E25.68652
G0 X131.738 Y71.209
G0 F3600 X131.242 Y71.279
G1 F1800 X133.035 Y73.073 E25.74979
G0 X133.105 Y73.143
G0 F3600 X132.608 Y73.211
G1 F1800 X130.676 Y71.279 E25.81795
G0 X130.606 Y71.209
G0 F3600 X130.324 Y71.492
G1 F1800 X132.248 Y73.416 E25.88582
G0 X132.318 Y73.486
G0 F3600 X131.95 Y73.684
G1 F1800 X130.117 Y71.851 E25.95049
G0 X130.047 Y71.781
G0 F3600 X129.91 Y72.21
G1 F1800 X131.652 Y73.952 E26.01194
G0 X131.722 Y74.022
G0 F3600 X131.354 Y74.22
G1 F1800 X129.703 Y72.568 E26.0702
G0 X129.633 Y72.498
G0 F3600 X129.496 Y72.927
G1 F1800 X131.057 Y74.488 E26.12527
G0 X131.127 Y74.558
G0 F3600 X130.759 Y74.756
G1 F1800 X129.289 Y73.286 E26.17713
G0 X129.219 Y73.216
G0 F3600 X129.082 Y73.645
G1 F1800 X130.523 Y75.086 E26.22796
G0 X130.593 Y75.156
G0 F3600 X130.348 Y75.477
G1 F1800 X128.875 Y74.003 E26.27995
G0 X128.805 Y73.933
G0 F3600 X128.667 Y74.362
G1 F1800 X130.174 Y75.869 E26.33311
G0 X130.244 Y75.939
G0 F3600 X130 Y76.26
G1 F1800 X128.461 Y74.721 E26.3874
G0 X128.391 Y74.651
G0 F3600 X128.254 Y75.079
G1 F1800 X129.826 Y76.651 E26.44286
G0 X129.896 Y76.721
G0 F3600 X129.651 Y77.042
G1 F1800 X128.047 Y75.438 E26.49944
G0 X127.977 Y75.368
G0 F3600 X127.839 Y75.796
G1 F1800 X129.628 Y77.585 E26.56256
G0 X129.698 Y77.655
G0 F3600 X129.628 Y78.15
G1 F1800 X127.633 Y76.156 E26.63292
G0 X127.563 Y76.086
G0 F3600 X127.426 Y76.514
G1 F1800 X129.628 Y78.716 E26.7106
G0 X129.698 Y78.786
G0 F3600 X129.628 Y79.282
G1 F1800 X127.219 Y76.873 E26.79558
G0 X127.149 Y76.803
G0 F3600 X127.011 Y77.231
G1 F1800 X129.903 Y80.122 E26.89759
G0 X129.973 Y80.192
G0 F3600 X130.356 Y81.141
G1 F1800 X126.805 Y77.59 E27.02286
G0 X126.735 Y77.52
G0 F3600 X126.749 Y77.53
G0 X126.292 Y78.208
G1 F1800 X143.219 Y95.136 E27.62002
G0 X143.289 Y95.206
G0 F3600 X143.219 Y95.701
G1 F1800 X125.726 Y78.208 E28.23714
G0 X125.656 Y78.138
G0 F3600 X125.16 Y78.208
G1 F1800 X143.219 Y96.267 E28.87422
G0 X143.289 Y96.337
G0 F3600 X143.219 Y96.833
G1 F1800 X139.793 Y93.407 E28.99508
G0 X139.723 Y93.337
G0 F3600 X139.945 Y94.125
G1 F1800 X143.219 Y97.399 E29.11058
G0 X143.289 Y97.469
G0 F3600 X143.219 Y97.964
G1 F1800 X140.098 Y94.843 E29.22068
G0 X140.028 Y94.773
G0 F3600 X140.158 Y95.469
G1 F1800 X143.043 Y98.354 E29.32245
G0 X143.113 Y98.424
G0 F3600 X142.76 Y98.637
G1 F1800 X140.06 Y95.936 E29.41772
G0 X139.99 Y95.866
G0 F3600 X139.961 Y96.403
G1 F1800 X142.477 Y98.919 E29.50648
G0 X142.547 Y98.989
G0 F3600 X142.194 Y99.202
G1 F1800 X139.862 Y96.87 E29.58875
G0 X139.792 Y96.8
G0 F3600 X139.749 Y97.323
G1 F1800 X141.912 Y99.485 E29.66504
G0 X141.982 Y99.555
G0 F3600 X141.629 Y99.768
G1 F1800 X139.511 Y97.65 E29.73975
G0 X139.441 Y97.58
G0 F3600 X139.273 Y97.978
G1 F1800 X141.346 Y100.051 E29.81288
G0 X141.416 Y100.121
G0 F3600 X141.063 Y100.334
G1 F1800 X139.035 Y98.306 E29.88443
G0 X138.965 Y98.236
G0 F3600 X138.797 Y98.633
G1 F1800 X140.78 Y100.617 E29.9544
G0 X140.85 Y100.687
G0 F3600 X140.497 Y100.899
G1 F1800 X138.551 Y98.953 E30.02305
G0 X138.481 Y98.883
G0 F3600 X138.193 Y99.161
G1 F1800 X140.215 Y101.182 E30.09437
G0 X140.285 Y101.252
G0 F3600 X139.932 Y101.465
G1 F1800 X137.834 Y99.367 E30.16838
G0 X137.764 Y99.297
G0 F3600 X137.475 Y99.574
G1 F1800 X139.649 Y101.748 E30.24507
G0 X139.719 Y101.818
G0 F3600 X139.366 Y102.031
G1 F1800 X137.117 Y99.781 E30.32443
G0 X137.047 Y99.711
G0 F3600 X136.734 Y99.965
G1 F1800 X139.083 Y102.314 E30.4073
G0 X139.153 Y102.384
G0 F3600 X138.8 Y102.596
G1 F1800 X136.223 Y100.019 E30.49821
G0 X136.153 Y99.949
G0 F3600 X135.712 Y100.073
G1 F1800 X138.358 Y102.719 E30.59155
G0 X138.428 Y102.789
G0 F3600 X137.792 Y102.719
G1 F1800 X135.2 Y100.128 E30.68297
G0 X135.13 Y100.058
G0 F3600 X134.626 Y100.119
G1 F1800 X137.226 Y102.719 E30.7747
G0 X137.296 Y102.789
G0 F3600 X136.661 Y102.719
G1 F1800 X133.787 Y99.846 E30.87607
G0 X133.717 Y99.776
G0 F3600 X132.948 Y99.572
G1 F1800 X136.095 Y102.719 E30.98709
G0 X136.165 Y102.789
G0 F3600 X135.529 Y102.719
G1 F1800 X127.389 Y94.579 E31.27425
G0 X127.319 Y94.509
G0 F3600 X127.182 Y94.938
G1 F1800 X134.964 Y102.719 E31.54876
G0 X135.034 Y102.789
G0 F3600 X134.398 Y102.719
G1 F1800 X126.975 Y95.296 E31.81063
G0 X126.905 Y95.226
G0 F3600 X126.767 Y95.655
G1 F1800 X133.832 Y102.719 E32.05985
G0 X133.902 Y102.789
G0 F3600 X133.267 Y102.719
G1 F1800 X126.56 Y96.013 E32.29643
G0 X126.49 Y95.943
G0 F3600 X126.19 Y96.208
G1 F1800 X132.701 Y102.719 E32.52613
G0 X132.771 Y102.789
G0 F3600 X132.135 Y102.719
G1 F1800 X125.624 Y96.208 E32.75582
G0 X125.554 Y96.138
G0 F3600 X125.058 Y96.208
G1 F1800 X131.569 Y102.719 E32.98551
G0 X131.639 Y102.789
G0 F3600 X131.004 Y102.719
G1 F1800 X124.493 Y96.208 E33.21521
G0 X124.423 Y96.138
G0 F3600 X123.927 Y96.208
G1 F1800 X130.438 Y102.719 E33.4449
G0 X130.508 Y102.789
G0 F3600 X129.872 Y102.719
G1 F1800 X123.361 Y96.208 E33.67459
G0 X123.291 Y96.138
G0 F3600 X122.796 Y96.208
G1 F1800 X129.307 Y102.719 E33.90429
G0 X129.377 Y102.789
G0 F3600 X128.741 Y102.719
G1 F1800 X122.23 Y96.208 E34.13398
G0 X122.16 Y96.138
G0 F3600 X121.664 Y96.208
G1 F1800 X128.175 Y102.719 E34.36367
G0 X128.245 Y102.789
G0 F3600 X127.61 Y102.719
G1 F1800 X121.099 Y96.208 E34.59337
G0 X121.029 Y96.138
G0 F3600 X120.533 Y96.208
G1 F1800 X127.044 Y102.719 E34.82306
G0 X127.114 Y102.789
G0 F3600 X126.478 Y102.719
G1 F1800 X119.967 Y96.208 E35.05275
G0 X119.897 Y96.138
G0 F3600 X119.402 Y96.208
G1 F1800 X125.913 Y102.719 E35.28245
G0 X125.983 Y102.789
G0 F3600 X125.347 Y102.719
G1 F1800 X118.836 Y96.208 E35.51214
G0 X118.766 Y96.138
G0 F3600 X118.27 Y96.208
G1 F1800 X124.781 Y102.719 E35.74183
G0 X124.851 Y102.789
G0 F3600 X124.216 Y102.719
G1 F1800 X117.704 Y96.208 E35.97154
G0 X117.634 Y96.138
G0 F3600 X117.337 Y95.841
G1 F1800 X107.678 Y86.182 E36.31229
G0 X107.608 Y86.112
G0 F3600 X107.678 Y85.617
G1 F1800 X116.564 Y94.502 E36.62575
G0 X116.634 Y94.572
G0 F3600 X115.792 Y93.164
G1 F1800 X107.678 Y85.051 E36.91198
G0 X107.608 Y84.981
G0 F3600 X107.678 Y84.485
G1 F1800 X115.019 Y91.826 E37.17095
G0 X115.089 Y91.896
G0 F3600 X114.246 Y90.487
G1 F1800 X107.678 Y83.92 E37.40264
G0 X107.608 Y83.85
G0 F3600 X107.678 Y83.354
G1 F1800 X113.473 Y89.149 E37.60707
G0 X113.543 Y89.219
G0 F3600 X113.205 Y88.315
G1 F1800 X107.678 Y82.788 E37.80205
G0 X107.608 Y82.718
G0 F3600 X107.678 Y82.223
G1 F1800 X113.412 Y87.957 E38.00433
G0 X113.482 Y88.027
G0 F3600 X113.62 Y87.598
G1 F1800 X107.678 Y81.657 E38.21393
G0 X107.608 Y81.587
