;FLAVOR:RepRap
;TIME:4411
;Generated with Cura_SteamEngine 2.3.1
G21 ; set units to millimeters
G90 ; use absolute positioning
M82 ; absolute extrusion mode
G28 W ; home all without mesh bed level
G80 ; mesh bed leveling
M104 S210 ; set extruder temp
M140 S55 ; set bed temp
M190 S55 ; wait for bed temp
M109 S210 ; wait for extruder temp
G92 E0.0 ; reset extruder distance position
G1 Y-3.0 F1000.0 ; go outside print area
G1 X60.0 E9.0 F1000.0 ; intro line
G1 X100.0 E21.5 F1000.0 ; intro line
G92 E0.0 ; reset extruder distance position
;LAYER_COUNT:100
;LAYER:0
M107
G1 F2100 E-0.8
G0 F3600 X110.299 Y75.269 Z.15
;TYPE:SKIRT
G1 F2100 E0
G1 F1800 X110.649 Y74.863 E0.01337
G1 X111.056 Y74.513 E0.02676
G1 X111.51 Y74.227 E0.04015
G1 X112.001 Y74.012 E0.05352
G1 X112.519 Y73.873 E0.0669
G1 X113.196 Y73.809 E0.08386
G1 X134.679 Y73.819 E0.61976
G1 X135.213 Y73.859 E0.63311
G1 X135.736 Y73.978 E0.64649
G1 X136.236 Y74.174 E0.65989
G1 X136.7 Y74.441 E0.67324
G1 X137.12 Y74.775 E0.68663
G1 X137.486 Y75.167 E0.70001
G1 X137.789 Y75.61 E0.7134
G1 X138.024 Y76.092 E0.72677
G1 X138.168 Y76.541 E0.73853
G1 X138.687 Y78.606 E0.79165
G1 X140.222 Y83.855 E0.92807
G1 X142.056 Y89.023 E1.06486
G1 X143.523 Y92.621 E1.16179
G1 X143.687 Y93.131 E1.17515
G1 X143.775 Y93.66 E1.18853
G1 X143.789 Y93.978 E1.19647
G1 X143.799 Y108.994 E1.57105
G1 X143.759 Y109.528 E1.5844
G1 X143.641 Y110.051 E1.59778
G1 X143.446 Y110.551 E1.61116
G1 X143.179 Y111.016 E1.62454
G1 X142.896 Y111.38 E1.63604
G1 X138.789 Y116.026 E1.79073
G1 X137.118 Y118.101 E1.85719
G1 X133.859 Y122.514 E1.99403
G1 X130.851 Y127.108 E2.13101
G1 X129.49 Y129.395 E2.1974
G1 X127.543 Y132.918 E2.29781
G1 X127.29 Y133.313 E2.30951
G1 X126.903 Y133.838 E2.32578
G1 X126.523 Y134.275 E2.34022
G1 X125.812 Y134.971 E2.36504
G1 X125.402 Y135.316 E2.37841
G1 X125.139 Y135.489 E2.38626
G1 X123.981 Y136.18 E2.4199
G1 X123.252 Y136.512 E2.43988
G1 X122.43 Y136.78 E2.46145
G1 X121.818 Y136.922 E2.47712
G1 X120.948 Y137.045 E2.49904
G1 X120.413 Y137.08 E2.51241
G1 X120.135 Y137.067 E2.51936
G1 X118.765 Y136.949 E2.55366
G1 X118.236 Y136.863 E2.56703
G1 X117.9 Y136.765 E2.57576
G1 X116.88 Y136.413 E2.60267
G1 X116.387 Y136.201 E2.61606
G1 X116.081 Y136.021 E2.62492
G1 X114.909 Y135.253 E2.65987
G1 X114.342 Y134.793 E2.67808
G1 X113.911 Y134.364 E2.69325
G1 X113.546 Y133.939 E2.70723
G1 X113.022 Y133.223 E2.72936
G1 X112.658 Y132.604 E2.74727
G1 X112.125 Y131.448 E2.77903
G1 X112.029 Y131.221 E2.78518
G1 X110.386 Y126.903 E2.90042
G1 X108.173 Y121.911 E3.03664
G1 X106.103 Y117.803 E3.15139
G1 X105.898 Y117.307 E3.16477
G1 X105.801 Y116.953 E3.17393
G1 X105.688 Y116.437 E3.18711
G1 X105.605 Y115.668 E3.2064
G1 X105.595 Y87.499 E3.90908
G1 X105.635 Y86.964 E3.92246
G1 X105.754 Y86.442 E3.93582
G1 X105.908 Y86.031 E3.94677
G1 X106.76 Y84.122 E3.99891
G1 X108.829 Y78.968 E4.13745
G1 X109.798 Y76.214 E4.21028
G1 X110.013 Y75.723 E4.22365
G1 X110.299 Y75.269 E4.23704
G0 F3600 X110.656 Y75.46
G1 F1800 X110.994 Y75.085 E4.24963
G1 X111.388 Y74.767 E4.26226
G1 X111.826 Y74.516 E4.27485
G1 X112.299 Y74.337 E4.28747
G1 X112.794 Y74.234 E4.30008
G1 X113.195 Y74.209 E4.3101
G1 X134.678 Y74.219 E4.846
G1 X135.182 Y74.259 E4.85861
G1 X135.674 Y74.378 E4.87124
G1 X136.14 Y74.573 E4.88384
G1 X136.57 Y74.839 E4.89645
G1 X136.953 Y75.17 E4.90908
G1 X137.279 Y75.556 E4.92168
G1 X137.54 Y75.989 E4.93429
G1 X137.78 Y76.639 E4.95158
G1 X138.3 Y78.706 E5.00475
G1 X139.842 Y83.98 E5.14181
G1 X141.685 Y89.174 E5.27929
G1 X143.152 Y92.772 E5.37622
G1 X143.305 Y93.254 E5.38884
G1 X143.389 Y93.978 E5.40702
G1 X143.399 Y108.994 E5.78159
G1 X143.359 Y109.498 E5.7942
G1 X143.241 Y109.989 E5.8068
G1 X143.046 Y110.456 E5.81943
G1 X142.781 Y110.886 E5.83202
G1 X142.597 Y111.115 E5.83935
G1 X138.471 Y115.783 E5.99476
G1 X136.801 Y117.856 E6.06117
G1 X133.532 Y122.283 E6.19844
G1 X130.527 Y126.874 E6.33532
G1 X129.134 Y129.212 E6.40321
G1 X127.193 Y132.725 E6.50333
G1 X126.968 Y133.076 E6.51373
G1 X126.581 Y133.601 E6.53
G1 X126.243 Y133.989 E6.54283
G1 X125.532 Y134.685 E6.56765
G1 X124.934 Y135.146 E6.58649
G1 X123.776 Y135.837 E6.62012
G1 X123.128 Y136.131 E6.63787
G1 X122.306 Y136.399 E6.65944
G1 X121.762 Y136.525 E6.67337
G1 X120.892 Y136.648 E6.69529
G1 X120.169 Y136.668 E6.71333
G1 X118.799 Y136.55 E6.74763
G1 X118.301 Y136.467 E6.76023
G1 X118.03 Y136.387 E6.76728
G1 X117.01 Y136.035 E6.79419
G1 X116.547 Y135.833 E6.80679
G1 X116.3 Y135.687 E6.81395
G1 X115.128 Y134.919 E6.8489
G1 X114.625 Y134.51 E6.86508
G1 X114.194 Y134.081 E6.88024
G1 X113.869 Y133.703 E6.89268
G1 X113.345 Y132.987 E6.91481
G1 X113.021 Y132.437 E6.93074
G1 X112.488 Y131.281 E6.96249
G1 X112.403 Y131.079 E6.96796
G1 X110.755 Y126.748 E7.08355
G1 X108.538 Y121.748 E7.21999
G1 X106.46 Y117.623 E7.33521
G1 X106.269 Y117.155 E7.34781
G1 X106.192 Y116.868 E7.35523
G1 X106.079 Y116.352 E7.3684
G1 X106.005 Y115.668 E7.38557
G1 X105.995 Y87.499 E8.08824
G1 X106.035 Y86.995 E8.10086
G1 X106.153 Y86.504 E8.11345
G1 X106.273 Y86.194 E8.12175
G1 X107.129 Y84.277 E8.17412
G1 X109.211 Y79.089 E8.31356
G1 X110.176 Y76.347 E8.38607
G1 X110.381 Y75.884 E8.39871
G1 X110.656 Y75.46 E8.41131
G1 F2100 E7.61131
G0 F3600 X112.518 Y78.028
G0 X113.811 Y78.028
G0 X113.853 Y78.07
G0 X113.783 Y78
;TYPE:WALL-INNER
G1 F2100 E8.41131
G1 F1800 X133.882 Y77.999 E8.91268
G1 X134.082 Y77.999 E8.91767
G1 X134.082 Y78.199 E8.9209
G1 X134.082 Y87.9 E9.1629
G1 X130.582 Y87.9 E9.2502
G1 X130.582 Y115.463 E9.93777
G1 X130.533 Y115.845 E9.94737
G1 X130.403 Y116.175 E9.95622
G1 X130.2 Y116.455 E9.96485
G1 X129.931 Y116.676 E9.97353
G1 X129.61 Y116.828 E9.98239
G1 X129.271 Y116.893 E9.991
G1 X128.582 Y116.849 E10.00822
G1 X128.582 Y116.9 E10.0095
G1 X124.582 Y116.9 E10.10928
G1 X124.579 Y128.634 E10.40198
G1 X124.561 Y128.919 E10.40911
G1 X124.529 Y129.179 E10.41564
G1 X124.476 Y129.457 E10.4227
G1 X124.408 Y129.729 E10.42969
G1 X124.328 Y129.974 E10.43612
G1 X124.221 Y130.244 E10.44337
G1 X124.101 Y130.501 E10.45044
G1 X123.979 Y130.724 E10.45678
G1 X123.82 Y130.975 E10.4642
G1 X123.662 Y131.191 E10.47087
G1 X123.478 Y131.414 E10.47808
G1 X123.293 Y131.61 E10.48481
G1 X123.097 Y131.795 E10.49153
G1 X122.874 Y131.979 E10.49874
G1 X122.661 Y132.135 E10.50533
G1 X122.418 Y132.289 E10.5125
G1 X122.183 Y132.419 E10.5192
G1 X121.936 Y132.534 E10.526
G1 X121.663 Y132.642 E10.53332
G1 X121.426 Y132.72 E10.53955
G1 X121.133 Y132.795 E10.54709
G1 X120.867 Y132.846 E10.55385
G1 X120.599 Y132.879 E10.56058
G1 X120.316 Y132.897 E10.56766
G1 X120.046 Y132.897 E10.57439
G1 X119.764 Y132.879 E10.58144
G1 X119.5 Y132.847 E10.58808
G1 X119.217 Y132.791 E10.59527
G1 X118.952 Y132.723 E10.6021
G1 X118.7 Y132.641 E10.60871
G1 X118.427 Y132.533 E10.61603
G1 X118.181 Y132.418 E10.6228
G1 X117.945 Y132.287 E10.62954
G1 X117.713 Y132.141 E10.63638
G1 X117.485 Y131.975 E10.64341
G1 X117.164 Y131.699 E10.65397
G1 X116.891 Y131.418 E10.66374
G1 X116.702 Y131.19 E10.67113
G1 X116.542 Y130.97 E10.67792
G1 X116.395 Y130.738 E10.68477
G1 X116.267 Y130.503 E10.69144
G1 X116.151 Y130.258 E10.69821
G1 X116.038 Y129.974 E10.70583
G1 X115.962 Y129.739 E10.71199
G1 X115.89 Y129.456 E10.71928
G1 X115.834 Y129.17 E10.72655
G1 X115.804 Y128.922 E10.73278
G1 X115.786 Y128.637 E10.7399
G1 X115.783 Y116.9 E11.03268
G1 X111.394 Y116.9 E11.14217
G1 X110.922 Y116.869 E11.15396
G1 X110.587 Y116.761 E11.16275
G1 X110.293 Y116.575 E11.17142
G1 X110.054 Y116.319 E11.18016
G1 X109.885 Y116.014 E11.18886
G1 X109.798 Y115.675 E11.19759
G1 X109.783 Y88.3 E11.88046
G1 X109.783 Y88.1 E11.88545
G1 X109.983 Y88.1 E11.88868
G1 X113.783 Y88.1 E11.98347
G1 X113.783 Y78 E12.23542
G0 F3600 X113.853 Y78.07
G0 X115.763 Y90.867
G0 X115.833 Y90.937
G1 F1800 X115.833 Y102.064 E12.51298
G1 X124.533 Y102.064 E12.73
G1 X124.533 Y90.937 E13.00757
G1 X115.833 Y90.937 E13.22459
G0 F3600 X115.763 Y90.867
G0 X112.683 Y109.841
G0 X112.683 Y109.941
G1 F1800 X111.954 Y110.057 E13.243
G1 X111.297 Y110.393 E13.26141
G1 X110.776 Y110.914 E13.27979
G1 X110.44 Y111.571 E13.2982
G1 X110.326 Y112.299 E13.31658
G1 X110.381 Y112.65 E13.32544
G1 X110.326 Y113 E13.33428
G1 X110.381 Y113.349 E13.34309
G1 X110.326 Y113.7 E13.35196
G1 X110.44 Y114.428 E13.37034
G1 X110.776 Y115.085 E13.38875
G1 X111.297 Y115.606 E13.40713
G1 X111.954 Y115.942 E13.42553
G1 X112.683 Y116.058 E13.44395
G1 X113.412 Y115.942 E13.46236
G1 X114.068 Y115.606 E13.48075
G1 X114.589 Y115.085 E13.49913
G1 X114.925 Y114.429 E13.51751
G1 X115.041 Y113.7 E13.53593
G1 X114.985 Y113.346 E13.54487
G1 X115.041 Y113 E13.55361
G1 X114.985 Y112.65 E13.56245
G1 X115.041 Y112.299 E13.57132
G1 X114.925 Y111.57 E13.58973
G1 X114.589 Y110.914 E13.60812
G1 X114.068 Y110.393 E13.6265
G1 X113.412 Y110.057 E13.64488
G1 X112.683 Y109.941 E13.6633
G0 F3600 X112.683 Y109.841
G0 X125.344 Y111.541
G0 X125.439 Y111.571
G1 F1800 X125.325 Y112.299 E13.68168
G1 X125.38 Y112.65 E13.69054
G1 X125.325 Y113 E13.69938
G1 X125.38 Y113.349 E13.70819
G1 X125.325 Y113.7 E13.71705
G1 X125.439 Y114.428 E13.73544
G1 X125.775 Y115.086 E13.75387
G1 X126.302 Y115.609 E13.77239
G1 X126.96 Y115.944 E13.7908
G1 X127.689 Y116.056 E13.8092
G1 X128.416 Y115.939 E13.82757
G1 X129.067 Y115.607 E13.8458
G1 X129.588 Y115.085 E13.8642
G1 X129.924 Y114.429 E13.88258
G1 X130.04 Y113.7 E13.901
G1 X129.984 Y113.346 E13.90994
G1 X130.04 Y113 E13.91868
G1 X129.984 Y112.65 E13.92752
G1 X130.04 Y112.299 E13.93639
G1 X129.924 Y111.57 E13.9548
G1 X129.588 Y110.914 E13.97319
G1 X129.067 Y110.393 E13.99157
G1 X128.411 Y110.057 E14.00995
G1 X127.682 Y109.941 E14.02837
G1 X126.953 Y110.057 E14.04678
G1 X126.296 Y110.393 E14.06519
G1 X125.775 Y110.914 E14.08357
G1 X125.439 Y111.571 E14.10198
G0 F3600 X125.824 Y111.696
;TYPE:WALL-OUTER
G1 F1800 X125.73 Y112.299 E14.1172
G1 X125.784 Y112.65 E14.12606
G1 X125.73 Y113 E14.13489
G1 X125.784 Y113.349 E14.1437
G1 X125.73 Y113.7 E14.15256
G1 X125.824 Y114.303 E14.16778
G1 X126.102 Y114.847 E14.18302
G1 X126.539 Y115.281 E14.19839
G1 X127.084 Y115.558 E14.21364
G1 X127.688 Y115.651 E14.22888
G1 X128.29 Y115.554 E14.24409
G1 X128.829 Y115.279 E14.25919
G1 X129.261 Y114.847 E14.27443
G1 X129.539 Y114.303 E14.28967
G1 X129.635 Y113.7 E14.3049
G1 X129.579 Y113.346 E14.31384
G1 X129.635 Y113 E14.32258
G1 X129.579 Y112.653 E14.33135
G1 X129.635 Y112.299 E14.34029
G1 X129.539 Y111.696 E14.35552
G1 X129.261 Y111.152 E14.37076
G1 X128.829 Y110.72 E14.386
G1 X128.285 Y110.442 E14.40124
G1 X127.682 Y110.346 E14.41647
G1 X127.078 Y110.442 E14.43173
G1 X126.534 Y110.72 E14.44697
G1 X126.102 Y111.152 E14.46221
G1 X125.824 Y111.696 E14.47745
G0 F3600 X125.332 Y111.619
G0 X124.982 Y116.8
G0 X124.982 Y117.3
G1 F1800 X124.979 Y128.644 E14.76042
G1 X124.959 Y128.957 E14.76825
G1 X124.924 Y129.244 E14.77546
G1 X124.867 Y129.541 E14.783
G1 X124.793 Y129.836 E14.79059
G1 X124.701 Y130.119 E14.79801
G1 X124.586 Y130.409 E14.8058
G1 X124.463 Y130.673 E14.81306
G1 X124.317 Y130.938 E14.82061
G1 X124.156 Y131.192 E14.82811
G1 X123.971 Y131.446 E14.83595
G1 X123.787 Y131.669 E14.84316
G1 X123.576 Y131.893 E14.85084
G1 X123.352 Y132.104 E14.85851
G1 X123.129 Y132.288 E14.86572
G1 X122.875 Y132.473 E14.87356
G1 X122.627 Y132.63 E14.88088
G1 X122.361 Y132.777 E14.88847
G1 X122.094 Y132.902 E14.89582
G1 X121.803 Y133.017 E14.90363
G1 X121.528 Y133.107 E14.91084
G1 X121.223 Y133.185 E14.9187
G1 X120.933 Y133.241 E14.92606
G1 X120.64 Y133.277 E14.93343
G1 X120.325 Y133.297 E14.9413
G1 X120.037 Y133.297 E14.94849
G1 X119.723 Y133.277 E14.95633
G1 X119.431 Y133.241 E14.96367
G1 X119.14 Y133.184 E14.97107
G1 X118.836 Y133.106 E14.9789
G1 X118.56 Y133.016 E14.98614
G1 X118.269 Y132.901 E14.99395
G1 X117.996 Y132.773 E15.00147
G1 X117.743 Y132.633 E15.00868
G1 X117.488 Y132.472 E15.0162
G1 X117.237 Y132.289 E15.02395
G1 X116.893 Y131.994 E15.03526
G1 X116.585 Y131.676 E15.0463
G1 X116.394 Y131.446 E15.05376
G1 X116.211 Y131.195 E15.06151
G1 X116.05 Y130.941 E15.06901
G1 X115.911 Y130.687 E15.07623
G1 X115.781 Y130.411 E15.08384
G1 X115.666 Y130.122 E15.0916
G1 X115.576 Y129.846 E15.09884
G1 X115.499 Y129.543 E15.10664
G1 X115.441 Y129.247 E15.11416
G1 X115.406 Y128.96 E15.12138
G1 X115.386 Y128.647 E15.1292
G1 X115.383 Y117.3 E15.41225
G1 X111.383 Y117.3 E15.51203
G1 X110.844 Y117.265 E15.52551
G1 X110.417 Y117.127 E15.5367
G1 X110.037 Y116.886 E15.54793
G1 X109.728 Y116.556 E15.5592
G1 X109.511 Y116.163 E15.5704
G1 X109.398 Y115.723 E15.58173
G1 X109.383 Y87.9 E16.27578
G1 X109.383 Y87.7 E16.28077
G1 X109.583 Y87.7 E16.284
G1 X113.383 Y87.7 E16.37879
G1 X113.383 Y77.6 E16.63074
G1 X134.282 Y77.599 E17.15207
G1 X134.482 Y77.599 E17.15705
G1 X134.482 Y77.799 E17.16028
G1 X134.482 Y88.3 E17.42223
G1 X130.982 Y88.3 E17.50954
G1 X130.982 Y115.491 E18.18782
G1 X130.924 Y115.944 E18.19922
G1 X130.757 Y116.367 E18.21056
G1 X130.493 Y116.732 E18.2218
G1 X130.146 Y117.017 E18.233
G1 X129.736 Y117.211 E18.24431
G1 X129.298 Y117.295 E18.25544
G1 X128.982 Y117.275 E18.26334
G0 X128.982 Y117.3
G1 X124.982 Y117.3 E18.36312
G0 F3600 X124.982 Y116.8
G0 X115.032 Y114.382
G0 X114.54 Y114.303
G1 F1800 X114.636 Y113.7 E18.37835
G1 X114.58 Y113.346 E18.38729
G1 X114.636 Y113 E18.39603
G1 X114.58 Y112.653 E18.4048
G1 X114.636 Y112.299 E18.41374
G1 X114.54 Y111.696 E18.42897
G1 X114.262 Y111.152 E18.44421
G1 X113.83 Y110.72 E18.45945
G1 X113.286 Y110.442 E18.47469
G1 X112.683 Y110.346 E18.48992
G1 X112.079 Y110.442 E18.50518
G1 X111.535 Y110.72 E18.52042
G1 X111.103 Y111.152 E18.53566
G1 X110.825 Y111.696 E18.5509
G1 X110.731 Y112.299 E18.56612
G1 X110.785 Y112.65 E18.57498
G1 X110.731 Y113 E18.58381
G1 X110.785 Y113.349 E18.59262
G1 X110.731 Y113.7 E18.60148
G1 X110.825 Y114.303 E18.6167
G1 X111.103 Y114.847 E18.63194
G1 X111.535 Y115.279 E18.64718
G1 X112.079 Y115.557 E18.66242
G1 X112.683 Y115.653 E18.67768
G1 X113.286 Y115.557 E18.69291
G1 X113.83 Y115.279 E18.70815
G1 X114.262 Y114.847 E18.72339
G1 X114.54 Y114.303 E18.73863
G0 F3600 X115.032 Y114.382
G0 X115.733 Y101.664
G0 X116.233 Y101.664
G1 F1800 X124.133 Y101.664 E18.9357
G1 X124.133 Y91.337 E19.1933
G1 X116.233 Y91.337 E19.39037
G1 X116.233 Y101.664 E19.64798
G0 F3600 X116.386 Y102.244
;TYPE:SKIN
G1 F1800 X125.397 Y111.255 E19.96587
G0 X125.467 Y111.325
G0 F3600 X125.589 Y110.881
G1 F1800 X116.951 Y102.244 E20.27058
G0 X116.881 Y102.174
G0 F3600 X117.517 Y102.244
G1 F1800 X125.853 Y110.58 E20.56465
G0 X125.923 Y110.65
G0 F3600 X126.136 Y110.297
G1 F1800 X118.083 Y102.244 E20.84874
G0 X118.013 Y102.174
G0 F3600 X118.648 Y102.244
G1 F1800 X126.493 Y110.088 E21.12548
G0 X126.563 Y110.158
G0 F3600 X126.867 Y109.897
G1 F1800 X119.214 Y102.244 E21.39546
G0 X119.144 Y102.174
G0 F3600 X119.78 Y102.244
G1 F1800 X127.347 Y109.81 E21.66239
G0 X127.417 Y109.88
G0 F3600 X127.893 Y109.791
G1 F1800 X120.346 Y102.244 E21.92863
G0 X120.276 Y102.174
G0 F3600 X120.911 Y102.244
G1 F1800 X128.64 Y109.972 E22.20127
G0 X128.71 Y110.042
G0 F3600 X130.401 Y110.037
G1 F1800 X122.608 Y102.244 E22.47619
G0 X122.538 Y102.174
G0 F3600 X122.043 Y102.244
G1 F1800 X130.401 Y110.602 E22.77104
G0 X130.471 Y110.672
G0 F3600 X130.401 Y111.168
G1 F1800 X121.477 Y102.244 E23.08586
G0 X121.407 Y102.174
G0 F3600 X123.174 Y102.244
G1 F1800 X130.401 Y109.471 E23.34081
G0 X130.471 Y109.541
G0 F3600 X130.401 Y108.905
G1 F1800 X123.74 Y102.244 E23.5758
G0 X123.67 Y102.174
G0 F3600 X124.305 Y102.244
G1 F1800 X130.401 Y108.34 E23.79085
G0 X130.471 Y108.41
G0 F3600 X130.401 Y107.774
G1 F1800 X124.711 Y102.084 E23.99158
G0 X124.641 Y102.014
G0 F3600 X124.711 Y101.518
G1 F1800 X130.401 Y107.208 E24.19231
G0 X130.471 Y107.278
G0 F3600 X130.401 Y106.643
G1 F1800 X124.711 Y100.952 E24.39306
G0 X124.641 Y100.882
G0 F3600 X124.711 Y100.387
G1 F1800 X130.401 Y106.077 E24.59379
G0 X130.471 Y106.147
G0 F3600 X130.401 Y105.511
G1 F1800 X124.711 Y99.821 E24.79452
G0 X124.641 Y99.751
G0 F3600 X124.711 Y99.255
G1 F1800 X130.401 Y104.945 E24.99525
G0 X130.471 Y105.015
G0 F3600 X130.401 Y104.38
G1 F1800 X124.711 Y98.69 E25.19598
G0 X124.641 Y98.62
G0 F3600 X124.711 Y98.124
G1 F1800 X130.401 Y103.814 E25.39671
G0 X130.471 Y103.884
G0 F3600 X130.401 Y103.248
