;FLAVOR:RepRap
;TIME:8926
;Generated with Cura_SteamEngine 2.3.1
G21 ; set units to millimeters
G90 ; use absolute positioning
M82 ; absolute extrusion mode
G28 W ; home all without mesh bed level
G80 ; mesh bed leveling
M104 S210 ; set extruder temp
M140 S55 ; set bed temp
M190 S55 ; wait for bed temp
M109 S210 ; wait for extruder temp
G92 E0.0 ; reset extruder distance position
G1 Y-3.0 F1000.0 ; go outside print area
G1 X60.0 E9.0 F1000.0 ; intro line
G1 X100.0 E21.5 F1000.0 ; intro line
G92 E0.0 ; reset extruder distance position
;LAYER_COUNT:148
;LAYER:0
M107
G1 F2100 E-0.8
G0 F3600 X90.443 Y74.913 Z.15
;TYPE:SKIRT
G1 F2100 E0
G1 F1800 X93.302 Y72.061 E0.10074
G1 X93.708 Y71.712 E0.11409
G1 X94.163 Y71.427 E0.12748
G1 X94.654 Y71.212 E0.14085
G1 X95.172 Y71.073 E0.15423
G1 X95.844 Y71.01 E0.17107
G1 X137.965 Y71.011 E1.22178
G1 X138.5 Y71.051 E1.23517
G1 X139.023 Y71.17 E1.24854
G1 X139.522 Y71.365 E1.26191
G1 X139.987 Y71.633 E1.2753
G1 X140.407 Y71.966 E1.28867
G1 X140.773 Y72.358 E1.30205
G1 X141.076 Y72.8 E1.31541
G1 X141.311 Y73.283 E1.32881
G1 X141.504 Y73.951 E1.34616
G1 X142.03 Y76.773 E1.41776
G1 X143.259 Y82.091 E1.55392
G1 X144.789 Y87.34 E1.69031
G1 X146.607 Y92.473 E1.82614
G1 X148.713 Y97.499 E1.96208
G1 X151.103 Y102.402 E2.09814
G1 X153.769 Y107.169 E2.23439
G1 X157.513 Y113.054 E2.40838
G1 X157.597 Y113.191 E2.41239
G1 X160.134 Y117.602 E2.53932
G1 X160.366 Y118.086 E2.55271
G1 X160.523 Y118.598 E2.56607
G1 X160.603 Y119.129 E2.57947
G1 X160.603 Y119.665 E2.59284
G1 X160.523 Y120.195 E2.60621
G1 X160.366 Y120.708 E2.61959
G1 X160.131 Y121.196 E2.6331
G1 X157.241 Y126.206 E2.77738
G1 X156.94 Y126.649 E2.79074
G1 X156.575 Y127.043 E2.80414
G1 X156.156 Y127.378 E2.81752
G1 X155.693 Y127.647 E2.83088
G1 X155.444 Y127.756 E2.83766
G1 X149.001 Y130.298 E3.01043
G1 X144.061 Y132.61 E3.14649
G1 X139.248 Y135.203 E3.28287
G1 X136.692 Y136.728 E3.35711
G1 X136.212 Y136.968 E3.3705
G1 X135.702 Y137.133 E3.38387
G1 X135.173 Y137.221 E3.39725
G1 X134.841 Y137.236 E3.40554
G1 X130.99 Y137.229 E3.5016
G1 X130.844 Y137.226 E3.50524
G1 X125.296 Y136.99 E3.64377
G1 X119.836 Y137.068 E3.77998
G1 X114.404 Y137.452 E3.91582
G1 X108.964 Y138.147 E4.05262
G1 X104.249 Y138.948 E4.17192
G1 X103.609 Y138.999 E4.18794
G1 X102.648 Y138.989 E4.21191
G1 X102.113 Y138.943 E4.22531
G1 X101.592 Y138.819 E4.23867
G1 X101.094 Y138.618 E4.25206
G1 X100.632 Y138.346 E4.26544
G1 X100.142 Y137.937 E4.28136
G1 X97.443 Y135.243 E4.37649
G1 X97.092 Y134.837 E4.38987
G1 X96.806 Y134.383 E4.40326
G1 X96.591 Y133.892 E4.41663
G1 X96.451 Y133.375 E4.42999
G1 X96.386 Y132.718 E4.44646
G1 X96.376 Y131.129 E4.4861
G1 X96.378 Y130.973 E4.48999
G1 X96.597 Y125.07 E4.63734
G1 X96.516 Y119.604 E4.77371
G1 X96.131 Y114.177 E4.90942
G1 X95.434 Y108.754 E5.04581
G1 X94.437 Y103.401 E5.18164
G1 X93.83 Y100.764 E5.24914
G1 X92.379 Y95.504 E5.38525
G1 X90.615 Y90.283 E5.52273
G1 X89.621 Y87.678 E5.59228
G1 X89.467 Y87.164 E5.60566
G1 X89.384 Y86.394 E5.62498
G1 X89.385 Y77.462 E5.84779
G1 X89.425 Y76.927 E5.86117
G1 X89.544 Y76.404 E5.87455
G1 X89.739 Y75.904 E5.88794
G1 X90.007 Y75.44 E5.90131
G1 X90.443 Y74.913 E5.91837
G0 F3600 X90.725 Y75.196
G1 F1800 X93.584 Y72.344 E6.0191
G1 X93.969 Y72.017 E6.03171
G1 X94.401 Y71.754 E6.04432
G1 X94.869 Y71.562 E6.05694
G1 X95.361 Y71.447 E6.06954
G1 X95.844 Y71.41 E6.08163
G1 X137.965 Y71.411 E7.13234
G1 X138.469 Y71.451 E7.14495
G1 X138.96 Y71.57 E7.15755
G1 X139.427 Y71.765 E7.17018
G1 X139.857 Y72.03 E7.18278
G1 X140.24 Y72.361 E7.19541
G1 X140.566 Y72.747 E7.20801
G1 X140.827 Y73.18 E7.22062
G1 X141.017 Y73.648 E7.23322
G1 X141.111 Y74.025 E7.24291
G1 X141.636 Y76.84 E7.31434
G1 X142.876 Y82.205 E7.4517
G1 X144.409 Y87.465 E7.58837
G1 X146.232 Y92.612 E7.72458
G1 X148.346 Y97.656 E7.86101
G1 X150.752 Y102.594 E7.99803
G1 X153.421 Y107.365 E8.1344
G1 X157.176 Y113.268 E8.30892
G1 X157.25 Y113.391 E8.3125
G1 X159.787 Y117.802 E8.43943
G1 X160.004 Y118.258 E8.45203
G1 X160.146 Y118.744 E8.46466
G1 X160.209 Y119.245 E8.47726
G1 X160.193 Y119.75 E8.48986
G1 X160.098 Y120.247 E8.50248
G1 X159.926 Y120.722 E8.51509
G1 X159.785 Y120.996 E8.52277
G1 X156.895 Y126.006 E8.66705
G1 X156.608 Y126.423 E8.67968
G1 X156.26 Y126.789 E8.69228
G1 X155.858 Y127.096 E8.70489
G1 X155.298 Y127.384 E8.7206
G1 X148.825 Y129.938 E8.89419
G1 X143.894 Y132.245 E9.02999
G1 X139.042 Y134.86 E9.16748
G1 X136.487 Y136.384 E9.24169
G1 X136.034 Y136.608 E9.2543
G1 X135.551 Y136.758 E9.26691
G1 X134.842 Y136.836 E9.28471
G1 X130.991 Y136.829 E9.38077
G1 X130.861 Y136.826 E9.38401
G1 X125.307 Y136.59 E9.52268
G1 X119.82 Y136.668 E9.65957
G1 X114.362 Y137.054 E9.79606
G1 X108.916 Y137.75 E9.93302
G1 X104.182 Y138.554 E10.0528
G1 X103.613 Y138.599 E10.06704
G1 X102.652 Y138.589 E10.09101
G1 X102.148 Y138.544 E10.10363
G1 X101.658 Y138.42 E10.11624
G1 X101.193 Y138.22 E10.12887
G1 X100.766 Y137.95 E10.14147
G1 X100.424 Y137.654 E10.15275
G1 X97.725 Y134.96 E10.24788
G1 X97.397 Y134.576 E10.26048
G1 X97.133 Y134.144 E10.27311
G1 X96.94 Y133.677 E10.28571
G1 X96.824 Y133.185 E10.29832
G1 X96.786 Y132.715 E10.31008
G1 X96.776 Y131.126 E10.34972
G1 X96.778 Y130.988 E10.35316
G1 X96.997 Y125.079 E10.50067
G1 X96.916 Y119.588 E10.63765
G1 X96.529 Y114.133 E10.77407
G1 X95.83 Y108.701 E10.91069
G1 X94.826 Y103.307 E11.04756
G1 X94.223 Y100.687 E11.11462
G1 X92.757 Y95.375 E11.25208
G1 X90.996 Y90.161 E11.38936
G1 X89.994 Y87.535 E11.45948
G1 X89.852 Y87.05 E11.47208
G1 X89.784 Y86.394 E11.48853
G1 X89.785 Y77.462 E11.71134
G1 X89.825 Y76.958 E11.72396
G1 X89.944 Y76.466 E11.73658
G1 X90.139 Y76 E11.74918
G1 X90.404 Y75.57 E11.76178
G1 X90.725 Y75.196 E11.77408
G1 F2100 E10.97408
G0 F3600 X92.691 Y76.797
G0 X93.611 Y77.716
G0 X94.001 Y77.354
G0 X94.092 Y77.394
;TYPE:WALL-INNER
G1 F2100 E11.77408
G1 F1800 X93.953 Y77.823 E11.78533
G1 X93.852 Y78.131 E11.79341
G1 X93.773 Y78.9 E11.8127
G1 X93.85 Y79.646 E11.83141
G1 X93.972 Y80.032 E11.8415
G1 X94.082 Y80.38 E11.85061
G1 X94.467 Y81.056 E11.87001
G1 X95.017 Y81.667 E11.89052
G1 X95.648 Y82.119 E11.90988
G1 X96.354 Y82.428 E11.92911
G1 X97.088 Y82.584 E11.94783
G1 X97.863 Y82.584 E11.96716
G1 X98.621 Y82.422 E11.98649
G1 X98.879 Y82.307 E11.99354
G1 X99.115 Y82.202 E11.99998
G1 X99.327 Y82.107 E12.00578
G1 X99.533 Y81.958 E12.01212
G1 X99.954 Y81.652 E12.0251
G1 X100.008 Y81.592 E12.02712
G1 X100.471 Y81.078 E12.04437
G1 X100.859 Y80.407 E12.06371
G1 X101.099 Y79.67 E12.08304
G1 X101.178 Y78.9 E12.10235
G1 X101.099 Y78.131 E12.12164
G1 X100.859 Y77.394 E12.14097
G1 X100.471 Y76.723 E12.16031
G1 X99.954 Y76.149 E12.17958
G1 X99.327 Y75.694 E12.1989
G1 X99.096 Y75.591 E12.20521
G1 X98.621 Y75.379 E12.21818
G1 X97.863 Y75.217 E12.23752
G1 X97.088 Y75.217 E12.25685
G1 X96.332 Y75.379 E12.27614
G1 X96.185 Y75.444 E12.28015
G1 X95.624 Y75.694 E12.29547
G1 X95.474 Y75.803 E12.30009
G0 X95.603 Y75.674
G1 X96.076 Y75.201 E12.30684
G1 X96.332 Y75.201 E12.30872
G1 X97.088 Y75.201 E12.31322
G1 X97.863 Y75.201 E12.31399
G1 X98.621 Y75.201 E12.3185
G1 X99.142 Y75.201 E12.32798
G1 X137.374 Y75.201 E13.28168
G1 X137.374 Y110.343 E14.1583
G1 X148.289 Y114.977 E14.4541
G1 X153.779 Y114.977 E14.59104
G1 X156.333 Y119.399 E14.71843
G1 X153.779 Y123.822 E14.84583
G1 X148.671 Y123.822 E14.97325
G1 X147.679 Y122.105 E15.02272
G1 X137.536 Y117.799 E15.29759
G1 X134.374 Y117.799 E15.37647
G1 X134.374 Y127.529 E15.61918
G1 X136.032 Y130.399 E15.70186
G1 X134.503 Y133.047 E15.77814
G1 X131.446 Y133.047 E15.8544
G1 X130.148 Y130.799 E15.91915
G1 X129.575 Y130.799 E15.93344
G1 X129.575 Y126.83 E16.03245
G1 X103.576 Y126.83 E16.681
G1 X103.576 Y84.398 E17.73947
G1 X103.524 Y83.866 E17.7528
G1 X103.357 Y83.347 E17.7664
G1 X103.085 Y82.874 E17.78001
G1 X102.715 Y82.463 E17.79381
G1 X102.273 Y82.144 E17.80741
G1 X101.777 Y81.923 E17.82095
G1 X101.244 Y81.811 E17.83454
G1 X100.699 Y81.812 E17.84813
G1 X100.247 Y81.909 E17.85967
G1 X100.168 Y81.926 E17.86155
G1 X100.093 Y81.959 E17.8636
G1 X99.672 Y82.148 E17.87164
G1 X99.466 Y82.297 E17.87363
G1 X99.233 Y82.466 E17.87704
G1 X99.06 Y82.659 E17.88263
G1 X98.87 Y82.871 E17.88973
G1 X98.597 Y83.341 E17.90329
G1 X98.428 Y83.86 E17.91691
G1 X98.376 Y84.369 E17.92967
G1 X98.376 Y85.8 E17.96537
G1 X93.575 Y85.8 E18.08513
G1 X93.575 Y80.051 E18.22854
G1 X93.575 Y79.646 E18.23708
G1 X93.575 Y78.9 E18.24808
G1 X93.575 Y78.131 E18.25946
G1 X93.575 Y77.701 E18.26872
G1 X93.986 Y77.29 E18.27923
G1 X94.379 Y76.897 E18.29309
G1 X94.092 Y77.394 E18.29601
G0 F3600 X94.001 Y77.354
G0 X93.813 Y78.123
G0 X93.733 Y78.9
G0 X93.811 Y79.654
G0 X94.046 Y80.396
G0 X94.435 Y81.079
G0 X94.991 Y81.696
G0 X95.629 Y82.153
G0 X96.342 Y82.466
G0 X97.084 Y82.623
G0 X97.867 Y82.623
G0 X98.633 Y82.46
G0 X99.347 Y82.141
G0 X99.98 Y81.681
G0 X106.174 Y80.412
G0 X106.271 Y80.432
G1 F1800 X106.223 Y80.9 E18.30774
G1 X106.269 Y81.348 E18.31897
G1 X106.408 Y81.795 E18.33065
G1 X106.641 Y82.206 E18.34244
G1 X106.983 Y82.587 E18.35521
G1 X107.369 Y82.861 E18.36702
G1 X107.803 Y83.05 E18.37883
G1 X108.264 Y83.141 E18.39055
G1 X108.734 Y83.137 E18.40227
G1 X109.193 Y83.035 E18.414
G1 X109.619 Y82.84 E18.42569
G1 X109.984 Y82.575 E18.43694
G1 X110.298 Y82.224 E18.44869
G1 X110.534 Y81.818 E18.4604
G1 X110.68 Y81.369 E18.47218
G1 X110.728 Y80.9 E18.48394
G1 X110.68 Y80.432 E18.49567
G1 X110.534 Y79.983 E18.50745
G1 X110.298 Y79.577 E18.51917
G1 X109.984 Y79.226 E18.53091
G1 X109.602 Y78.95 E18.54267
G1 X109.171 Y78.757 E18.55445
G1 X108.711 Y78.66 E18.56618
G1 X108.24 Y78.66 E18.57793
G1 X107.78 Y78.757 E18.58965
G1 X107.349 Y78.95 E18.60143
G1 X106.967 Y79.226 E18.61319
G1 X106.653 Y79.577 E18.62494
G1 X106.417 Y79.983 E18.63665
G1 X106.271 Y80.432 E18.64843
G0 F3600 X106.174 Y80.412
G0 X106.621 Y79.554
G0 X106.941 Y79.197
G0 X107.33 Y78.916
G0 X107.768 Y78.719
G0 X108.236 Y78.621
G0 X108.715 Y78.621
G0 X128.671 Y80.9
G0 X128.771 Y80.9
G1 F1800 X128.849 Y81.646 E18.66714
G1 X129.082 Y82.38 E18.68635
G1 X129.465 Y83.056 E18.70573
G1 X130.015 Y83.667 E18.72624
G1 X130.646 Y84.119 E18.7456
G1 X131.353 Y84.428 E18.76485
G1 X132.087 Y84.584 E18.78357
G1 X132.862 Y84.584 E18.8029
G1 X133.618 Y84.422 E18.82219
G1 X134.327 Y84.107 E18.84154
G1 X134.953 Y83.652 E18.86084
G1 X135.47 Y83.077 E18.88013
G1 X135.857 Y82.407 E18.89943
G1 X136.097 Y81.671 E18.91874
G1 X136.177 Y80.9 E18.93808
G1 X136.097 Y80.13 E18.95739
G1 X135.857 Y79.394 E18.9767
G1 X135.47 Y78.724 E18.996
G1 X134.953 Y78.149 E19.01529
G1 X134.327 Y77.694 E19.0346
G1 X133.618 Y77.379 E19.05395
G1 X132.862 Y77.217 E19.07324
G1 X132.087 Y77.217 E19.09257
G1 X131.331 Y77.379 E19.11186
G1 X130.622 Y77.694 E19.13121
G1 X129.996 Y78.149 E19.15051
G1 X129.479 Y78.724 E19.1698
G1 X129.092 Y79.394 E19.1891
G1 X128.852 Y80.13 E19.20841
G1 X128.771 Y80.9 E19.22773
G0 F3600 X128.671 Y80.9
G0 X128.81 Y81.654
G0 X129.046 Y82.395
G0 X129.433 Y83.079
G0 X129.989 Y83.696
G0 X130.473 Y83.975
G0 X137.393 Y95.779
G0 X137.341 Y110.365
G0 X150.049 Y117.363
G0 X150.098 Y117.449
G1 F1800 X149.716 Y117.725 E19.23948
G1 X149.402 Y118.076 E19.25123
G1 X149.166 Y118.482 E19.26295
G1 X149.02 Y118.931 E19.27472
G1 X148.972 Y119.399 E19.28646
G1 X149.018 Y119.847 E19.29769
G1 X149.157 Y120.294 E19.30937
G1 X149.39 Y120.705 E19.32116
G1 X149.732 Y121.086 E19.33393
G1 X150.118 Y121.36 E19.34574
G1 X150.552 Y121.549 E19.35754
G1 X151.013 Y121.64 E19.36927
G1 X151.483 Y121.636 E19.38099
G1 X151.942 Y121.534 E19.39272
G1 X152.368 Y121.339 E19.40441
G1 X152.733 Y121.074 E19.41566
G1 X153.047 Y120.723 E19.42741
G1 X153.283 Y120.317 E19.43912
G1 X153.428 Y119.869 E19.45087
G1 X153.478 Y119.399 E19.46266
G1 X153.428 Y118.93 E19.47442
G1 X153.283 Y118.482 E19.48617
G1 X153.047 Y118.076 E19.49788
G1 X152.733 Y117.725 E19.50963
G1 X152.351 Y117.449 E19.52139
G1 X151.92 Y117.256 E19.53317
G1 X151.46 Y117.159 E19.54489
G1 X150.989 Y117.159 E19.55664
G1 X150.529 Y117.256 E19.56837
G1 X150.098 Y117.449 E19.58015
G0 F3600 X150.049 Y117.363
G0 X134.346 Y117.771
G0 X134.336 Y127.539
G0 X134.756 Y129.105
G0 X134.676 Y129.163
G1 F1800 X134.382 Y128.838 E19.59108
G1 X134.027 Y128.578 E19.60206
G1 X133.624 Y128.399 E19.61306
G1 X133.194 Y128.308 E19.62402
G1 X132.755 Y128.308 E19.63497
G1 X132.325 Y128.399 E19.64594
G1 X131.923 Y128.578 E19.65691
G1 X131.567 Y128.837 E19.6679
G1 X131.273 Y129.163 E19.67885
G1 X131.053 Y129.543 E19.6898
G1 X130.917 Y129.963 E19.70081
G1 X130.871 Y130.399 E19.71175
G1 X130.917 Y130.836 E19.72271
G1 X131.053 Y131.256 E19.73372
G1 X131.273 Y131.636 E19.74468
G1 X131.568 Y131.963 E19.75566
G1 X131.925 Y132.221 E19.76665
G1 X132.331 Y132.401 E19.77773
G1 X132.762 Y132.491 E19.78871
G1 X133.201 Y132.49 E19.79966
G1 X133.632 Y132.397 E19.81066
G1 X134.031 Y132.217 E19.82158
G1 X134.381 Y131.963 E19.83237
G1 X134.676 Y131.636 E19.84335
G1 X134.896 Y131.256 E19.85431
G1 X135.033 Y130.836 E19.86533
G1 X135.077 Y130.399 E19.87628
G1 X135.033 Y129.963 E19.88721
G1 X134.896 Y129.543 E19.89823
G1 X134.676 Y129.163 E19.90919
G1 F2100 E19.10919
G0 F3600 X134.756 Y129.105
G0 X134.047 Y128.544
G0 X133.636 Y128.361
G0 X133.198 Y128.269
G0 X132.751 Y128.269
G0 X132.313 Y128.361
G0 X131.903 Y128.544
G0 X131.541 Y128.808
G0 X131.579 Y128.869
G0 X129.535 Y128.718
G0 X104.022 Y126.832
G0 X103.604 Y126.802
G0 X102.311 Y126.802
G0 X102.323 Y129.746
G0 X103.348 Y131.027
G0 X103.306 Y131.069
G0 X103.376 Y130.999
G1 F2100 E19.90919
G1 F1800 X103.376 Y134.799 E20.00398
G1 X102.924 Y134.799 E20.01525
G1 X100.576 Y132.451 E20.09809
G1 X100.576 Y130.999 E20.13431
G1 X103.376 Y130.999 E20.20415
G0 F3600 X103.176 Y130.599
;TYPE:WALL-OUTER
G1 F1800 X103.176 Y84.418 E21.35614
G1 X103.13 Y83.948 E21.36792
G1 X102.989 Y83.51 E21.3794
G1 X102.759 Y83.11 E21.39091
G1 X102.446 Y82.762 E21.40259
G1 X102.073 Y82.493 E21.41406
G1 X101.653 Y82.306 E21.42553
G1 X101.203 Y82.211 E21.437
G1 X100.742 Y82.212 E21.4485
G1 X100.293 Y82.308 E21.45995
G1 X99.873 Y82.496 E21.47143
G1 X99.502 Y82.765 E21.48286
G1 X99.195 Y83.107 E21.49433
G1 X98.964 Y83.505 E21.50581
G1 X98.822 Y83.943 E21.51729
G1 X98.776 Y84.39 E21.5285
G1 X98.776 Y86.2 E21.57365
G1 X93.175 Y86.2 E21.71337
G1 X93.175 Y77.535 E21.92952
G1 X95.91 Y74.801 E22.02599
G1 X137.774 Y74.801 E23.07029
G1 X137.774 Y110.078 E23.95028
G1 X148.37 Y114.577 E24.23743
G1 X154.01 Y114.577 E24.37812
G1 X156.794 Y119.399 E24.51702
G1 X154.01 Y124.222 E24.65593
G1 X148.44 Y124.222 E24.79488
G1 X147.4 Y122.421 E24.84676
G1 X137.455 Y118.199 E25.11626
G1 X134.774 Y118.199 E25.18314
G1 X134.774 Y127.422 E25.41321
G1 X136.493 Y130.399 E25.49896
G1 X134.734 Y133.447 E25.58675
G1 X131.215 Y133.447 E25.67453
G1 X129.917 Y131.199 E25.73928
G1 X129.175 Y131.199 E25.75779
G1 X129.175 Y127.23 E25.8568
G1 X103.776 Y127.23 E26.49038
G1 X103.776 Y135.199 E26.68917
G1 X102.758 Y135.199 E26.71456
G1 X100.176 Y132.617 E26.80565
G1 X100.176 Y130.599 E26.85599
G1 X103.176 Y130.599 E26.93082
G1 F2100 E26.13082
G0 F3600 X103.176 Y131.099
G0 X103.348 Y131.027
G0 X104.641 Y131.027
G0 X104.629 Y128.083
G0 X103.604 Y126.802
G0 X129.603 Y126.802
G0 X130.777 Y130.347
G0 X131.273 Y130.399
G1 F2100 E26.93082
G1 F1800 X131.31 Y130.753 E26.9397
G1 X131.42 Y131.092 E26.94859
G1 X131.598 Y131.399 E26.95745
G1 X131.837 Y131.664 E26.96635
G1 X132.125 Y131.872 E26.97521
G1 X132.454 Y132.018 E26.98419
G1 X132.803 Y132.091 E26.99308
G1 X133.158 Y132.09 E27.00194
G1 X133.506 Y132.015 E27.01082
G1 X133.829 Y131.869 E27.01966
G1 X134.112 Y131.664 E27.02838
G1 X134.351 Y131.399 E27.03728
G1 X134.529 Y131.092 E27.04613
G1 X134.639 Y130.753 E27.05502
G1 X134.675 Y130.399 E27.0639
G1 X134.639 Y130.046 E27.07275
G1 X134.529 Y129.707 E27.08164
G1 X134.351 Y129.4 E27.09049
G1 X134.113 Y129.136 E27.09936
G1 X133.826 Y128.926 E27.10823
G1 X133.5 Y128.782 E27.11712
G1 X133.152 Y128.708 E27.12599
G1 X132.797 Y128.708 E27.13485
G1 X132.449 Y128.782 E27.14373
G1 X132.124 Y128.926 E27.15259
G1 X131.836 Y129.136 E27.16148
G1 X131.598 Y129.4 E27.17035
G1 X131.42 Y129.707 E27.1792
G1 X131.31 Y130.046 E27.18809
G1 X131.273 Y130.399 E27.19695
G0 F3600 X130.777 Y130.347
G0 X131.017 Y129.527
G0 X131.241 Y129.14
G0 X131.541 Y128.808
