;FLAVOR:RepRap
;TIME:2518
;Generated with Cura_SteamEngine 2.3.1
G21 ; set units to millimeters
G90 ; use absolute positioning
M82 ; absolute extrusion mode
G28 W ; home all without mesh bed level
G80 ; mesh bed leveling
M104 S210 ; set extruder temp
M140 S55 ; set bed temp
M190 S55 ; wait for bed temp
M109 S210 ; wait for extruder temp
G92 E0.0 ; reset extruder distance position
G1 Y-3.0 F1000.0 ; go outside print area
G1 X60.0 E9.0 F1000.0 ; intro line
G1 X100.0 E21.5 F1000.0 ; intro line
G92 E0.0 ; reset extruder distance position
;LAYER_COUNT:230
;LAYER:0
M107
G1 F2100 E-0.8
G0 F3600 X105.243 Y98.688 Z.15
;TYPE:SKIRT
G1 F2100 E0
G1 F1800 X105.677 Y98.326 E0.0141
G1 X106.158 Y98.029 E0.0282
G1 X106.676 Y97.802 E0.04231
G1 X107.221 Y97.651 E0.05641
G1 X108.014 Y97.572 E0.07629
G1 X143.314 Y97.572 E0.95686
G1 X143.878 Y97.612 E0.97096
G1 X144.431 Y97.731 E0.98507
G1 X144.961 Y97.927 E0.99917
G1 X145.458 Y98.195 E1.01325
G1 X145.913 Y98.531 E1.02736
G1 X146.142 Y98.744 E1.03516
G1 X146.318 Y98.92 E1.04137
G1 X146.689 Y99.347 E1.05548
G1 X146.996 Y99.822 E1.06959
G1 X147.232 Y100.335 E1.08368
G1 X147.394 Y100.877 E1.09779
G1 X147.478 Y101.436 E1.11189
G1 X147.49 Y101.748 E1.11968
G1 X147.49 Y109.87 E1.32228
G1 X147.45 Y110.434 E1.33639
G1 X147.331 Y110.987 E1.3505
G1 X147.135 Y111.517 E1.36459
G1 X146.867 Y112.014 E1.37868
G1 X146.663 Y112.306 E1.38756
G1 X146.577 Y112.418 E1.39109
G1 X146.201 Y112.841 E1.4052
G1 X145.77 Y113.207 E1.41931
G1 X145.292 Y113.508 E1.4334
G1 X144.776 Y113.739 E1.4475
G1 X144.233 Y113.895 E1.46159
G1 X143.407 Y113.982 E1.48231
G1 X108.951 Y114.012 E2.34182
G1 X108.388 Y113.973 E2.3559
G1 X107.835 Y113.854 E2.37001
G1 X107.304 Y113.659 E2.38412
G1 X106.807 Y113.39 E2.39822
G1 X106.352 Y113.055 E2.41231
G1 X105.949 Y112.658 E2.42642
G1 X105.484 Y112.012 E2.44628
G1 X102.583 Y106.988 E2.591
G1 X102.336 Y106.48 E2.60509
G1 X102.162 Y105.942 E2.61919
G1 X102.067 Y105.385 E2.63329
G1 X102.051 Y104.819 E2.64741
G1 X102.114 Y104.258 E2.66149
G1 X102.256 Y103.711 E2.67559
G1 X102.581 Y102.992 E2.69527
G1 X104.548 Y99.576 E2.7936
G1 X104.864 Y99.107 E2.80771
G1 X105.243 Y98.688 E2.8218
G0 F3600 X105.56 Y98.938
G1 F1800 X105.978 Y98.603 E2.83517
G1 X106.442 Y98.333 E2.84856
G1 X106.94 Y98.136 E2.86192
G1 X107.463 Y98.014 E2.87531
G1 X108.014 Y97.972 E2.8891
G1 X143.314 Y97.972 E3.76966
G1 X143.849 Y98.012 E3.78304
G1 X144.372 Y98.131 E3.79642
G1 X144.871 Y98.326 E3.80979
G1 X145.336 Y98.594 E3.82318
G1 X145.86 Y99.026 E3.84012
G1 X146.036 Y99.202 E3.84632
G1 X146.385 Y99.609 E3.8597
G1 X146.671 Y100.063 E3.87308
G1 X146.886 Y100.554 E3.88645
G1 X147.026 Y101.072 E3.89984
G1 X147.09 Y101.748 E3.91678
G1 X147.09 Y109.87 E4.11938
G1 X147.05 Y110.405 E4.13277
G1 X146.931 Y110.928 E4.14614
G1 X146.736 Y111.427 E4.15951
G1 X146.345 Y112.062 E4.17811
G1 X146.259 Y112.174 E4.18163
G1 X145.902 Y112.574 E4.19501
G1 X145.489 Y112.917 E4.2084
G1 X145.03 Y113.194 E4.22177
G1 X144.535 Y113.4 E4.23515
G1 X144.015 Y113.53 E4.24852
G1 X143.407 Y113.582 E4.26374
G1 X108.951 Y113.612 E5.12325
G1 X108.416 Y113.573 E5.13663
G1 X107.893 Y113.454 E5.15001
G1 X107.394 Y113.259 E5.16337
G1 X106.929 Y112.992 E5.17675
G1 X106.508 Y112.659 E5.19014
G1 X106.142 Y112.267 E5.20352
G1 X105.83 Y111.812 E5.21728
G1 X102.929 Y106.788 E5.362
G1 X102.697 Y106.305 E5.37536
G1 X102.538 Y105.793 E5.38874
G1 X102.457 Y105.263 E5.40211
G1 X102.457 Y104.726 E5.41551
G1 X102.535 Y104.196 E5.42887
G1 X102.692 Y103.683 E5.44225
G1 X102.927 Y103.192 E5.45583
G1 X104.894 Y99.776 E5.55416
G1 X105.196 Y99.332 E5.56756
G1 X105.56 Y98.938 E5.58094
G0 F3600 X105.875 Y99.192
G1 F1800 X106.277 Y98.885 E5.59355
G1 X106.722 Y98.645 E5.60617
G1 X107.199 Y98.478 E5.61877
G1 X107.696 Y98.388 E5.63137
G1 X108.014 Y98.372 E5.63932
G1 X143.314 Y98.372 E6.51988
G1 X143.818 Y98.412 E6.53249
G1 X144.309 Y98.531 E6.54509
G1 X144.776 Y98.725 E6.55771
G1 X145.206 Y98.991 E6.57032
G1 X145.577 Y99.309 E6.58251
G1 X145.753 Y99.485 E6.58872
G1 X146.081 Y99.87 E6.60133
G1 X146.344 Y100.301 E6.61393
G1 X146.537 Y100.769 E6.62656
G1 X146.653 Y101.261 E6.63917
G1 X146.69 Y101.748 E6.65135
G1 X146.69 Y109.87 E6.85395
G1 X146.65 Y110.374 E6.86657
G1 X146.531 Y110.865 E6.87917
G1 X146.337 Y111.332 E6.89178
G1 X146.028 Y111.819 E6.90617
G1 X145.942 Y111.931 E6.90969
G1 X145.603 Y112.306 E6.9223
G1 X145.21 Y112.624 E6.93491
G1 X144.771 Y112.875 E6.94753
G1 X144.299 Y113.054 E6.96012
G1 X143.804 Y113.157 E6.97273
G1 X143.407 Y113.182 E6.98266
G1 X108.951 Y113.212 E7.84216
G1 X108.447 Y113.173 E7.85477
G1 X107.955 Y113.054 E7.8674
G1 X107.489 Y112.86 E7.87999
G1 X107.058 Y112.594 E7.89263
G1 X106.675 Y112.265 E7.90522
G1 X106.349 Y111.878 E7.91784
G1 X106.177 Y111.612 E7.92575
G1 X103.276 Y106.588 E8.07046
G1 X103.058 Y106.132 E8.08307
G1 X102.916 Y105.647 E8.09568
G1 X102.851 Y105.145 E8.1083
G1 X102.866 Y104.64 E8.12091
G1 X102.96 Y104.143 E8.13352
G1 X103.132 Y103.668 E8.14613
G1 X103.274 Y103.391 E8.15389
G1 X105.241 Y99.975 E8.25222
G1 X105.527 Y99.558 E8.26483
G1 X105.875 Y99.192 E8.27743
G1 F2100 E7.47743
G0 F3600 X107.251 Y101.548
G0 X108.377 Y102.195
G0 X108.849 Y102.167
G0 X108.915 Y102.241
;TYPE:WALL-INNER
G1 F2100 E8.27743
G1 F1800 X108.731 Y102.495 E8.28526
G1 X108.229 Y103.185 E8.30654
G1 X108.007 Y103.491 E8.31597
G1 X107.981 Y103.614 E8.31911
G1 X107.687 Y105 E8.35445
G1 X107.972 Y106.343 E8.3887
G1 X108.007 Y106.509 E8.39293
G1 X108.309 Y106.925 E8.40575
G1 X108.915 Y107.759 E8.43147
G1 X110.253 Y108.531 E8.47
G1 X111.788 Y108.693 E8.50851
G1 X113.256 Y108.215 E8.54702
G1 X114.404 Y107.183 E8.58553
G1 X115.033 Y105.772 E8.62406
G1 X115.033 Y104.228 E8.66258
G1 X114.404 Y102.817 E8.70111
G1 X114.061 Y102.509 E8.71261
G1 X113.674 Y102.161 E8.7256
G1 X114.194 Y102.161 E8.73251
G1 X114.195 Y102.161 E8.73254
G1 X142.7 Y102.162 E9.4436
G1 X142.9 Y102.162 E9.44859
G1 X142.9 Y102.362 E9.45182
G1 X142.899 Y109.4 E9.62738
G1 X139.551 Y109.4 E9.7109
G1 X137.328 Y109.4 E9.76635
G1 X135.7 Y109.4 E9.80696
G1 X133.412 Y109.4 E9.86403
G1 X132.628 Y109.4 E9.88359
G1 X130.34 Y109.4 E9.94067
G1 X128.855 Y109.4 E9.97771
G1 X128.718 Y109.4 E9.98113
G1 X128.291 Y109.4 E9.99178
G1 X127.845 Y109.4 E10.0029
G1 X127.395 Y109.4 E10.01413
G1 X126.966 Y109.4 E10.02483
G1 X126.829 Y109.4 E10.02825
G1 X125.758 Y109.4 E10.05496
G1 X120.485 Y109.4 E10.1865
G1 X119.362 Y109.4 E10.21451
G1 X117.138 Y109.4 E10.26999
G1 X113.984 Y109.4 E10.34867
G1 X113.97 Y109.422 E10.34932
G1 X109.288 Y109.422 E10.46611
G1 X107.964 Y107.129 E10.53216
G1 X107.707 Y106.683 E10.54414
G1 X107.622 Y106.536 E10.54809
G1 X106.729 Y104.989 E10.59265
G1 X107.632 Y103.421 E10.63778
G1 X107.694 Y103.312 E10.64076
G1 X107.882 Y102.985 E10.64969
G1 X108.357 Y102.161 E10.67342
G1 X108.601 Y102.161 E10.67951
G1 X108.915 Y102.161 E10.68455
G1 X109.054 Y102.161 E10.68802
G0 X108.915 Y102.241
G0 F3600 X108.849 Y102.167
G0 X106.769 Y104.989
G0 X109.308 Y109.388
G0 X142.871 Y109.372
G0 X142.872 Y102.19
G0 X117.004 Y102.831
G0 X117.074 Y102.901
G1 F1800 X117.074 Y105.189 E10.74509
G1 X117.38 Y105.189 E10.75272
G0 X117.376 Y105.226
G1 X117.138 Y107.114 E10.80019
G1 X117.138 Y109.092 E10.84954
G1 X119.362 Y109.092 E10.89225
G1 X119.362 Y107.116 E10.94154
G1 X119.13 Y105.217 E10.98927
G1 X119.126 Y105.189 E10.98997
G1 X119.362 Y105.189 E10.99373
G1 X119.362 Y102.901 E11.0508
G1 X117.074 Y102.901 E11.10788
G0 F3600 X117.004 Y102.831
G0 X121.908 Y102.831
G0 X121.978 Y102.901
G1 F1800 X121.978 Y106.996 E11.21003
G1 X120.485 Y106.996 E11.24727
G1 X120.485 Y109.092 E11.29956
G1 X125.758 Y109.092 E11.40084
G1 X125.758 Y108.756 E11.40922
G1 X125.758 Y108.48 E11.41611
G1 X125.758 Y108.368 E11.4189
G0 X125.874 Y108.48
G1 X126.098 Y108.64 E11.42359
G1 X126.202 Y108.715 E11.42679
G1 X126.566 Y108.906 E11.43705
G1 X126.837 Y109.002 E11.44422
G1 X126.966 Y109.047 E11.44743
G1 X127.395 Y109.13 E11.45595
G1 X127.845 Y109.157 E11.46316
G1 X128.291 Y109.13 E11.4703
G1 X128.718 Y109.047 E11.47878
G1 X128.847 Y109.002 E11.48199
G1 X129.119 Y108.906 E11.48919
G1 X129.486 Y108.716 E11.4995
G1 X129.815 Y108.48 E11.5096
G1 X129.965 Y108.334 E11.51482
G1 X130.102 Y108.201 E11.51958
G1 X130.34 Y107.897 E11.52921
G0 X130.34 Y108.201
G1 X130.34 Y108.392 E11.53309
G1 X130.34 Y109.092 E11.55055
G1 X132.628 Y109.092 E11.5945
G1 X132.628 Y107.172 E11.64239
G1 X133.412 Y107.172 E11.66195
G1 X133.412 Y109.092 E11.70984
G1 X135.7 Y109.092 E11.75379
G1 X135.7 Y102.901 E11.90823
G1 X133.412 Y102.901 E11.9653
G1 X133.412 Y105.076 E12.01956
G1 X132.628 Y105.076 E12.03911
G1 X132.628 Y102.901 E12.09337
G1 X130.34 Y102.901 E12.15044
G1 X130.34 Y103.526 E12.16603
G1 X130.34 Y103.709 E12.1706
G1 X130.34 Y104.012 E12.17816
G1 X130.098 Y103.709 E12.1798
G1 X129.965 Y103.583 E12.18354
G1 X129.81 Y103.436 E12.18887
G1 X129.482 Y103.204 E12.19889
G1 X129.115 Y103.017 E12.20916
G1 X128.716 Y102.879 E12.21969
G1 X128.29 Y102.798 E12.23051
G1 X127.845 Y102.772 E12.24163
G1 X127.396 Y102.798 E12.25285
G1 X126.968 Y102.88 E12.26372
G1 X126.569 Y103.018 E12.27425
G1 X126.205 Y103.205 E12.28446
G1 X125.879 Y103.436 E12.29443
G1 X125.59 Y103.709 E12.30434
G1 X125.344 Y104.019 E12.31422
G1 X125.142 Y104.359 E12.32408
G1 X124.983 Y104.728 E12.3341
G1 X124.87 Y105.116 E12.34419
G1 X124.802 Y105.52 E12.35441
G1 X124.779 Y105.94 E12.3649
G1 X124.802 Y106.367 E12.37556
G1 X124.853 Y106.672 E12.38328
G1 X124.87 Y106.776 E12.38591
G1 X124.932 Y106.996 E12.39161
G0 X124.87 Y106.996
G1 X124.764 Y106.996 E12.3938
G1 X124.266 Y106.996 E12.40622
G1 X124.266 Y102.901 E12.50837
G1 X121.978 Y102.901 E12.56545
G0 F3600 X121.908 Y102.831
G0 X128.294 Y102.759
G0 X137.193 Y102.831
G0 X137.263 Y102.901
G1 F1800 X137.263 Y105.189 E12.62252
G1 X137.569 Y105.189 E12.63016
G0 X137.565 Y105.225
G1 X137.328 Y107.115 E12.67767
G1 X137.328 Y109.092 E12.72699
G1 X139.551 Y109.092 E12.76969
G1 X139.551 Y107.116 E12.81898
G1 X139.319 Y105.217 E12.8667
G1 X139.315 Y105.189 E12.86741
G1 X139.551 Y105.189 E12.87116
G1 X139.551 Y102.901 E12.92824
G1 X137.263 Y102.901 E12.98531
G0 F3600 X137.663 Y103.301
;TYPE:WALL-OUTER
G1 F1800 X137.663 Y104.789 E13.02243
G1 X138.02 Y104.789 E13.03134
G1 X138.865 Y104.789 E13.05241
G1 X139.151 Y104.789 E13.05955
G1 X139.151 Y103.301 E13.09667
G1 X137.663 Y103.301 E13.13379
G0 F3600 X137.163 Y103.301
G0 X137.235 Y105.217
G0 X137.495 Y105.255
G0 X138.02 Y104.804
G0 F1800 X138.017 Y104.832
G1 X137.728 Y107.14 E13.19181
G1 X137.728 Y108.692 E13.23052
G1 X139.151 Y108.692 E13.26602
G1 X139.151 Y107.14 E13.30473
G1 X138.868 Y104.823 E13.36296
G0 X138.865 Y104.804
G0 X138.02 Y104.804
G0 F3600 X137.495 Y105.255
G0 X137.235 Y105.217
G0 X135.8 Y103.301
G0 X135.3 Y103.301
G1 F1800 X133.812 Y103.301 E13.40008
G1 X133.812 Y105.476 E13.45434
G1 X132.228 Y105.476 E13.49385
G1 X132.228 Y103.301 E13.5481
G1 X130.74 Y103.301 E13.58522
G1 X130.74 Y104.898 E13.62506
G1 X130.74 Y105.205 E13.63272
G1 X130.74 Y105.564 E13.64167
G1 X130.74 Y105.94 E13.65105
G1 X130.74 Y106.322 E13.66058
G1 X130.74 Y106.688 E13.66971
G1 X130.74 Y107.004 E13.67759
G1 X130.74 Y108.692 E13.7197
G1 X132.228 Y108.692 E13.75682
G1 X132.228 Y106.772 E13.80472
G1 X133.812 Y106.772 E13.84423
G1 X133.812 Y108.692 E13.89212
G1 X135.3 Y108.692 E13.92924
G1 X135.3 Y103.301 E14.06372
G0 F3600 X135.8 Y103.301
G0 X135.728 Y102.873
G0 X130.312 Y102.873
G0 X130.308 Y103.918
G0 X130.328 Y104.863
G1 F1800 X130.19 Y104.541 E14.07246
G1 X130.015 Y104.246 E14.08102
G1 X129.803 Y103.98 E14.0895
G1 X129.556 Y103.746 E14.09799
G1 X129.275 Y103.547 E14.10658
G1 X128.958 Y103.386 E14.11545
G1 X128.613 Y103.267 E14.12455
G1 X128.241 Y103.196 E14.134
G1 X127.845 Y103.173 E14.14389
G1 X127.445 Y103.196 E14.15389
G1 X127.072 Y103.267 E14.16336
G1 X126.727 Y103.387 E14.17247
G1 X126.413 Y103.548 E14.18127
G1 X126.133 Y103.746 E14.18983
G1 X125.885 Y103.98 E14.19833
G1 X125.674 Y104.246 E14.2068
G1 X125.499 Y104.541 E14.21536
G1 X125.36 Y104.863 E14.22411
G1 X125.261 Y105.205 E14.23299
G1 X125.2 Y105.564 E14.24207
G1 X125.18 Y105.94 E14.25146
G1 X125.2 Y106.323 E14.26103
G1 X125.261 Y106.688 E14.27026
G1 X125.353 Y107.011 E14.27864
G1 X125.36 Y107.037 E14.27931
G1 X125.489 Y107.339 E14.2875
G1 X125.499 Y107.363 E14.28815
G1 X125.673 Y107.662 E14.29678
G1 X125.748 Y107.759 E14.29984
G1 X125.884 Y107.933 E14.30535
G1 X126.131 Y108.172 E14.31392
G1 X126.412 Y108.374 E14.32256
G1 X126.726 Y108.538 E14.33139
G1 X127.071 Y108.66 E14.34052
G1 X127.445 Y108.732 E14.35002
G1 X127.845 Y108.756 E14.36002
G1 X128.241 Y108.732 E14.36991
G1 X128.613 Y108.66 E14.37937
G1 X128.96 Y108.538 E14.38854
G1 X129.276 Y108.374 E14.39742
G1 X129.558 Y108.172 E14.40608
G1 X129.804 Y107.933 E14.41463
G1 X130.016 Y107.662 E14.42321
G1 X130.19 Y107.363 E14.43184
G1 X130.329 Y107.037 E14.44068
G1 X130.342 Y106.991 E14.44188
G1 X130.429 Y106.688 E14.44887
G1 X130.489 Y106.322 E14.45539
G1 X130.508 Y105.94 E14.46115
G1 X130.489 Y105.564 E14.46682
G1 X130.429 Y105.205 E14.47322
G1 X130.342 Y104.911 E14.48003
G1 X130.328 Y104.863 E14.48128
G0 F3600 X130.308 Y103.918
G0 X129.835 Y103.406
G0 X129.13 Y102.981
G0 X128.294 Y102.759
G0 X127.392 Y102.759
G0 X126.554 Y102.982
G0 X125.854 Y103.406
G0 X125.312 Y103.997
G0 X124.946 Y104.715
G0 X124.763 Y105.516
G0 X124.763 Y106.371
G0 X124.853 Y106.936
G0 X125.358 Y107.396
G1 F1800 X125.331 Y107.396 E14.48192
G1 X123.866 Y107.396 E14.51847
G1 X123.866 Y103.301 E14.62062
G1 X122.378 Y103.301 E14.65774
G1 X122.378 Y107.396 E14.75989
G1 X120.885 Y107.396 E14.79713
G1 X120.885 Y108.692 E14.82946
G1 X125.358 Y108.692 E14.94104
G1 X125.358 Y107.785 E14.96366
G1 X125.358 Y107.662 E14.96559
G1 X125.358 Y107.396 E14.96739
G0 F3600 X124.853 Y106.936
G0 X124.294 Y102.873
G0 X121.95 Y102.873
G0 X120.457 Y106.968
G0 X120.522 Y108.593
G0 X119.324 Y109.052
G0 X119.258 Y109.077
G0 X118.962 Y109.192
G0 X118.962 Y108.692
G1 F1800 X118.962 Y107.14 E15.00611
G1 X118.679 Y104.823 E15.06433
G1 X118.676 Y104.804 E15.06481
G1 X117.832 Y104.804 E15.08587
G1 X117.829 Y104.832 E15.08657
G1 X117.538 Y107.139 E15.14457
G1 X117.538 Y108.692 E15.18331
G1 X118.962 Y108.692 E15.21884
G0 F3600 X118.962 Y109.192
G0 X119.39 Y109.12
G0 X119.462 Y104.789
G0 X118.962 Y104.789
G1 F1800 X118.962 Y103.301 E15.25595
G1 X117.474 Y103.301 E15.29307
G1 X117.474 Y104.789 E15.33019
G1 X117.832 Y104.789 E15.33209
G1 X118.676 Y104.789 E15.33288
G1 X118.962 Y104.789 E15.33554
G0 F3600 X119.462 Y104.789
G0 X119.39 Y102.873
G0 X117.046 Y102.873
G0 X115.133 Y104.313
G0 X114.633 Y104.313
G1 F1800 X114.073 Y103.058 E15.36982
G1 X113.072 Y102.157 E15.40341
G1 X113.052 Y102.139 E15.40408
G1 X111.887 Y101.761 E15.43464
G1 X113.052 Y101.761 E15.44817
G1 X113.08 Y101.761 E15.44885
G1 X143.082 Y101.762 E16.19725
G1 X143.236 Y101.762 E16.2011
G1 X143.3 Y101.827 E16.20337
G1 X143.3 Y101.981 E16.20721
G1 X143.299 Y109.8 E16.40226
G1 X114.204 Y109.8 E17.12804
G1 X114.19 Y109.822 E17.12869
G1 X109.057 Y109.822 E17.25673
G1 X106.267 Y104.988 E17.39596
G1 X108.125 Y101.761 E17.48885
G1 X109.814 Y101.761 E17.53098
G1 X110.379 Y101.761 E17.54507
G1 X111.305 Y101.761 E17.56817
G1 X110.379 Y101.858 E17.57107
G1 X109.89 Y102.14 E17.58
G1 X109.189 Y102.545 E17.60019
G1 X108.381 Y103.657 E17.63448
G1 X108.096 Y105 E17.66873
G1 X108.381 Y106.343 E17.70298
G1 X109.189 Y107.455 E17.73726
G1 X110.379 Y108.142 E17.77154
G1 X111.745 Y108.286 E17.8058
G1 X113.052 Y107.861 E17.84009
G1 X114.073 Y106.942 E17.87435
G1 X114.633 Y105.687 E17.90864
G1 X114.633 Y104.313 E17.94291
G0 F3600 X115.212 Y104.464
;TYPE:SKIN
G1 F1800 X117.057 Y106.309 E18.008
G0 X117.127 Y106.379
G0 F3600 X117.12 Y105.807
G1 F1800 X114.978 Y103.664 E18.08358
G0 X114.908 Y103.594
G0 F3600 X114.786 Y102.341
G1 F1800 X116.893 Y104.448 E18.15791
G0 X116.963 Y104.518
G0 F3600 X116.893 Y105.013
G1 F1800 X114.221 Y102.341 E18.25217
G0 X114.151 Y102.271
G0 F3600 X115.352 Y102.341
G1 F1800 X116.893 Y103.882 E18.30654
G0 X116.963 Y103.952
G0 F3600 X116.893 Y103.316
G1 F1800 X115.918 Y102.341 E18.34093
G0 X115.848 Y102.271
G0 F3600 X116.688 Y102.546
G1 F1800 X117.238 Y102.53 E18.35483
G1 X117.804 Y102.53 E18.36821
G1 X118.369 Y102.53 E18.38156
