;FLAVOR:RepRap
;TIME:5009
;Generated with Cura_SteamEngine 2.3.1
G21 ; set units to millimeters
G90 ; use absolute positioning
M82 ; absolute extrusion mode
G28 W ; home all without mesh bed level
G80 ; mesh bed leveling
M104 S210 ; set extruder temp
M140 S55 ; set bed temp
M190 S55 ; wait for bed temp
M109 S210 ; wait for extruder temp
G92 E0.0 ; reset extruder distance position
G1 Y-3.0 F1000.0 ; go outside print area
G1 X60.0 E9.0 F1000.0 ; intro line
G1 X100.0 E21.5 F1000.0 ; intro line
G92 E0.0 ; reset extruder distance position
;LAYER_COUNT:150
;LAYER:0
M107
G1 F2100 E-0.8
G0 F3600 X105.738 Y89.712 Z.15
;TYPE:SKIRT
G1 F2100 E0
G1 F1800 X106.11 Y89.325 E0.01339
G1 X106.536 Y88.999 E0.02677
G1 X107.005 Y88.739 E0.04015
G1 X107.507 Y88.551 E0.05352
G1 X108.032 Y88.441 E0.0669
G1 X108.51 Y88.409 E0.07885
G1 X133.491 Y88.41 E0.702
G1 X134.026 Y88.45 E0.71539
G1 X134.549 Y88.569 E0.72877
G1 X135.048 Y88.764 E0.74213
G1 X135.513 Y89.032 E0.75552
G1 X135.933 Y89.365 E0.76889
G1 X136.281 Y89.735 E0.78156
G1 X139.404 Y93.565 E0.90484
G1 X143.088 Y97.628 E1.04165
G1 X144.955 Y99.521 E1.10797
G1 X148.992 Y103.278 E1.24554
G1 X151.315 Y105.254 E1.32161
G1 X151.696 Y105.631 E1.33498
G1 X152.018 Y106.061 E1.34838
G1 X152.271 Y106.533 E1.36174
G1 X152.452 Y107.038 E1.37513
G1 X152.569 Y107.692 E1.3917
G1 X153.069 Y113.596 E1.5395
G1 X153.082 Y113.893 E1.54692
G1 X153.09 Y117.984 E1.64897
G1 X153.051 Y118.519 E1.66235
G1 X152.933 Y119.042 E1.67572
G1 X152.739 Y119.542 E1.6891
G1 X152.472 Y120.007 E1.70248
G1 X152.14 Y120.428 E1.71585
G1 X151.748 Y120.795 E1.72925
G1 X151.307 Y121.099 E1.74261
G1 X150.825 Y121.334 E1.75598
G1 X150.314 Y121.496 E1.76936
G1 X149.784 Y121.579 E1.78274
G1 X149.49 Y121.591 E1.79008
G1 X100.509 Y121.591 E3.01191
G1 X99.974 Y121.551 E3.0253
G1 X99.451 Y121.432 E3.03868
G1 X98.952 Y121.237 E3.05204
G1 X98.487 Y120.969 E3.06543
G1 X98.067 Y120.636 E3.0788
G1 X97.701 Y120.244 E3.09218
G1 X97.398 Y119.802 E3.10555
G1 X97.163 Y119.319 E3.11894
G1 X97.003 Y118.808 E3.1323
G1 X96.92 Y118.278 E3.14568
G1 X96.909 Y117.991 E3.15285
G1 X96.91 Y108.003 E3.402
G1 X96.95 Y107.468 E3.41538
G1 X97.069 Y106.945 E3.42876
G1 X97.264 Y106.446 E3.44213
G1 X97.419 Y106.158 E3.45029
G1 X98.897 Y103.682 E3.52222
G1 X101.499 Y98.861 E3.65888
G1 X103.83 Y93.89 E3.79583
G1 X105.186 Y90.627 E3.88398
G1 X105.428 Y90.149 E3.89734
G1 X105.738 Y89.712 E3.91071
G0 F3600 X106.084 Y89.923
G1 F1800 X106.443 Y89.567 E3.92332
G1 X106.853 Y89.271 E3.93593
G1 X107.305 Y89.045 E3.94854
G1 X107.787 Y88.892 E3.96116
G1 X108.51 Y88.809 E3.97931
G1 X133.491 Y88.81 E4.60246
G1 X133.995 Y88.85 E4.61507
G1 X134.487 Y88.969 E4.6277
G1 X134.953 Y89.164 E4.6403
G1 X135.383 Y89.429 E4.6529
G1 X135.766 Y89.76 E4.66553
G1 X135.971 Y89.988 E4.67318
G1 X139.098 Y93.824 E4.79663
G1 X142.801 Y97.908 E4.93415
G1 X144.669 Y99.801 E5.00049
G1 X148.732 Y103.582 E5.13894
G1 X151.056 Y105.559 E5.21505
G1 X151.414 Y105.916 E5.22766
G1 X151.711 Y106.325 E5.24027
G1 X151.94 Y106.776 E5.25289
G1 X152.095 Y107.257 E5.2655
G1 X152.171 Y107.726 E5.27735
G1 X152.671 Y113.63 E5.42515
G1 X152.682 Y113.894 E5.43174
G1 X152.69 Y117.985 E5.53379
G1 X152.651 Y118.489 E5.5464
G1 X152.533 Y118.98 E5.559
G1 X152.339 Y119.447 E5.57161
G1 X152.074 Y119.878 E5.58423
G1 X151.745 Y120.261 E5.59683
G1 X151.359 Y120.588 E5.60945
G1 X150.927 Y120.85 E5.62205
G1 X150.459 Y121.041 E5.63466
G1 X149.966 Y121.155 E5.64728
G1 X149.49 Y121.191 E5.65919
G1 X100.509 Y121.191 E6.88103
G1 X100.005 Y121.151 E6.89364
G1 X99.514 Y121.032 E6.90624
G1 X99.047 Y120.838 E6.91886
G1 X98.617 Y120.572 E6.93147
G1 X98.234 Y120.242 E6.94408
G1 X97.908 Y119.855 E6.9567
G1 X97.647 Y119.422 E6.96931
G1 X97.457 Y118.954 E6.98191
G1 X97.344 Y118.461 E6.99453
G1 X97.309 Y117.991 E7.00629
G1 X97.31 Y108.003 E7.25544
G1 X97.35 Y107.499 E7.26805
G1 X97.469 Y107.007 E7.28068
G1 X97.762 Y106.363 E7.29833
G1 X99.249 Y103.871 E7.37072
G1 X101.864 Y99.028 E7.50801
G1 X104.187 Y94.073 E7.64452
G1 X105.555 Y90.781 E7.73345
G1 X105.785 Y90.331 E7.74606
G1 X106.084 Y89.923 E7.75868
G1 F2100 E6.95868
G0 F3600 X107.835 Y92.628
G0 X109.128 Y92.628
G0 X109.17 Y92.67
G0 X109.1 Y92.6
;TYPE:WALL-INNER
G1 F2100 E7.75868
G1 F1800 X132.9 Y92.6 E8.35237
G1 X132.9 Y108.6 E8.75149
G1 X148.4 Y108.6 E9.13814
G1 X148.4 Y114.6 E9.28781
G1 X148.9 Y114.6 E9.30028
G1 X148.9 Y117.4 E9.37013
G1 X101.1 Y117.4 E10.56251
G1 X101.1 Y108.6 E10.78202
G1 X109.1 Y108.6 E10.98158
G1 X109.1 Y92.6 E11.3807
G0 F3600 X108.7 Y92.2
;TYPE:WALL-OUTER
G1 F1800 X133.3 Y92.2 E11.99435
G1 X133.3 Y108.2 E12.39348
G1 X148.8 Y108.2 E12.78013
G1 X148.8 Y114.2 E12.9298
G1 X149.3 Y114.2 E12.94227
G1 X149.3 Y117.8 E13.03207
G1 X100.7 Y117.8 E14.2444
G1 X100.7 Y108.2 E14.48388
G1 X108.7 Y108.2 E14.68344
G1 X108.7 Y92.2 E15.08256
G0 F3600 X109.17 Y92.67
G0 X109.279 Y92.874
;TYPE:SKIN
G1 F1800 X133.624 Y117.219 E15.94139
G0 X133.694 Y117.289
G0 F3600 X134.189 Y117.219
G1 F1800 X109.75 Y92.78 E16.80355
G0 X109.68 Y92.71
G0 F3600 X110.316 Y92.78
G1 F1800 X134.755 Y117.219 E17.6657
G0 X134.825 Y117.289
G0 F3600 X135.321 Y117.219
G1 F1800 X110.882 Y92.78 E18.52785
G0 X110.812 Y92.71
G0 F3600 X111.447 Y92.78
G1 F1800 X135.886 Y117.219 E19.39
G0 X135.956 Y117.289
G0 F3600 X136.452 Y117.219
G1 F1800 X112.013 Y92.78 E20.25215
G0 X111.943 Y92.71
G0 F3600 X112.579 Y92.78
G1 F1800 X137.018 Y117.219 E21.1143
G0 X137.088 Y117.289
G0 F3600 X137.583 Y117.219
G1 F1800 X113.144 Y92.78 E21.97646
G0 X113.074 Y92.71
G0 F3600 X113.71 Y92.78
G1 F1800 X138.149 Y117.219 E22.83861
G0 X138.219 Y117.289
G0 F3600 X138.715 Y117.219
G1 F1800 X114.276 Y92.78 E23.70076
G0 X114.206 Y92.71
G0 F3600 X114.841 Y92.78
G1 F1800 X139.28 Y117.219 E24.56291
G0 X139.35 Y117.289
G0 F3600 X139.846 Y117.219
G1 F1800 X115.407 Y92.78 E25.42506
G0 X115.337 Y92.71
G0 F3600 X115.973 Y92.78
G1 F1800 X140.412 Y117.219 E26.28721
G0 X140.482 Y117.289
G0 F3600 X140.978 Y117.219
G1 F1800 X116.538 Y92.78 E27.14938
G0 X116.468 Y92.71
G0 F3600 X117.104 Y92.78
G1 F1800 X132.719 Y108.395 E27.70024
G0 X132.789 Y108.465
G0 F3600 X133.104 Y108.779
G1 F1800 X141.543 Y117.219 E27.99797
G0 X141.613 Y117.289
G0 F3600 X142.109 Y117.219
G1 F1800 X133.67 Y108.779 E28.2957
G0 X133.6 Y108.709
G0 F3600 X134.235 Y108.779
G1 F1800 X142.675 Y117.219 E28.59344
G0 X142.745 Y117.289
G0 F3600 X143.24 Y117.219
G1 F1800 X134.801 Y108.779 E28.89117
G0 X134.731 Y108.709
G0 F3600 X135.367 Y108.779
G1 F1800 X143.806 Y117.219 E29.18889
G0 X143.876 Y117.289
G0 F3600 X144.372 Y117.219
G1 F1800 X135.932 Y108.779 E29.48664
G0 X135.862 Y108.709
G0 F3600 X136.498 Y108.779
G1 F1800 X144.937 Y117.219 E29.78436
G0 X145.007 Y117.289
G0 F3600 X145.503 Y117.219
G1 F1800 X137.064 Y108.779 E30.08209
G0 X136.994 Y108.709
G0 F3600 X137.629 Y108.779
G1 F1800 X146.069 Y117.219 E30.37983
G0 X146.139 Y117.289
G0 F3600 X146.634 Y117.219
G1 F1800 X138.195 Y108.779 E30.67756
G0 X138.125 Y108.709
G0 F3600 X138.761 Y108.779
G1 F1800 X147.2 Y117.219 E30.97529
G0 X147.27 Y117.289
G0 F3600 X147.766 Y117.219
G1 F1800 X139.326 Y108.779 E31.27303
G0 X139.256 Y108.709
G0 F3600 X139.892 Y108.779
G1 F1800 X148.331 Y117.219 E31.57076
G0 X148.401 Y117.289
G0 F3600 X148.719 Y117.041
G1 F1800 X140.458 Y108.779 E31.8622
G0 X140.388 Y108.709
G0 F3600 X141.023 Y108.779
G1 F1800 X148.719 Y116.475 E32.1337
G0 X148.789 Y116.545
G0 F3600 X148.719 Y115.909
G1 F1800 X141.589 Y108.779 E32.38523
G0 X141.519 Y108.709
G0 F3600 X142.155 Y108.779
G1 F1800 X148.719 Y115.343 E32.61679
G0 X148.789 Y115.413
G0 F3600 X148.219 Y114.278
G1 F1800 X142.721 Y108.779 E32.81077
G0 X142.651 Y108.709
G0 F3600 X143.286 Y108.779
G1 F1800 X148.219 Y113.712 E32.98479
G0 X148.289 Y113.782
G0 F3600 X148.219 Y113.146
G1 F1800 X143.852 Y108.779 E33.13885
G0 X143.782 Y108.709
G0 F3600 X144.418 Y108.779
G1 F1800 X148.219 Y112.581 E33.27296
G0 X148.289 Y112.651
G0 F3600 X148.219 Y112.015
G1 F1800 X144.983 Y108.779 E33.38712
G0 X144.913 Y108.709
G0 F3600 X145.549 Y108.779
G1 F1800 X148.219 Y111.449 E33.48131
G0 X148.289 Y111.519
G0 F3600 X148.219 Y110.884
G1 F1800 X146.115 Y108.779 E33.55555
G0 X146.045 Y108.709
G0 F3600 X146.68 Y108.779
G1 F1800 X148.219 Y110.318 E33.60984
G0 X148.289 Y110.388
G0 F3600 X148.219 Y109.752
G1 F1800 X147.246 Y108.779 E33.64417
G0 X147.176 Y108.709
G0 F3600 X147.812 Y108.779
G1 F1800 X148.219 Y109.187 E33.65854
G0 F3600 X132.872 Y108.628
G0 X132.719 Y107.829
G1 F1800 X117.67 Y92.78 E34.18944
G0 X117.6 Y92.71
G0 F3600 X118.236 Y92.78
G1 F1800 X132.719 Y107.263 E34.70036
G0 X132.789 Y107.333
G0 F3600 X132.719 Y106.698
G1 F1800 X118.801 Y92.78 E35.19136
G0 X118.731 Y92.71
G0 F3600 X119.367 Y92.78
G1 F1800 X132.719 Y106.132 E35.66239
G0 X132.789 Y106.202
G0 F3600 X132.719 Y105.566
G1 F1800 X119.933 Y92.78 E36.11345
G0 X119.863 Y92.71
G0 F3600 X120.498 Y92.78
G1 F1800 X132.719 Y105.001 E36.54458
G0 X132.789 Y105.071
G0 F3600 X132.719 Y104.435
G1 F1800 X121.064 Y92.78 E36.95574
G0 X120.994 Y92.71
G0 F3600 X121.63 Y92.78
G1 F1800 X132.719 Y103.869 E37.34693
G0 X132.789 Y103.939
G0 F3600 X132.719 Y103.304
G1 F1800 X122.195 Y92.78 E37.71819
G0 X122.125 Y92.71
G0 F3600 X122.761 Y92.78
G1 F1800 X132.719 Y102.738 E38.06949
G0 X132.789 Y102.808
G0 F3600 X132.719 Y102.172
G1 F1800 X123.327 Y92.78 E38.40082
G0 X123.257 Y92.71
G0 F3600 X123.892 Y92.78
G1 F1800 X132.719 Y101.607 E38.71221
G0 X132.789 Y101.677
G0 F3600 X132.719 Y101.041
G1 F1800 X124.458 Y92.78 E39.00364
G0 X124.388 Y92.71
G0 F3600 X125.024 Y92.78
G1 F1800 X132.719 Y100.475 E39.27511
G0 X132.789 Y100.545
G0 F3600 X132.719 Y99.909
G1 F1800 X125.589 Y92.78 E39.52662
G0 X125.519 Y92.71
G0 F3600 X126.155 Y92.78
G1 F1800 X132.719 Y99.344 E39.75818
G0 X132.789 Y99.414
G0 F3600 X132.719 Y98.778
G1 F1800 X126.721 Y92.78 E39.96978
G0 X126.651 Y92.71
G0 F3600 X127.286 Y92.78
G1 F1800 X132.719 Y98.212 E40.16142
G0 X132.789 Y98.282
G0 F3600 X132.719 Y97.647
G1 F1800 X127.852 Y92.78 E40.33312
G0 X127.782 Y92.71
G0 F3600 X128.418 Y92.78
G1 F1800 X132.719 Y97.081 E40.48485
G0 X132.789 Y97.151
G0 F3600 X132.719 Y96.515
G1 F1800 X128.984 Y92.78 E40.61661
G0 X128.914 Y92.71
G0 F3600 X129.549 Y92.78
G1 F1800 X132.719 Y95.95 E40.72844
G0 X132.789 Y96.02
G0 F3600 X132.719 Y95.384
G1 F1800 X130.115 Y92.78 E40.8203
G0 X130.045 Y92.71
G0 F3600 X130.681 Y92.78
G1 F1800 X132.719 Y94.818 E40.8922
G0 X132.789 Y94.888
G0 F3600 X132.719 Y94.253
G1 F1800 X131.246 Y92.78 E40.94416
G0 X131.176 Y92.71
G0 F3600 X131.812 Y92.78
G1 F1800 X132.719 Y93.687 E40.97616
G0 X132.789 Y93.757
G0 F3600 X132.719 Y93.121
G1 F1800 X132.378 Y92.78 E40.98819
G0 F3600 X109.279 Y93.439
G1 F1800 X133.058 Y117.219 E41.82708
G0 X133.128 Y117.289
G0 F3600 X132.492 Y117.219
G1 F1800 X109.279 Y94.005 E42.646
G0 X109.209 Y93.935
G0 F3600 X109.279 Y94.571
G1 F1800 X131.927 Y117.219 E43.44496
G0 X131.997 Y117.289
G0 F3600 X131.361 Y117.219
G1 F1800 X109.279 Y95.136 E44.22398
G0 X109.209 Y95.066
G0 F3600 X109.279 Y95.702
G1 F1800 X130.795 Y117.219 E44.98304
G0 X130.865 Y117.289
G0 F3600 X130.229 Y117.219
G1 F1800 X109.279 Y96.268 E45.72212
G0 X109.209 Y96.198
G0 F3600 X109.279 Y96.834
G1 F1800 X129.664 Y117.219 E46.44126
G0 X129.734 Y117.289
G0 F3600 X129.098 Y117.219
G1 F1800 X109.279 Y97.399 E47.14045
G0 X109.209 Y97.329
G0 F3600 X109.279 Y97.965
G1 F1800 X128.532 Y117.219 E47.81966
G0 X128.602 Y117.289
G0 F3600 X127.967 Y117.219
G1 F1800 X109.279 Y98.531 E48.47893
G0 X109.209 Y98.461
G0 F3600 X109.279 Y99.096
G1 F1800 X127.401 Y117.219 E49.11825
G0 X127.471 Y117.289
G0 F3600 X126.835 Y117.219
G1 F1800 X109.279 Y99.662 E49.73761
G0 X109.209 Y99.592
G0 F3600 X109.279 Y100.228
G1 F1800 X126.27 Y117.219 E50.33701
G0 X126.34 Y117.289
G0 F3600 X125.704 Y117.219
G1 F1800 X109.279 Y100.793 E50.91646
G0 X109.209 Y100.723
G0 F3600 X109.279 Y101.359
G1 F1800 X125.138 Y117.219 E51.47595
G0 X125.208 Y117.289
G0 F3600 X124.573 Y117.219
G1 F1800 X109.279 Y101.925 E52.01549
G0 X109.209 Y101.855
G0 F3600 X109.279 Y102.49
G1 F1800 X124.007 Y117.219 E52.53508
G0 X124.077 Y117.289
G0 F3600 X123.441 Y117.219
G1 F1800 X109.279 Y103.056 E53.0347
G0 X109.209 Y102.986
G0 F3600 X109.279 Y103.622
G1 F1800 X122.876 Y117.219 E53.51437
G0 X122.946 Y117.289
G0 F3600 X122.31 Y117.219
G1 F1800 X109.279 Y104.187 E53.97409
G0 X109.209 Y104.117
G0 F3600 X109.279 Y104.753
G1 F1800 X121.744 Y117.219 E54.41384
G0 X121.814 Y117.289
G0 F3600 X121.179 Y117.219
G1 F1800 X109.279 Y105.319 E54.83365
G0 X109.209 Y105.249
G0 F3600 X109.279 Y105.884
G1 F1800 X120.613 Y117.219 E55.2335
G0 X120.683 Y117.289
G0 F3600 X120.047 Y117.219
G1 F1800 X109.279 Y106.45 E55.61339
G0 X109.209 Y106.38
G0 F3600 X109.279 Y107.016
G1 F1800 X119.481 Y117.219 E55.97331
G0 X119.551 Y117.289
G0 F3600 X118.916 Y117.219
G1 F1800 X109.279 Y107.582 E56.31328
G0 X109.209 Y107.512
G0 F3600 X109.279 Y108.147
G1 F1800 X118.35 Y117.219 E56.6333
G0 X118.42 Y117.289
G0 F3600 X117.784 Y117.219
G1 F1800 X109.279 Y108.713 E56.93336
G0 X109.209 Y108.643
G0 F3600 X108.779 Y108.779
G1 F1800 X117.219 Y117.219 E57.2311
G0 X117.289 Y117.289
G0 F3600 X116.653 Y117.219
G1 F1800 X108.214 Y108.779 E57.52883
G0 X108.144 Y108.709
G0 F3600 X107.648 Y108.779
G1 F1800 X116.087 Y117.219 E57.82655
G0 X116.157 Y117.289
G0 F3600 X115.522 Y117.219
G1 F1800 X107.082 Y108.779 E58.1243
G0 X107.012 Y108.709
G0 F3600 X106.517 Y108.779
G1 F1800 X114.956 Y117.219 E58.42202
G0 X115.026 Y117.289
G0 F3600 X114.39 Y117.219
G1 F1800 X105.951 Y108.779 E58.71975
G0 X105.881 Y108.709
G0 F3600 X105.385 Y108.779
G1 F1800 X113.825 Y117.219 E59.01749
G0 X113.895 Y117.289
G0 F3600 X113.259 Y117.219
G1 F1800 X104.82 Y108.779 E59.31522
G0 X104.75 Y108.709
G0 F3600 X104.254 Y108.779
G1 F1800 X112.693 Y117.219 E59.61295
G0 X112.763 Y117.289
G0 F3600 X112.128 Y117.219
G1 F1800 X103.688 Y108.779 E59.91069
G0 X103.618 Y108.709
G0 F3600 X103.123 Y108.779
G1 F1800 X111.562 Y117.219 E60.20842
G0 X111.632 Y117.289
G0 F3600 X110.996 Y117.219
G1 F1800 X102.557 Y108.779 E60.50614
G0 X102.487 Y108.709
G0 F3600 X101.991 Y108.779
G1 F1800 X110.43 Y117.219 E60.80387
G0 X110.5 Y117.289
G0 F3600 X109.865 Y117.219
G1 F1800 X101.425 Y108.779 E61.10161
G0 X101.355 Y108.709
G0 F3600 X101.279 Y109.199
G1 F1800 X109.299 Y117.219 E61.38454
G0 X109.369 Y117.289
G0 F3600 X108.733 Y117.219
G1 F1800 X101.279 Y109.764 E61.64752
G0 X101.209 Y109.694
G0 F3600 X101.279 Y110.33
G1 F1800 X108.168 Y117.219 E61.89055
G0 X108.238 Y117.289
G0 F3600 X107.602 Y117.219
G1 F1800 X101.279 Y110.896 E62.11361
G0 X101.209 Y110.826
G0 F3600 X101.279 Y111.461
G1 F1800 X107.036 Y117.219 E62.31672
G0 X107.106 Y117.289
G0 F3600 X106.471 Y117.219
G1 F1800 X101.279 Y112.027 E62.49988
G0 X101.209 Y111.957
G0 F3600 X101.279 Y112.593
G1 F1800 X105.905 Y117.219 E62.66307
G0 X105.975 Y117.289
G0 F3600 X105.339 Y117.219
G1 F1800 X101.279 Y113.159 E62.8063
G0 X101.209 Y113.089
G0 F3600 X101.279 Y113.724
G1 F1800 X104.774 Y117.219 E62.9296
G0 X104.844 Y117.289
G0 F3600 X104.208 Y117.219
G1 F1800 X101.279 Y114.29 E63.03293
G0 X101.209 Y114.22
G0 F3600 X101.279 Y114.856
G1 F1800 X103.642 Y117.219 E63.11629
G0 X103.712 Y117.289
G0 F3600 X103.077 Y117.219
G1 F1800 X101.279 Y115.421 E63.17972
G0 X101.209 Y115.351
G0 F3600 X101.279 Y115.987
G1 F1800 X102.511 Y117.219 E63.22318
G0 X102.581 Y117.289
G0 F3600 X101.945 Y117.219
G1 F1800 X101.279 Y116.553 E63.24667
G0 X101.209 Y116.483
G0 F3600 X101.279 Y117.118
G1 F1800 X101.38 Y117.219 E63.25024
G0 F3600 X101.5 Y117
;TIME_ELAPSED:97.374016
;LAYER:1
M106 S255
G0 F5400 X101.1 Y117.4 Z.25
;TYPE:WALL-INNER
G1 F2700 X101.1 Y108.6 E63.39658
G1 X109.1 Y108.6 E63.52962
G1 X109.1 Y92.6 E63.7957
G1 X132.9 Y92.6 E64.1915
G1 X132.9 Y108.6 E64.45758
G1 X148.4 Y108.6 E64.71535
G1 X148.4 Y114.6 E64.81513
G1 X148.9 Y114.6 E64.82344
G1 X148.9 Y117.4 E64.87001
G1 X101.1 Y117.4 E65.66492
G0 F5400 X100.7 Y117.8
;TYPE:WALL-OUTER
G1 F1800 X100.7 Y108.2 E65.82457
G1 X108.7 Y108.2 E65.95761
G1 X108.7 Y92.2 E66.22369
G1 X133.3 Y92.2 E66.63279
G1 X133.3 Y108.2 E66.89887
G1 X148.8 Y108.2 E67.15664
G1 X148.8 Y114.2 E67.25642
G1 X149.3 Y114.2 E67.26473
G1 X149.3 Y117.8 E67.3246
G1 X100.7 Y117.8 E68.13282
G0 F5400 X101.17 Y117.33
G0 X101.279 Y117.074
;TYPE:SKIN
