;FLAVOR:RepRap
;TIME:6354
;Generated with Cura_SteamEngine 2.3.1
G21 ; set units to millimeters
G90 ; use absolute positioning
M82 ; absolute extrusion mode
G28 W ; home all without mesh bed level
G80 ; mesh bed leveling
M104 S215 ; set extruder temp
M140 S55 ; set bed temp
M190 S55 ; wait for bed temp
M109 S215 ; wait for extruder temp
G92 E0.0 ; reset extruder distance position
G1 Y-3.0 F1000.0 ; go outside print area
G1 X60.0 E9.0 F1000.0 ; intro line
G1 X100.0 E21.5 F1000.0 ; intro line
G92 E0.0 ; reset extruder distance position
;LAYER_COUNT:220
;LAYER:0
M107
G1 F2100 E-0.8
G0 F3600 X113.032 Y78.487 Z.15
;TYPE:SKIRT
G1 F2100 E0
G1 F1800 X113.365 Y78.067 E0.01337
G1 X113.757 Y77.701 E0.02675
G1 X114.199 Y77.398 E0.04012
G1 X114.682 Y77.163 E0.05352
G1 X115.193 Y77.003 E0.06687
G1 X115.723 Y76.92 E0.08025
G1 X116.01 Y76.909 E0.08742
G1 X133.991 Y76.91 E0.53596
G1 X134.526 Y76.95 E0.54934
G1 X135.049 Y77.069 E0.56272
G1 X135.548 Y77.264 E0.57608
G1 X136.013 Y77.532 E0.58947
G1 X136.433 Y77.865 E0.60284
G1 X136.799 Y78.257 E0.61622
G1 X137.103 Y78.699 E0.6296
G1 X137.337 Y79.182 E0.64299
G1 X137.497 Y79.694 E0.65637
G1 X137.58 Y80.223 E0.66973
G1 X137.591 Y80.51 E0.67689
G1 X137.59 Y127.495 E1.84894
G1 X137.55 Y128.03 E1.86232
G1 X137.431 Y128.553 E1.8757
G1 X137.236 Y129.052 E1.88907
G1 X136.968 Y129.517 E1.90245
G1 X136.547 Y130.029 E1.91899
G1 X135.06 Y131.53 E1.97169
G1 X135.012 Y131.577 E1.97337
G1 X134.511 Y132.064 E1.9908
G1 X134.1 Y132.409 E2.00418
G1 X133.642 Y132.688 E2.01756
G1 X133.148 Y132.896 E2.03093
G1 X132.628 Y133.028 E2.04432
G1 X132.004 Y133.083 E2.05994
G1 X118.007 Y133.09 E2.4091
G1 X117.472 Y133.05 E2.42248
G1 X116.949 Y132.932 E2.43586
G1 X116.449 Y132.737 E2.44924
G1 X115.984 Y132.469 E2.46263
G1 X115.472 Y132.048 E2.47917
G1 X113.948 Y130.539 E2.53267
G1 X113.898 Y130.489 E2.53443
G1 X113.427 Y130.004 E2.55129
G1 X113.083 Y129.593 E2.56466
G1 X112.805 Y129.135 E2.57803
G1 X112.597 Y128.64 E2.59142
G1 X112.465 Y128.12 E2.60481
G1 X112.41 Y127.496 E2.62043
G1 X112.41 Y80.509 E3.79253
G1 X112.45 Y79.974 E3.80591
G1 X112.569 Y79.451 E3.81929
G1 X112.764 Y78.952 E3.83265
G1 X113.032 Y78.487 E3.84604
G0 F3600 X113.429 Y78.617
G1 F1800 X113.759 Y78.234 E3.85865
G1 X114.146 Y77.908 E3.87128
G1 X114.579 Y77.647 E3.88389
G1 X115.047 Y77.457 E3.89649
G1 X115.54 Y77.344 E3.9091
G1 X116.01 Y77.309 E3.92086
G1 X133.991 Y77.31 E4.3694
G1 X134.495 Y77.35 E4.38201
G1 X134.987 Y77.469 E4.39464
G1 X135.453 Y77.664 E4.40724
G1 X135.883 Y77.929 E4.41984
G1 X136.266 Y78.26 E4.43247
G1 X136.592 Y78.646 E4.44507
G1 X136.853 Y79.079 E4.45768
G1 X137.043 Y79.548 E4.4703
G1 X137.156 Y80.04 E4.4829
G1 X137.191 Y80.51 E4.49465
G1 X137.19 Y127.495 E5.6667
G1 X137.15 Y127.999 E5.67931
G1 X137.031 Y128.49 E5.69191
G1 X136.836 Y128.957 E5.70454
G1 X136.571 Y129.387 E5.71714
G1 X136.263 Y129.747 E5.72895
G1 X134.776 Y131.248 E5.78166
G1 X134.733 Y131.291 E5.78318
G1 X134.232 Y131.778 E5.80061
G1 X133.843 Y132.1 E5.8132
G1 X133.408 Y132.358 E5.82582
G1 X132.938 Y132.543 E5.83842
G1 X132.444 Y132.652 E5.85104
G1 X132.004 Y132.683 E5.86204
G1 X118.007 Y132.69 E6.2112
G1 X117.503 Y132.65 E6.22381
G1 X117.011 Y132.532 E6.23643
G1 X116.544 Y132.337 E6.24905
G1 X116.114 Y132.072 E6.26165
G1 X115.753 Y131.764 E6.27349
G1 X114.229 Y130.255 E6.32699
G1 X114.185 Y130.21 E6.32856
G1 X113.714 Y129.725 E6.34543
G1 X113.392 Y129.336 E6.35802
G1 X113.135 Y128.901 E6.37063
G1 X112.949 Y128.43 E6.38326
G1 X112.84 Y127.937 E6.39585
G1 X112.81 Y127.496 E6.40688
G1 X112.81 Y80.509 E7.57897
G1 X112.85 Y80.005 E7.59159
G1 X112.969 Y79.514 E7.60419
G1 X113.163 Y79.047 E7.6168
G1 X113.429 Y78.617 E7.62942
G1 F2100 E6.82942
G0 F3600 X115.335 Y81.128
G0 X116.628 Y81.128
G0 X116.67 Y81.17
G0 X116.6 Y81.1
;TYPE:WALL-INNER
G1 F2100 E7.62942
G1 F1800 X133.4 Y81.1 E8.04849
G1 X133.4 Y121.699 E9.06124
G1 X132.088 Y121.699 E9.09397
G1 X131.393 Y120.742 E9.12347
G1 X130.056 Y119.539 E9.16834
G1 X128.499 Y118.64 E9.21319
G1 X126.789 Y118.084 E9.25804
G1 X125 Y117.897 E9.30291
G1 X123.211 Y118.084 E9.34778
G1 X121.501 Y118.64 E9.39263
G1 X119.944 Y119.539 E9.43748
G1 X118.607 Y120.742 E9.48235
G1 X117.912 Y121.699 E9.51185
G1 X116.6 Y121.699 E9.54458
G1 X116.6 Y81.1 E10.55733
G0 F3600 X116.67 Y81.17
G0 X122.518 Y94.925
G0 X122.558 Y95.016
G1 F1800 X121.471 Y95.644 E10.58864
G1 X120.54 Y96.483 E10.6199
G1 X119.802 Y97.498 E10.65121
G1 X119.291 Y98.646 E10.68255
G1 X119.03 Y99.873 E10.71385
G1 X119.03 Y101.128 E10.74515
G1 X119.291 Y102.355 E10.77645
G1 X119.802 Y103.503 E10.80779
G1 X120.54 Y104.518 E10.8391
G1 X121.472 Y105.357 E10.87038
G1 X122.556 Y105.983 E10.9016
G1 X123.746 Y106.368 E10.9328
G1 X124.999 Y106.501 E10.96423
G1 X126.247 Y106.372 E10.99553
G1 X127.441 Y105.985 E11.02684
G1 X128.528 Y105.357 E11.05816
G1 X129.46 Y104.518 E11.08944
G1 X130.198 Y103.503 E11.12074
G1 X130.709 Y102.355 E11.15209
G1 X130.97 Y101.128 E11.18338
G1 X130.97 Y99.873 E11.21469
G1 X130.709 Y98.646 E11.24598
G1 X130.198 Y97.498 E11.27733
G1 X129.463 Y96.486 E11.30853
G1 X128.534 Y95.649 E11.33972
G1 X127.448 Y95.02 E11.37102
G1 X126.254 Y94.631 E11.40235
G1 X125.001 Y94.497 E11.43378
G1 X123.759 Y94.625 E11.46493
G1 X122.558 Y95.016 E11.49644
G0 F3600 X122.722 Y95.383
;TYPE:WALL-OUTER
G1 F1800 X121.708 Y95.969 E11.52565
G1 X120.839 Y96.752 E11.55483
G1 X120.15 Y97.699 E11.58404
G1 X119.674 Y98.77 E11.61328
G1 X119.43 Y99.915 E11.64248
G1 X119.43 Y101.086 E11.67169
G1 X119.674 Y102.231 E11.7009
G1 X120.15 Y103.302 E11.73013
G1 X120.839 Y104.249 E11.75935
G1 X121.708 Y105.032 E11.78853
G1 X122.719 Y105.615 E11.81764
G1 X123.83 Y105.975 E11.84677
G1 X124.999 Y106.099 E11.87609
G1 X126.164 Y105.978 E11.90531
G1 X127.278 Y105.617 E11.93452
G1 X128.292 Y105.032 E11.96373
G1 X129.161 Y104.249 E11.9929
G1 X129.85 Y103.302 E12.02212
G1 X130.326 Y102.231 E12.05135
G1 X130.57 Y101.086 E12.08056
G1 X130.57 Y99.915 E12.10977
G1 X130.326 Y98.77 E12.13897
G1 X129.85 Y97.699 E12.16821
G1 X129.164 Y96.755 E12.19732
G1 X128.297 Y95.974 E12.22643
G1 X127.284 Y95.387 E12.25563
G1 X126.17 Y95.024 E12.28486
G1 X125 Y94.899 E12.31421
G1 X123.842 Y95.019 E12.34325
G1 X122.722 Y95.383 E12.37263
G0 F3600 X122.473 Y94.95
G0 X116.67 Y81.17
G0 X116.2 Y80.7
G1 F1800 X133.8 Y80.7 E12.81166
G1 X133.8 Y122.099 E13.84436
G1 X131.884 Y122.099 E13.89216
G1 X131.094 Y121.011 E13.9257
G1 X129.82 Y119.864 E13.96846
G1 X128.335 Y119.007 E14.01123
G1 X126.705 Y118.477 E14.05399
G1 X125 Y118.299 E14.09675
G1 X123.295 Y118.477 E14.13951
G1 X121.665 Y119.007 E14.18227
G1 X120.18 Y119.864 E14.22504
G1 X118.906 Y121.011 E14.2678
G1 X118.116 Y122.099 E14.30134
G1 X116.2 Y122.099 E14.34913
G1 X116.2 Y80.7 E15.38184
G0 F3600 X116.67 Y81.17
G0 X116.917 Y81.279
;TYPE:SKIN
G1 F1800 X133.219 Y97.581 E15.95693
G0 X133.289 Y97.651
G0 F3600 X133.219 Y98.147
G1 F1800 X116.779 Y81.706 E16.53692
G0 X116.709 Y81.636
G0 F3600 X116.779 Y82.272
G1 F1800 X133.219 Y98.712 E17.11688
G0 X133.289 Y98.782
G0 F3600 X133.219 Y99.278
G1 F1800 X116.779 Y82.838 E17.69685
G0 X116.709 Y82.768
G0 F3600 X116.779 Y83.403
G1 F1800 X133.219 Y99.844 E18.27683
G0 X133.289 Y99.914
G0 F3600 X133.219 Y100.409
G1 F1800 X130.464 Y97.654 E18.37402
G0 X130.394 Y97.584
G0 F3600 X130.891 Y98.647
G1 F1800 X133.219 Y100.975 E18.45615
G0 X133.289 Y101.045
G0 F3600 X133.219 Y101.541
G1 F1800 X131.044 Y99.366 E18.53288
G0 X130.974 Y99.296
G0 F3600 X131.149 Y100.036
G1 F1800 X133.219 Y102.106 E18.6059
G0 X133.289 Y102.176
G0 F3600 X133.219 Y102.672
G1 F1800 X131.149 Y100.602 E18.67893
G0 X131.079 Y100.532
G0 F3600 X131.144 Y101.163
G1 F1800 X133.219 Y103.238 E18.75213
G0 X133.289 Y103.308
G0 F3600 X133.219 Y103.803
G1 F1800 X131.045 Y101.63 E18.8288
G0 X130.975 Y101.56
G0 F3600 X130.946 Y102.096
G1 F1800 X133.219 Y104.369 E18.90899
G0 X133.289 Y104.439
G0 F3600 X133.219 Y104.935
G1 F1800 X130.823 Y102.538 E18.99353
G0 X130.753 Y102.468
G0 F3600 X130.649 Y102.93
G1 F1800 X133.219 Y105.501 E19.08421
G0 X133.289 Y105.571
G0 F3600 X133.219 Y106.066
G1 F1800 X130.475 Y103.322 E19.18102
G0 X130.405 Y103.252
G0 F3600 X130.28 Y103.693
G1 F1800 X133.219 Y106.632 E19.2847
G0 X133.289 Y106.702
G0 F3600 X133.219 Y107.198
G1 F1800 X130.042 Y104.021 E19.39677
G0 X129.972 Y103.951
G0 F3600 X129.804 Y104.348
G1 F1800 X133.219 Y107.763 E19.51725
G0 X133.289 Y107.833
G0 F3600 X133.219 Y108.329
G1 F1800 X129.56 Y104.67 E19.64633
G0 X129.49 Y104.6
G0 F3600 X129.262 Y104.938
G1 F1800 X133.219 Y108.895 E19.78592
G0 X133.289 Y108.965
G0 F3600 X133.219 Y109.46
G1 F1800 X128.964 Y105.206 E19.93601
G0 X128.894 Y105.136
G0 F3600 X128.667 Y105.474
G1 F1800 X133.219 Y110.026 E20.0966
G0 X133.289 Y110.096
G0 F3600 X133.219 Y110.592
G1 F1800 X128.315 Y105.687 E20.26962
G0 X128.245 Y105.617
G0 F3600 X127.956 Y105.894
G1 F1800 X133.219 Y111.157 E20.45528
G0 X133.289 Y111.227
G0 F3600 X133.219 Y111.723
G1 F1800 X127.598 Y106.102 E20.65358
G0 X127.528 Y106.032
G0 F3600 X127.187 Y106.256
G1 F1800 X133.219 Y112.289 E20.86639
G0 X133.289 Y112.359
G0 F3600 X133.219 Y112.854
G1 F1800 X126.76 Y106.395 E21.09425
G0 X126.69 Y106.325
G0 F3600 X126.333 Y106.534
G1 F1800 X133.219 Y113.42 E21.33717
G0 X133.289 Y113.49
G0 F3600 X133.219 Y113.986
G1 F1800 X125.829 Y106.596 E21.59787
G0 X125.759 Y106.526
G0 F3600 X125.316 Y106.649
G1 F1800 X133.219 Y114.552 E21.87667
G0 X133.289 Y114.622
G0 F3600 X133.219 Y115.117
G1 F1800 X124.758 Y106.656 E22.17516
G0 X124.688 Y106.586
G0 F3600 X124.125 Y106.589
G1 F1800 X133.219 Y115.683 E22.49597
G0 X133.289 Y115.753
G0 F3600 X133.219 Y116.249
G1 F1800 X123.424 Y106.453 E22.84154
G0 X123.354 Y106.383
G0 F3600 X122.587 Y106.182
G1 F1800 X133.219 Y116.814 E23.21661
G0 X133.289 Y116.884
G0 F3600 X133.219 Y117.38
G1 F1800 X121.14 Y105.3 E23.64275
G0 X121.07 Y105.23
G0 F3600 X120.209 Y104.37
G1 F1800 X116.779 Y100.94 E23.76375
G0 X116.709 Y100.87
G0 F3600 X116.779 Y101.505
G1 F1800 X133.219 Y117.946 E24.34373
G0 X133.289 Y118.016
G0 F3600 X133.219 Y118.511
G1 F1800 X116.779 Y102.071 E24.9237
G0 X116.709 Y102.001
G0 F3600 X116.779 Y102.637
G1 F1800 X133.219 Y119.077 E25.50366
G0 X133.289 Y119.147
G0 F3600 X133.219 Y119.643
G1 F1800 X116.779 Y103.202 E26.08365
G0 X116.709 Y103.132
G0 F3600 X116.779 Y103.768
G1 F1800 X133.219 Y120.208 E26.66361
G0 X133.289 Y120.278
G0 F3600 X133.219 Y120.774
G1 F1800 X116.779 Y104.334 E27.24358
G0 X116.709 Y104.264
G0 F3600 X116.779 Y104.899
G1 F1800 X133.219 Y121.34 E27.82356
G0 X133.289 Y121.41
G0 F3600 X132.832 Y121.519
G1 F1800 X116.779 Y105.465 E28.38989
G0 X116.709 Y105.395
G0 F3600 X116.779 Y106.031
G1 F1800 X130.109 Y119.361 E28.86014
G0 X130.179 Y119.431
G0 F3600 X128.771 Y118.588
G1 F1800 X116.779 Y106.597 E29.28317
G0 X116.709 Y106.527
G0 F3600 X116.779 Y107.162
G1 F1800 X127.858 Y118.241 E29.67402
G0 X127.928 Y118.311
G0 F3600 X127.019 Y117.968
G1 F1800 X116.779 Y107.728 E30.03526
G0 X116.709 Y107.658
G0 F3600 X116.779 Y108.294
G1 F1800 X126.34 Y117.855 E30.37255
G0 X126.41 Y117.925
G0 F3600 X125.709 Y117.789
G1 F1800 X116.779 Y108.859 E30.68758
G0 X116.709 Y108.789
G0 F3600 X116.779 Y109.425
G1 F1800 X125.077 Y117.724 E30.98033
G0 X125.147 Y117.794
G0 F3600 X124.551 Y117.762
G1 F1800 X116.779 Y109.991 E31.25449
G0 X116.709 Y109.921
G0 F3600 X116.779 Y110.556
G1 F1800 X124.038 Y117.816 E31.51059
G0 X124.108 Y117.886
G0 F3600 X123.526 Y117.869
G1 F1800 X116.779 Y111.122 E31.74861
G0 X116.709 Y111.052
G0 F3600 X116.779 Y111.688
G1 F1800 X123.04 Y117.948 E31.96946
G0 X123.11 Y118.018
G0 F3600 X122.613 Y118.088
G1 F1800 X116.779 Y112.253 E32.17529
G0 X116.709 Y112.183
G0 F3600 X116.779 Y112.819
G1 F1800 X122.186 Y118.226 E32.36604
G0 X122.256 Y118.296
G0 F3600 X121.759 Y118.365
G1 F1800 X116.779 Y113.385 E32.54172
G0 X116.709 Y113.315
G0 F3600 X116.779 Y113.95
G1 F1800 X121.347 Y118.518 E32.70287
G0 X121.417 Y118.588
G0 F3600 X120.988 Y118.726
G1 F1800 X116.779 Y114.516 E32.85137
G0 X116.709 Y114.446
G0 F3600 X116.779 Y115.082
G1 F1800 X120.63 Y118.933 E32.98723
G0 X120.7 Y119.003
G0 F3600 X120.271 Y119.14
G1 F1800 X116.779 Y115.648 E33.11042
G0 X116.709 Y115.578
G0 F3600 X116.779 Y116.213
G1 F1800 X119.913 Y119.347 E33.22098
G0 X119.983 Y119.417
G0 F3600 X119.602 Y119.602
G1 F1800 X116.779 Y116.779 E33.32057
G0 X116.709 Y116.709
G0 F3600 X116.779 Y117.345
G1 F1800 X119.305 Y119.87 E33.40966
G0 X119.375 Y119.94
G0 F3600 X119.006 Y120.138
G1 F1800 X116.779 Y117.91 E33.48824
G0 X116.709 Y117.84
G0 F3600 X116.779 Y118.476
G1 F1800 X118.709 Y120.406 E33.55633
G0 X118.779 Y120.476
G0 F3600 X118.424 Y120.687
G1 F1800 X116.779 Y119.042 E33.61436
G0 X116.709 Y118.972
G0 F3600 X116.779 Y119.607
G1 F1800 X118.186 Y121.014 E33.66399
G0 X118.256 Y121.084
G0 F3600 X117.948 Y121.342
G1 F1800 X116.779 Y120.173 E33.70523
G0 X116.709 Y120.103
G0 F3600 X116.779 Y120.739
G1 F1800 X117.557 Y121.517 E33.73268
G0 X117.627 Y121.587
G0 F3600 X116.992 Y121.517
G1 F1800 X116.779 Y121.304 E33.74019
G0 F3600 X116.628 Y81.128
G0 X133.372 Y81.128
G0 X131.946 Y121.198
G1 F1800 X132.267 Y121.519 E33.75152
G0 F3600 X119.36 Y102.955
G1 F1800 X116.779 Y100.374 E33.84257
G0 X116.709 Y100.304
G0 F3600 X116.779 Y99.808
G1 F1800 X119.047 Y102.077 E33.9226
G0 X119.117 Y102.147
G0 F3600 X118.895 Y101.358
G1 F1800 X116.779 Y99.243 E33.99723
G0 X116.709 Y99.173
G0 F3600 X116.779 Y98.677
G1 F1800 X118.849 Y100.747 E34.07025
G0 X118.919 Y100.817
G0 F3600 X118.849 Y100.181
G1 F1800 X116.779 Y98.111 E34.14328
G0 X116.709 Y98.041
G0 F3600 X116.779 Y97.546
G1 F1800 X118.891 Y99.658 E34.21778
G0 X118.961 Y99.728
G0 F3600 X118.991 Y99.192
G1 F1800 X116.779 Y96.98 E34.29582
G0 X116.709 Y96.91
G0 F3600 X116.779 Y96.414
G1 F1800 X119.09 Y98.725 E34.37734
G0 X119.16 Y98.795
G0 F3600 X119.242 Y98.311
G1 F1800 X116.779 Y95.849 E34.46422
G0 X116.709 Y95.779
G0 F3600 X116.779 Y95.283
G1 F1800 X119.416 Y97.92 E34.55724
G0 X119.486 Y97.99
G0 F3600 X119.59 Y97.528
G1 F1800 X116.779 Y94.717 E34.65641
G0 X116.709 Y94.647
G0 F3600 X116.779 Y94.151
G1 F1800 X119.809 Y97.181 E34.7633
G0 X119.879 Y97.251
G0 F3600 X120.047 Y96.854
G1 F1800 X116.779 Y93.586 E34.87859
G0 X116.709 Y93.516
G0 F3600 X116.779 Y93.02
G1 F1800 X120.285 Y96.527 E35.00229
G0 X120.355 Y96.597
G0 F3600 X120.552 Y96.228
G1 F1800 X116.779 Y92.454 E35.13541
G0 X116.709 Y92.384
G0 F3600 X116.779 Y91.889
G1 F1800 X120.85 Y95.96 E35.27902
G0 X120.92 Y96.03
G0 F3600 X121.147 Y95.691
G1 F1800 X116.779 Y91.323 E35.43312
G0 X116.709 Y91.253
G0 F3600 X116.779 Y90.757
G1 F1800 X121.461 Y95.439 E35.59829
G0 X121.531 Y95.509
G0 F3600 X121.82 Y95.233
G1 F1800 X116.779 Y90.192 E35.77612
G0 X116.709 Y90.122
G0 F3600 X116.779 Y89.626
G1 F1800 X122.178 Y95.025 E35.96659
G0 X122.248 Y95.095
G0 F3600 X122.547 Y94.829
G1 F1800 X116.779 Y89.06 E36.17009
G0 X116.709 Y88.99
G0 F3600 X116.779 Y88.495
G1 F1800 X122.974 Y94.69 E36.38863
G0 X123.044 Y94.76
G0 F3600 X123.401 Y94.551
G1 F1800 X116.779 Y87.929 E36.62224
G0 X116.709 Y87.859
G0 F3600 X116.779 Y87.363
G1 F1800 X123.849 Y94.434 E36.87167
G0 X123.919 Y94.504
G0 F3600 X124.363 Y94.381
G1 F1800 X116.779 Y86.798 E37.1392
G0 X116.709 Y86.728
G0 F3600 X116.779 Y86.232
G1 F1800 X124.875 Y94.328 E37.42481
G0 X124.945 Y94.398
G0 F3600 X125.479 Y94.366
G1 F1800 X116.779 Y85.666 E37.73172
G0 X116.709 Y85.596
G0 F3600 X116.779 Y85.101
G1 F1800 X126.112 Y94.434 E38.06097
G0 X126.182 Y94.504
G0 F3600 X126.893 Y94.649
G1 F1800 X116.779 Y84.535 E38.41777
G0 X116.709 Y84.465
G0 F3600 X116.779 Y83.969
G1 F1800 X127.859 Y95.05 E38.80866
G0 X127.929 Y95.12
G0 F3600 X133.219 Y95.318
G1 F1800 X119.18 Y81.279 E39.30393
G0 X119.11 Y81.209
G0 F3600 X118.615 Y81.279
G1 F1800 X133.219 Y95.884 E39.81914
G0 X133.289 Y95.954
G0 F3600 X133.219 Y96.45
G1 F1800 X118.049 Y81.279 E40.35432
G0 X117.979 Y81.209
G0 F3600 X117.483 Y81.279
G1 F1800 X133.219 Y97.015 E40.90945
G0 X133.289 Y97.085
G0 F3600 X133.219 Y94.753
G1 F1800 X119.746 Y81.279 E41.38477
G0 X119.676 Y81.209
G0 F3600 X120.312 Y81.279
G1 F1800 X133.219 Y94.187 E41.84011
G0 X133.289 Y94.257
G0 F3600 X133.219 Y93.621
G1 F1800 X120.877 Y81.279 E42.27551
G0 X120.807 Y81.209
G0 F3600 X121.443 Y81.279
G1 F1800 X133.219 Y93.055 E42.69094
G0 X133.289 Y93.125
