;FLAVOR:RepRap
;TIME:3419
;Generated with Cura_SteamEngine 2.3.1
G21 ; set units to millimeters
G90 ; use absolute positioning
M82 ; absolute extrusion mode
G28 W ; home all without mesh bed level
G80 ; mesh bed leveling
M104 S210 ; set extruder temp
M140 S55 ; set bed temp
M190 S55 ; wait for bed temp
M109 S210 ; wait for extruder temp
G92 E0.0 ; reset extruder distance position
G1 Y-3.0 F1000.0 ; go outside print area
G1 X60.0 E9.0 F1000.0 ; intro line
G1 X100.0 E21.5 F1000.0 ; intro line
G92 E0.0 ; reset extruder distance position
;LAYER_COUNT:160
;LAYER:0
M107
G1 F2100 E-0.8
G0 F3600 X112.53 Y84.989 Z.15
;TYPE:SKIRT
G1 F2100 E0
G1 F1800 X112.863 Y84.569 E0.01337
G1 X113.255 Y84.203 E0.02675
G1 X113.697 Y83.899 E0.04013
G1 X114.179 Y83.665 E0.0535
G1 X114.691 Y83.504 E0.06688
G1 X115.221 Y83.422 E0.08026
G1 X115.554 Y83.41 E0.08857
G1 X126.448 Y83.546 E0.36035
G1 X130.277 Y83.415 E0.45592
G1 X130.397 Y83.413 E0.45891
G1 X134.488 Y83.41 E0.56096
G1 X135.023 Y83.45 E0.57435
G1 X135.546 Y83.568 E0.58772
G1 X136.046 Y83.763 E0.60111
G1 X136.511 Y84.03 E0.61448
G1 X136.931 Y84.363 E0.62785
G1 X137.297 Y84.755 E0.64123
G1 X137.601 Y85.197 E0.65461
G1 X137.836 Y85.679 E0.66799
G1 X137.997 Y86.191 E0.68138
G1 X138.079 Y86.721 E0.69476
G1 X138.091 Y87.01 E0.70197
G1 X138.091 Y122.99 E1.5995
G1 X138.051 Y123.525 E1.61288
G1 X137.932 Y124.048 E1.62626
G1 X137.737 Y124.547 E1.63962
G1 X137.469 Y125.012 E1.65301
G1 X137.136 Y125.432 E1.66638
G1 X136.744 Y125.798 E1.67976
G1 X136.302 Y126.101 E1.69313
G1 X135.819 Y126.336 E1.70653
G1 X135.308 Y126.496 E1.71988
G1 X134.778 Y126.579 E1.73327
G1 X134.487 Y126.59 E1.74053
G1 X115.521 Y126.569 E2.21364
G1 X114.986 Y126.528 E2.22702
G1 X114.463 Y126.409 E2.2404
G1 X113.964 Y126.213 E2.25378
G1 X113.5 Y125.945 E2.26714
G1 X113.08 Y125.611 E2.28053
G1 X112.715 Y125.219 E2.29389
G1 X112.412 Y124.776 E2.30728
G1 X112.178 Y124.294 E2.32064
G1 X112.018 Y123.782 E2.33403
G1 X111.936 Y123.252 E2.3474
G1 X111.925 Y122.971 E2.35442
G1 X111.909 Y87.012 E3.25142
G1 X111.949 Y86.477 E3.2648
G1 X112.067 Y85.954 E3.27818
G1 X112.263 Y85.454 E3.29157
G1 X112.53 Y84.989 E3.30495
G0 F3600 X112.927 Y85.119
G1 F1800 X113.257 Y84.736 E3.31756
G1 X113.644 Y84.41 E3.33018
G1 X114.076 Y84.149 E3.34277
G1 X114.545 Y83.959 E3.3554
G1 X115.038 Y83.845 E3.36802
G1 X115.549 Y83.81 E3.3808
G1 X126.457 Y83.946 E3.65292
G1 X130.291 Y83.815 E3.74861
G1 X130.398 Y83.813 E3.75128
G1 X134.489 Y83.81 E3.85333
G1 X134.993 Y83.85 E3.86594
G1 X135.484 Y83.968 E3.87854
G1 X135.951 Y84.162 E3.89116
G1 X136.381 Y84.428 E3.90377
G1 X136.764 Y84.758 E3.91638
G1 X137.091 Y85.144 E3.929
G1 X137.352 Y85.577 E3.94161
G1 X137.542 Y86.045 E3.95421
G1 X137.656 Y86.538 E3.96683
G1 X137.691 Y87.01 E3.97864
G1 X137.691 Y122.99 E4.87616
G1 X137.651 Y123.494 E4.88878
G1 X137.532 Y123.985 E4.90138
G1 X137.338 Y124.452 E4.91399
G1 X137.072 Y124.882 E4.92661
G1 X136.742 Y125.265 E4.93922
G1 X136.355 Y125.591 E4.95184
G1 X135.922 Y125.852 E4.96445
G1 X135.454 Y126.042 E4.97705
G1 X134.961 Y126.155 E4.98967
G1 X134.487 Y126.19 E5.00152
G1 X115.521 Y126.169 E5.47463
G1 X115.018 Y126.129 E5.48722
G1 X114.526 Y126.009 E5.49985
G1 X114.06 Y125.814 E5.51245
G1 X113.63 Y125.548 E5.52507
G1 X113.248 Y125.217 E5.53768
G1 X112.922 Y124.83 E5.5503
G1 X112.661 Y124.397 E5.56291
G1 X112.472 Y123.928 E5.57552
G1 X112.359 Y123.435 E5.58814
G1 X112.325 Y122.97 E5.59977
G1 X112.309 Y87.011 E6.49677
G1 X112.349 Y86.507 E6.50938
G1 X112.467 Y86.016 E6.52198
G1 X112.662 Y85.549 E6.5346
G1 X112.927 Y85.119 E6.5472
G1 F2100 E5.7472
G0 F3600 X114.835 Y87.629
G0 X116.128 Y87.629
G0 X116.17 Y87.671
G0 X116.1 Y87.601
;TYPE:WALL-INNER
G1 F2100 E6.5472
G1 F1800 X118.9 Y87.601 E6.61705
G1 X118.9 Y104.613 E7.04142
G1 X130.9 Y104.614 E7.34076
G1 X131.1 Y104.614 E7.34575
G1 X131.1 Y104.414 E7.34898
G1 X131.1 Y87.6 E7.7684
G1 X133.9 Y87.6 E7.83825
G1 X133.9 Y122.399 E8.70632
G1 X116.3 Y122.4 E9.14535
G1 X116.1 Y122.4 E9.15034
G1 X116.1 Y122.2 E9.15357
G1 X116.1 Y87.601 E10.01664
G0 F3600 X115.7 Y87.201
;TYPE:WALL-OUTER
G1 F1800 X119.3 Y87.201 E10.10645
G1 X119.3 Y104.213 E10.53081
G1 X130.5 Y104.214 E10.8102
G1 X130.7 Y104.214 E10.81519
G1 X130.7 Y104.014 E10.81842
G1 X130.7 Y87.2 E11.23784
G1 X134.3 Y87.2 E11.32765
G1 X134.3 Y122.799 E12.21567
G1 X115.9 Y122.8 E12.67466
G1 X115.7 Y122.8 E12.67965
G1 X115.7 Y122.6 E12.68288
G1 X115.7 Y87.201 E13.56591
G0 F3600 X116.17 Y87.671
G0 X116.278 Y87.994
;TYPE:SKIN
G1 F1800 X118.719 Y90.435 E13.65202
G0 X118.789 Y90.505
G0 F3600 X118.719 Y91.001
G1 F1800 X116.278 Y88.56 E13.73813
G0 X116.208 Y88.49
G0 F3600 X116.278 Y89.125
G1 F1800 X118.719 Y91.566 E13.82425
G0 X118.789 Y91.636
G0 F3600 X118.719 Y92.132
G1 F1800 X116.278 Y89.691 E13.91036
G0 X116.208 Y89.621
G0 F3600 X116.278 Y90.257
G1 F1800 X118.719 Y92.698 E13.99647
G0 X118.789 Y92.768
G0 F3600 X118.719 Y93.263
G1 F1800 X116.278 Y90.822 E14.08258
G0 X116.208 Y90.752
G0 F3600 X116.278 Y91.388
G1 F1800 X118.719 Y93.829 E14.1687
G0 X118.789 Y93.899
G0 F3600 X118.719 Y94.395
G1 F1800 X116.278 Y91.954 E14.25481
G0 X116.208 Y91.884
G0 F3600 X116.278 Y92.519
G1 F1800 X118.719 Y94.96 E14.34092
G0 X118.789 Y95.03
G0 F3600 X118.719 Y95.526
G1 F1800 X116.278 Y93.085 E14.42704
G0 X116.208 Y93.015
G0 F3600 X116.278 Y93.651
G1 F1800 X118.719 Y96.092 E14.51315
G0 X118.789 Y96.162
G0 F3600 X118.719 Y96.657
G1 F1800 X116.278 Y94.217 E14.59924
G0 X116.208 Y94.147
G0 F3600 X116.278 Y94.782
G1 F1800 X118.719 Y97.223 E14.68536
G0 X118.789 Y97.293
G0 F3600 X118.719 Y97.789
G1 F1800 X116.278 Y95.348 E14.77147
G0 X116.208 Y95.278
G0 F3600 X116.278 Y95.914
G1 F1800 X118.719 Y98.355 E14.85758
G0 X118.789 Y98.425
G0 F3600 X118.719 Y98.92
G1 F1800 X116.278 Y96.479 E14.9437
G0 X116.208 Y96.409
G0 F3600 X116.278 Y97.045
G1 F1800 X118.719 Y99.486 E15.02981
G0 X118.789 Y99.556
G0 F3600 X118.719 Y100.052
G1 F1800 X116.278 Y97.611 E15.11592
G0 X116.208 Y97.541
G0 F3600 X116.278 Y98.176
G1 F1800 X118.719 Y100.617 E15.20203
G0 X118.789 Y100.687
G0 F3600 X118.719 Y101.183
G1 F1800 X116.278 Y98.742 E15.28815
G0 X116.208 Y98.672
G0 F3600 X116.278 Y99.308
G1 F1800 X118.719 Y101.749 E15.37426
G0 X118.789 Y101.819
G0 F3600 X118.719 Y102.314
G1 F1800 X116.278 Y99.873 E15.46037
G0 X116.208 Y99.803
G0 F3600 X116.278 Y100.439
G1 F1800 X118.719 Y102.88 E15.54649
G0 X118.789 Y102.95
G0 F3600 X118.719 Y103.446
G1 F1800 X116.278 Y101.005 E15.6326
G0 X116.208 Y100.935
G0 F3600 X116.278 Y101.57
G1 F1800 X118.719 Y104.011 E15.71871
G0 X118.789 Y104.081
G0 F3600 X118.719 Y104.577
G1 F1800 X116.278 Y102.136 E15.80482
G0 X116.208 Y102.066
G0 F3600 X116.278 Y102.702
G1 F1800 X133.719 Y120.143 E16.4201
G0 X133.789 Y120.213
G0 F3600 X133.719 Y120.708
G1 F1800 X116.278 Y103.267 E17.03538
G0 X116.208 Y103.197
G0 F3600 X116.278 Y103.833
G1 F1800 X133.719 Y121.274 E17.65066
G0 X133.789 Y121.344
G0 F3600 X133.719 Y121.84
G1 F1800 X116.278 Y104.399 E18.26594
G0 X116.208 Y104.329
G0 F3600 X116.278 Y104.965
G1 F1800 X133.532 Y122.219 E18.87462
G0 X133.602 Y122.289
G0 F3600 X132.967 Y122.219
G1 F1800 X116.278 Y105.53 E19.46337
G0 X116.208 Y105.46
G0 F3600 X116.278 Y106.096
G1 F1800 X132.401 Y122.219 E20.03215
G0 X132.471 Y122.289
G0 F3600 X131.835 Y122.219
G1 F1800 X116.278 Y106.662 E20.58097
G0 X116.208 Y106.592
G0 F3600 X116.278 Y107.227
G1 F1800 X131.27 Y122.219 E21.10985
G0 X131.34 Y122.289
G0 F3600 X130.704 Y122.219
G1 F1800 X116.278 Y107.793 E21.61877
G0 X116.208 Y107.723
G0 F3600 X116.278 Y108.359
G1 F1800 X130.138 Y122.219 E22.10772
G0 X130.208 Y122.289
G0 F3600 X129.573 Y122.219
G1 F1800 X116.278 Y108.924 E22.57673
G0 X116.208 Y108.854
G0 F3600 X116.278 Y109.49
G1 F1800 X129.007 Y122.219 E23.02578
G0 X129.077 Y122.289
G0 F3600 X128.441 Y122.219
G1 F1800 X116.278 Y110.056 E23.45486
G0 X116.208 Y109.986
G0 F3600 X116.278 Y110.621
G1 F1800 X127.876 Y122.219 E23.86402
G0 X127.946 Y122.289
G0 F3600 X127.31 Y122.219
G1 F1800 X116.278 Y111.187 E24.2532
G0 X116.208 Y111.117
G0 F3600 X116.278 Y111.753
G1 F1800 X126.744 Y122.219 E24.62242
G0 X126.814 Y122.289
G0 F3600 X126.178 Y122.219
G1 F1800 X116.278 Y112.318 E24.97168
G0 X116.208 Y112.248
G0 F3600 X116.278 Y112.884
G1 F1800 X125.613 Y122.219 E25.301
G0 X125.683 Y122.289
G0 F3600 X125.047 Y122.219
G1 F1800 X116.278 Y113.45 E25.61035
G0 X116.208 Y113.38
G0 F3600 X116.278 Y114.016
G1 F1800 X124.481 Y122.219 E25.89973
G0 X124.551 Y122.289
G0 F3600 X123.916 Y122.219
G1 F1800 X116.278 Y114.581 E26.16918
G0 X116.208 Y114.511
G0 F3600 X116.278 Y115.147
G1 F1800 X123.35 Y122.219 E26.41867
G0 X123.42 Y122.289
G0 F3600 X122.784 Y122.219
G1 F1800 X116.278 Y115.713 E26.64818
G0 X116.208 Y115.643
G0 F3600 X116.278 Y116.278
G1 F1800 X122.219 Y122.219 E26.85777
G0 X122.289 Y122.289
G0 F3600 X121.653 Y122.219
G1 F1800 X116.278 Y116.844 E27.04739
G0 X116.208 Y116.774
G0 F3600 X116.278 Y117.41
G1 F1800 X121.087 Y122.219 E27.21704
G0 X121.157 Y122.289
G0 F3600 X120.522 Y122.219
G1 F1800 X116.278 Y117.975 E27.36676
G0 X116.208 Y117.905
G0 F3600 X116.278 Y118.541
G1 F1800 X119.956 Y122.219 E27.49651
G0 X120.026 Y122.289
G0 F3600 X119.39 Y122.219
G1 F1800 X116.278 Y119.107 E27.60629
G0 X116.208 Y119.037
G0 F3600 X116.278 Y119.672
G1 F1800 X118.825 Y122.219 E27.69614
G0 X118.895 Y122.289
G0 F3600 X118.259 Y122.219
G1 F1800 X116.278 Y120.238 E27.76603
G0 X116.208 Y120.168
G0 F3600 X116.278 Y120.804
G1 F1800 X117.693 Y122.219 E27.81595
G0 X117.763 Y122.289
G0 F3600 X117.127 Y122.219
G1 F1800 X116.278 Y121.369 E27.84592
G0 X116.208 Y121.299
G0 F3600 X116.278 Y121.935
G1 F1800 X116.562 Y122.219 E27.85593
G0 F3600 X133.719 Y119.577
G1 F1800 X118.935 Y104.793 E28.37748
G0 X118.865 Y104.723
G0 F3600 X119.501 Y104.793
G1 F1800 X133.719 Y119.011 E28.87906
G0 X133.789 Y119.081
G0 F3600 X133.719 Y118.446
G1 F1800 X120.066 Y104.793 E29.3607
G0 X119.996 Y104.723
G0 F3600 X120.632 Y104.793
G1 F1800 X133.719 Y117.88 E29.82238
G0 X133.789 Y117.95
G0 F3600 X133.719 Y117.314
G1 F1800 X121.198 Y104.793 E30.2641
G0 X121.128 Y104.723
G0 F3600 X121.763 Y104.793
G1 F1800 X133.719 Y116.748 E30.68586
G0 X133.789 Y116.818
G0 F3600 X133.719 Y116.183
G1 F1800 X122.33 Y104.793 E31.08765
G0 X122.26 Y104.723
G0 F3600 X122.895 Y104.793
G1 F1800 X133.719 Y115.617 E31.4695
G0 X133.789 Y115.687
G0 F3600 X133.719 Y115.051
G1 F1800 X123.461 Y104.793 E31.83138
G0 X123.391 Y104.723
G0 F3600 X124.027 Y104.793
G1 F1800 X133.719 Y114.486 E32.17331
G0 X133.789 Y114.556
G0 F3600 X133.719 Y113.92
G1 F1800 X124.592 Y104.793 E32.49529
G0 X124.522 Y104.723
G0 F3600 X125.158 Y104.793
G1 F1800 X133.719 Y113.354 E32.7973
G0 X133.789 Y113.424
G0 F3600 X133.719 Y112.789
G1 F1800 X125.724 Y104.793 E33.07936
G0 X125.654 Y104.723
G0 F3600 X126.289 Y104.793
G1 F1800 X133.719 Y112.223 E33.34148
G0 X133.789 Y112.293
G0 F3600 X133.719 Y111.657
G1 F1800 X126.855 Y104.793 E33.58362
G0 X126.785 Y104.723
G0 F3600 X127.421 Y104.793
G1 F1800 X133.719 Y111.092 E33.80582
G0 X133.789 Y111.162
G0 F3600 X133.719 Y110.526
G1 F1800 X127.987 Y104.793 E34.00805
G0 X127.917 Y104.723
G0 F3600 X128.552 Y104.793
G1 F1800 X133.719 Y109.96 E34.19033
G0 X133.789 Y110.03
G0 F3600 X133.719 Y109.395
G1 F1800 X129.118 Y104.793 E34.35266
G0 X129.048 Y104.723
G0 F3600 X129.684 Y104.793
G1 F1800 X133.719 Y108.829 E34.49502
G0 X133.789 Y108.899
G0 F3600 X133.719 Y108.263
G1 F1800 X130.249 Y104.793 E34.61743
G0 X130.179 Y104.723
G0 F3600 X130.815 Y104.793
G1 F1800 X133.719 Y107.698 E34.7199
G0 X133.789 Y107.768
G0 F3600 X133.719 Y107.132
G1 F1800 X131.279 Y104.692 E34.80598
G0 X131.209 Y104.622
G0 F3600 X131.279 Y104.126
G1 F1800 X133.719 Y106.566 E34.89205
G0 X133.789 Y106.636
G0 F3600 X133.719 Y106
G1 F1800 X131.279 Y103.56 E34.97813
G0 X131.209 Y103.49
G0 F3600 X131.279 Y102.995
G1 F1800 X133.719 Y105.435 E35.06421
G0 X133.789 Y105.505
G0 F3600 X133.719 Y104.869
G1 F1800 X131.279 Y102.429 E35.15029
G0 X131.209 Y102.359
G0 F3600 X131.279 Y101.863
G1 F1800 X133.719 Y104.303 E35.23636
G0 X133.789 Y104.373
G0 F3600 X133.719 Y103.738
G1 F1800 X131.279 Y101.297 E35.32246
G0 X131.209 Y101.227
G0 F3600 X131.279 Y100.732
G1 F1800 X133.719 Y103.172 E35.40854
G0 X133.789 Y103.242
G0 F3600 X133.719 Y102.606
G1 F1800 X131.279 Y100.166 E35.49461
G0 X131.209 Y100.096
G0 F3600 X131.279 Y99.6
G1 F1800 X133.719 Y102.041 E35.58071
G0 X133.789 Y102.111
G0 F3600 X133.719 Y101.475
G1 F1800 X131.279 Y99.035 E35.66679
G0 X131.209 Y98.965
G0 F3600 X131.279 Y98.469
G1 F1800 X133.719 Y100.909 E35.75287
G0 X133.789 Y100.979
G0 F3600 X133.719 Y100.344
G1 F1800 X131.279 Y97.903 E35.83896
G0 X131.209 Y97.833
G0 F3600 X131.279 Y97.338
G1 F1800 X133.719 Y99.778 E35.92504
G0 X133.789 Y99.848
G0 F3600 X133.719 Y99.212
G1 F1800 X131.279 Y96.772 E36.01112
G0 X131.209 Y96.702
G0 F3600 X131.279 Y96.206
G1 F1800 X133.719 Y98.647 E36.09721
G0 X133.789 Y98.717
G0 F3600 X133.719 Y98.081
G1 F1800 X131.279 Y95.641 E36.18329
G0 X131.209 Y95.571
G0 F3600 X131.279 Y95.075
G1 F1800 X133.719 Y97.515 E36.26937
G0 X133.789 Y97.585
G0 F3600 X133.719 Y96.949
G1 F1800 X131.279 Y94.509 E36.35544
G0 X131.209 Y94.439
G0 F3600 X131.279 Y93.944
G1 F1800 X133.719 Y96.384 E36.44152
G0 X133.789 Y96.454
G0 F3600 X133.719 Y95.818
G1 F1800 X131.279 Y93.378 E36.5276
G0 X131.209 Y93.308
G0 F3600 X131.279 Y92.812
G1 F1800 X133.719 Y95.252 E36.61368
G0 X133.789 Y95.322
G0 F3600 X133.719 Y94.687
G1 F1800 X131.279 Y92.247 E36.69975
G0 X131.209 Y92.177
G0 F3600 X131.279 Y91.681
G1 F1800 X133.719 Y94.121 E36.78583
G0 X133.789 Y94.191
G0 F3600 X133.719 Y93.555
G1 F1800 X131.279 Y91.115 E36.87191
G0 X131.209 Y91.045
G0 F3600 X131.279 Y90.549
G1 F1800 X133.719 Y92.99 E36.958
G0 X133.789 Y93.06
G0 F3600 X133.719 Y92.424
G1 F1800 X131.279 Y89.984 E37.04408
G0 X131.209 Y89.914
G0 F3600 X131.279 Y89.418
G1 F1800 X133.719 Y91.858 E37.13016
G0 X133.789 Y91.928
G0 F3600 X133.719 Y91.293
G1 F1800 X131.279 Y88.852 E37.21625
G0 X131.209 Y88.782
G0 F3600 X131.279 Y88.287
G1 F1800 X133.719 Y90.727 E37.30233
G0 X133.789 Y90.797
G0 F3600 X133.719 Y90.161
G1 F1800 X131.338 Y87.78 E37.38633
G0 X131.268 Y87.71
G0 F3600 X131.903 Y87.78
G1 F1800 X133.719 Y89.596 E37.45039
G0 X133.789 Y89.666
G0 F3600 X133.719 Y89.03
G1 F1800 X132.469 Y87.78 E37.49449
G0 X132.399 Y87.71
G0 F3600 X133.035 Y87.78
G1 F1800 X133.719 Y88.464 E37.51862
G0 X133.789 Y88.534
G0 F3600 X133.719 Y87.899
G1 F1800 X133.6 Y87.78 E37.52282
G0 F3600 X131.128 Y104.642
G0 X118.872 Y104.641
G0 X118.719 Y88.172
G1 F1800 X118.327 Y87.78 E37.53665
G0 F3600 X117.762 Y87.78
G1 F1800 X118.719 Y88.738 E37.57043
G0 X118.789 Y88.808
G0 F3600 X118.719 Y89.304
G1 F1800 X117.196 Y87.78 E37.62417
G0 X117.126 Y87.71
G0 F3600 X116.63 Y87.78
G1 F1800 X118.719 Y89.869 E37.69787
G0 X118.789 Y89.939
G0 F3600 X118.5 Y89.939
;TIME_ELAPSED:63.378920
;LAYER:1
M106 S255
G0 F5400 X118.5 Y89.939 Z.25
G0 X118.83 Y87.671
G0 X118.9 Y87.601
;TYPE:WALL-INNER
G1 F2700 X118.9 Y104.685 E37.98197
G1 X130.9 Y104.686 E38.18153
G1 X131.1 Y104.686 E38.18486
G1 X131.1 Y104.486 E38.18701
G1 X131.1 Y87.6 E38.46783
G1 X133.9 Y87.6 E38.51439
G1 X133.9 Y122.399 E39.0931
G1 X116.3 Y122.4 E39.38579
G1 X116.1 Y122.4 E39.38912
G1 X116.1 Y122.2 E39.39127
G1 X116.1 Y87.601 E39.96666
G1 X118.9 Y87.601 E40.01322
G0 F5400 X119.3 Y87.201
;TYPE:WALL-OUTER
G1 F1800 X119.3 Y104.285 E40.29733
G1 X130.5 Y104.286 E40.48359
G1 X130.7 Y104.286 E40.48691
G1 X130.7 Y104.086 E40.48906
G1 X130.7 Y87.2 E40.76988
G1 X134.3 Y87.2 E40.82975
G1 X134.3 Y122.799 E41.42176
G1 X115.9 Y122.8 E41.72776
G1 X115.7 Y122.8 E41.73108
G1 X115.7 Y122.6 E41.73323
G1 X115.7 Y87.201 E42.32192
G1 X119.3 Y87.201 E42.38179
G0 F5400 X118.83 Y87.671
G0 X118.694 Y87.78
;TYPE:SKIN
G1 F1800 X116.279 Y90.195 E42.43859
G0 X116.209 Y90.265
G0 F5400 X116.279 Y89.63
G1 F1800 X118.128 Y87.78 E42.48209
G0 X118.198 Y87.71
G0 F5400 X117.562 Y87.78
G1 F1800 X116.279 Y89.064 E42.51227
G0 X116.209 Y89.134
G0 F5400 X116.279 Y88.498
G1 F1800 X116.997 Y87.78 E42.52916
G0 X117.067 Y87.71
G0 F5400 X116.431 Y87.78
G1 F1800 X116.279 Y87.932 E42.53273
G0 F5400 X118.718 Y88.321
G1 F1800 X116.279 Y90.761 E42.59011
G0 X116.209 Y90.831
G0 F5400 X116.279 Y91.327
G1 F1800 X118.718 Y88.887 E42.64748
G0 X118.788 Y88.817
