;FLAVOR:RepRap
;TIME:5274
;Generated with Cura_SteamEngine 2.3.1
G21 ; set units to millimeters
G90 ; use absolute positioning
M82 ; absolute extrusion mode
G28 W ; home all without mesh bed level
G80 ; mesh bed leveling
M104 S215 ; set extruder temp
M140 S55 ; set bed temp
M190 S55 ; wait for bed temp
M109 S215 ; wait for extruder temp
G92 E0.0 ; reset extruder distance position
G1 Y-3.0 F1000.0 ; go outside print area
G1 X60.0 E9.0 F1000.0 ; intro line
G1 X100.0 E21.5 F1000.0 ; intro line
G92 E0.0 ; reset extruder distance position
;LAYER_COUNT:380
;LAYER:0
M107
G1 F2100 E-0.8
G0 F3600 X107.739 Y82.036 Z.15
;TYPE:SKIRT
G1 F2100 E0
G1 F1800 X108.235 Y81.42 E0.01973
G1 X108.521 Y81.105 E0.03034
G1 X109.275 Y80.367 E0.05666
G1 X109.711 Y80.003 E0.07083
G1 X110.917 Y79.148 E0.10771
G1 X111.533 Y78.797 E0.12539
G1 X113.074 Y78.11 E0.16748
G1 X113.764 Y77.883 E0.1856
G1 X115.246 Y77.556 E0.22346
G1 X115.825 Y77.476 E0.23804
G1 X116.922 Y77.416 E0.26544
G1 X117.568 Y77.439 E0.28157
G1 X119.31 Y77.658 E0.32536
G1 X119.878 Y77.777 E0.33984
G1 X120.676 Y78.012 E0.36059
G1 X121.083 Y78.159 E0.37139
G1 X122.056 Y78.578 E0.39781
G1 X122.31 Y78.699 E0.40483
G1 X124.779 Y80 E0.47445
G1 X129.733 Y82.354 E0.61127
G1 X134.748 Y84.495 E0.74729
G1 X135.224 Y84.742 E0.76067
G1 X135.588 Y84.998 E0.77177
G1 X136.757 Y85.936 E0.80916
G1 X137.149 Y86.302 E0.82253
G1 X137.403 Y86.609 E0.83247
G1 X138.141 Y87.611 E0.86352
G1 X138.465 Y88.142 E0.87903
G1 X138.78 Y88.775 E0.89667
G1 X139.026 Y89.416 E0.9138
G1 X139.395 Y90.745 E0.9482
G1 X139.499 Y91.271 E0.96158
G1 X139.525 Y91.628 E0.97051
G1 X139.555 Y92.971 E1.00402
G1 X139.55 Y93.258 E1.01118
G1 X139.121 Y100.723 E1.1977
G1 X139.163 Y106.163 E1.33341
G1 X139.644 Y113.114 E1.50721
G1 X139.653 Y113.364 E1.51345
G1 X139.645 Y128.96 E1.9025
G1 X139.605 Y129.495 E1.91588
G1 X139.486 Y130.017 E1.92924
G1 X139.29 Y130.517 E1.94263
G1 X139.022 Y130.982 E1.95602
G1 X138.689 Y131.401 E1.96937
G1 X138.296 Y131.767 E1.98277
G1 X137.854 Y132.07 E1.99614
G1 X137.372 Y132.305 E2.00951
G1 X136.86 Y132.465 E2.02289
G1 X136.063 Y132.558 E2.04291
G1 X130.015 Y132.589 E2.19378
G1 X129.48 Y132.552 E2.20716
G1 X129.216 Y132.503 E2.21385
G1 X128.122 Y132.26 E2.24181
G1 X127.438 Y132.034 E2.25978
G1 X126.199 Y131.482 E2.29362
G1 X125.727 Y131.228 E2.30699
G1 X125.43 Y131.017 E2.31607
G1 X124.338 Y130.153 E2.35081
G1 X124.123 Y129.968 E2.35788
G1 X118.672 Y124.907 E2.54343
G1 X114.422 Y121.449 E2.68011
G1 X109.543 Y117.858 E2.83123
G1 X109.006 Y117.373 E2.84928
G1 X107.87 Y116.116 E2.89154
G1 X107.536 Y115.685 E2.90514
G1 X107.117 Y115.05 E2.92412
G1 X106.84 Y114.546 E2.93847
G1 X106.119 Y112.946 E2.98224
G1 X105.891 Y112.267 E3.00011
G1 X105.57 Y110.859 E3.03613
G1 X105.48 Y110.073 E3.05587
G1 X105.4 Y89.988 E3.5569
G1 X105.404 Y89.796 E3.56169
G1 X105.514 Y87.571 E3.61726
G1 X105.587 Y87.01 E3.63137
G1 X105.755 Y86.209 E3.65178
G1 X105.869 Y85.791 E3.66259
G1 X106.22 Y84.757 E3.68983
G1 X106.376 Y84.371 E3.70022
G1 X106.691 Y83.707 E3.71855
G1 X106.893 Y83.339 E3.72902
G1 X107.492 Y82.383 E3.75716
G1 X107.739 Y82.036 E3.76779
G0 F3600 X108.051 Y82.287
G1 F1800 X108.547 Y81.671 E3.78752
G1 X108.801 Y81.391 E3.79695
G1 X109.555 Y80.653 E3.82327
G1 X109.942 Y80.329 E3.83586
G1 X111.148 Y79.474 E3.87273
G1 X111.696 Y79.162 E3.88846
G1 X113.237 Y78.475 E3.93055
G1 X113.851 Y78.273 E3.94667
G1 X115.333 Y77.946 E3.98453
G1 X115.847 Y77.876 E3.99747
G1 X116.944 Y77.816 E4.02488
G1 X117.518 Y77.836 E4.03921
G1 X119.26 Y78.055 E4.083
G1 X119.765 Y78.16 E4.09587
G1 X120.563 Y78.395 E4.11662
G1 X120.925 Y78.526 E4.12622
G1 X121.898 Y78.945 E4.15265
G1 X122.123 Y79.053 E4.15887
G1 X124.58 Y80.347 E4.22815
G1 X129.583 Y82.725 E4.36633
G1 X134.591 Y84.863 E4.50216
G1 X135.039 Y85.097 E4.51477
G1 X135.338 Y85.31 E4.52393
G1 X136.507 Y86.248 E4.56131
G1 X136.875 Y86.595 E4.57393
G1 X137.081 Y86.846 E4.58203
G1 X137.819 Y87.848 E4.61307
G1 X138.107 Y88.32 E4.62687
G1 X138.422 Y88.953 E4.6445
G1 X138.64 Y89.523 E4.65973
G1 X139.009 Y90.852 E4.69413
G1 X139.106 Y91.348 E4.70674
G1 X139.125 Y91.637 E4.71396
G1 X139.155 Y92.98 E4.74747
G1 X139.151 Y93.235 E4.75384
G1 X138.721 Y100.718 E4.94081
G1 X138.763 Y106.176 E5.07696
G1 X139.245 Y113.141 E5.25112
G1 X139.253 Y113.364 E5.25669
G1 X139.245 Y128.96 E5.64573
G1 X139.205 Y129.464 E5.65834
G1 X139.086 Y129.955 E5.67094
G1 X138.891 Y130.421 E5.68355
G1 X138.625 Y130.851 E5.69616
G1 X138.294 Y131.234 E5.70879
G1 X137.908 Y131.56 E5.72139
G1 X137.475 Y131.821 E5.734
G1 X137.006 Y132.01 E5.74661
G1 X136.513 Y132.124 E5.75924
G1 X136.061 Y132.158 E5.77054
G1 X130.013 Y132.189 E5.92141
G1 X129.303 Y132.113 E5.93923
G1 X128.209 Y131.87 E5.96718
G1 X127.601 Y131.669 E5.98316
G1 X126.362 Y131.117 E6.01699
G1 X125.918 Y130.875 E6.02961
G1 X125.678 Y130.704 E6.03696
G1 X124.586 Y129.84 E6.07169
G1 X124.395 Y129.675 E6.07799
G1 X118.929 Y124.6 E6.26405
G1 X114.675 Y121.139 E6.40085
G1 X109.78 Y117.536 E6.55246
G1 X109.303 Y117.105 E6.5685
G1 X108.167 Y115.848 E6.61076
G1 X107.87 Y115.464 E6.62287
G1 X107.451 Y114.829 E6.64185
G1 X107.205 Y114.382 E6.65458
G1 X106.484 Y112.782 E6.69836
G1 X106.281 Y112.178 E6.71425
G1 X105.96 Y110.77 E6.75028
G1 X105.88 Y110.072 E6.7678
G1 X105.8 Y89.987 E7.26883
G1 X105.804 Y89.816 E7.27309
G1 X105.914 Y87.591 E7.32867
G1 X105.978 Y87.092 E7.34122
G1 X106.146 Y86.291 E7.36163
G1 X106.248 Y85.919 E7.37125
G1 X106.599 Y84.885 E7.39849
G1 X106.738 Y84.542 E7.40772
G1 X107.053 Y83.878 E7.42606
G1 X107.232 Y83.551 E7.43536
G1 X107.831 Y82.595 E7.4635
G1 X108.051 Y82.287 E7.47294
G1 F2100 E6.67294
G0 F3600 X110.033 Y83.852
G0 X111.058 Y84.659
G0 X111.09 Y84.715
G0 X111.01 Y84.657
;TYPE:WALL-INNER
G1 F2100 E7.47294
G1 F1800 X111.375 Y84.194 E7.48765
G1 X111.769 Y83.769 E7.5021
G1 X112.194 Y83.375 E7.51656
G1 X112.653 Y83.012 E7.53116
G1 X113.138 Y82.69 E7.54568
G1 X113.651 Y82.402 E7.56035
G1 X114.177 Y82.161 E7.57479
G1 X114.717 Y81.962 E7.58914
G1 X115.285 Y81.803 E7.60386
G1 X115.843 Y81.692 E7.61805
G1 X116.42 Y81.625 E7.63254
G1 X117.005 Y81.601 E7.64714
G1 X117.59 Y81.626 E7.66175
G1 X118.17 Y81.694 E7.67632
G1 X118.727 Y81.806 E7.69049
G1 X119.295 Y81.965 E7.7052
G1 X119.835 Y82.165 E7.71957
G1 X120.373 Y82.415 E7.73437
G1 X120.86 Y82.687 E7.74828
G1 X121.349 Y83.014 E7.76296
G1 X121.812 Y83.379 E7.77766
G1 X122.232 Y83.769 E7.79196
G1 X122.626 Y84.194 E7.80642
G1 X122.991 Y84.657 E7.82112
G1 X123.313 Y85.139 E7.83558
G1 X123.589 Y85.632 E7.84968
G1 X123.842 Y86.181 E7.86476
G1 X124.035 Y86.705 E7.87869
G1 X124.288 Y87.6 E7.90189
G1 X130.722 Y87.6 E8.06238
G1 X131.416 Y87.688 E8.07983
G1 X132.01 Y87.841 E8.09514
G1 X132.592 Y88.071 E8.11075
G1 X133.121 Y88.362 E8.12581
G1 X133.621 Y88.726 E8.14123
G1 X134.073 Y89.15 E8.15669
G1 X134.457 Y89.614 E8.17172
G1 X134.795 Y90.146 E8.18744
G1 X135.055 Y90.7 E8.20271
G1 X135.245 Y91.283 E8.218
G1 X135.359 Y91.881 E8.23319
G1 X135.397 Y92.5 E8.24866
G1 X135.359 Y93.12 E8.26415
G1 X135.245 Y93.718 E8.27934
G1 X135.055 Y94.301 E8.29463
G1 X134.795 Y94.855 E8.3099
G1 X134.457 Y95.387 E8.32562
G1 X134.073 Y95.851 E8.34065
G1 X133.401 Y96.482 E8.36364
G1 X133.4 Y108.047 E8.65213
G1 X133.813 Y110.66 E8.71812
G1 X135.035 Y113.059 E8.78528
G1 X135.458 Y113.481 E8.80019
G1 X135.457 Y128.4 E9.17234
G1 X130.283 Y128.4 E9.30141
G1 X129.583 Y128.311 E9.31901
G1 X128.989 Y128.159 E9.33431
G1 X128.407 Y127.929 E9.34992
G1 X127.878 Y127.638 E9.36498
G1 X127.383 Y127.277 E9.38026
G1 X126.922 Y126.845 E9.39602
G1 X126.542 Y126.386 E9.41088
G1 X126.204 Y125.854 E9.42661
G1 X125.944 Y125.3 E9.44187
G1 X125.755 Y124.719 E9.45711
G1 X125.642 Y124.127 E9.47215
G1 X125.6 Y123.444 E9.48922
G1 X125.6 Y117.579 E9.63552
G1 X124.421 Y116.4 E9.67711
G1 X117.024 Y116.4 E9.86163
G1 X116.416 Y116.375 E9.87681
G1 X115.835 Y116.307 E9.8914
G1 X115.282 Y116.196 E9.90547
G1 X114.712 Y116.037 E9.92023
G1 X114.167 Y115.835 E9.93473
G1 X113.637 Y115.591 E9.94929
G1 X113.139 Y115.312 E9.96353
G1 X112.654 Y114.988 E9.97808
G1 X112.194 Y114.625 E9.99269
G1 X111.769 Y114.231 E10.00715
G1 X111.375 Y113.806 E10.02161
G1 X111.01 Y113.343 E10.03631
G1 X110.692 Y112.868 E10.05057
G1 X110.405 Y112.355 E10.06524
G1 X110.161 Y111.824 E10.07981
G1 X109.965 Y111.292 E10.09396
G1 X109.804 Y110.718 E10.10883
G1 X109.693 Y110.165 E10.1229
G1 X109.624 Y109.578 E10.13764
G1 X109.6 Y108.984 E10.15247
G1 X109.6 Y89.024 E10.65038
G1 X109.624 Y88.419 E10.66548
G1 X109.693 Y87.835 E10.68015
G1 X109.804 Y87.282 E10.69422
G1 X109.965 Y86.708 E10.70909
G1 X110.159 Y86.181 E10.7231
G1 X110.412 Y85.632 E10.73818
G1 X110.688 Y85.139 E10.75227
G1 X111.01 Y84.657 E10.76673
G0 F3600 X111.09 Y84.715
G0 X113.118 Y86.179
G0 X113.198 Y86.237
G1 F1800 X112.882 Y86.735 E10.78144
G1 X112.629 Y87.269 E10.79618
G1 X112.447 Y87.831 E10.81092
G1 X112.336 Y88.412 E10.82567
G1 X112.3 Y89 E10.84037
G1 X112.336 Y89.589 E10.85509
G1 X112.447 Y90.17 E10.86985
G1 X112.629 Y90.732 E10.88458
G1 X112.882 Y91.266 E10.89932
G1 X113.198 Y91.764 E10.91403
G1 X113.574 Y92.218 E10.92874
G1 X114.004 Y92.623 E10.94347
G1 X114.483 Y92.97 E10.95823
G1 X114.999 Y93.253 E10.97291
G1 X115.548 Y93.472 E10.98765
G1 X116.12 Y93.619 E11.00238
G1 X116.706 Y93.692 E11.01712
G1 X117.295 Y93.692 E11.03181
G1 X117.881 Y93.619 E11.04654
G1 X118.453 Y93.472 E11.06127
G1 X119.002 Y93.253 E11.07602
G1 X119.518 Y92.97 E11.0907
G1 X119.997 Y92.623 E11.10545
G1 X120.427 Y92.218 E11.12019
G1 X120.803 Y91.764 E11.13489
G1 X121.119 Y91.266 E11.1496
G1 X121.372 Y90.732 E11.16434
G1 X121.554 Y90.17 E11.17908
G1 X121.665 Y89.589 E11.19383
G1 X121.702 Y89 E11.20856
G1 X121.665 Y88.412 E11.22325
G1 X121.554 Y87.831 E11.23801
G1 X121.372 Y87.269 E11.25274
G1 X121.119 Y86.735 E11.26748
G1 X120.803 Y86.237 E11.2822
G1 X120.427 Y85.783 E11.2969
G1 X119.997 Y85.378 E11.31164
G1 X119.518 Y85.031 E11.32639
G1 X119.002 Y84.748 E11.34107
G1 X118.453 Y84.529 E11.35582
G1 X117.881 Y84.382 E11.37055
G1 X117.295 Y84.309 E11.38528
G1 X116.706 Y84.309 E11.39997
G1 X116.12 Y84.382 E11.4147
G1 X115.548 Y84.529 E11.42943
G1 X114.999 Y84.748 E11.44418
G1 X114.482 Y85.032 E11.45889
G1 X113.999 Y85.382 E11.47377
G1 X113.574 Y85.783 E11.48835
G1 X113.198 Y86.237 E11.50305
G0 F3600 X113.118 Y86.179
G0 X113.974 Y85.352
G0 X114.982 Y84.712
G0 X116.113 Y84.343
G0 X117.297 Y84.27
G0 X118.465 Y84.491
G0 X119.539 Y84.998
G0 X128.115 Y91.726
G0 X128.21 Y91.756
G1 F1800 X128.093 Y92.5 E11.52184
G1 X128.21 Y93.244 E11.54063
G1 X128.551 Y93.915 E11.5594
G1 X129.085 Y94.449 E11.57824
G1 X129.755 Y94.79 E11.59699
G1 X130.5 Y94.909 E11.61581
G1 X131.244 Y94.79 E11.63461
G1 X131.915 Y94.449 E11.65338
G1 X132.448 Y93.915 E11.67221
G1 X132.789 Y93.244 E11.69098
G1 X132.906 Y92.5 E11.70977
G1 X132.789 Y91.756 E11.72856
G1 X132.447 Y91.085 E11.74734
G1 X131.906 Y90.547 E11.76637
G1 X131.234 Y90.21 E11.78513
G1 X130.489 Y90.093 E11.80394
G1 X129.747 Y90.217 E11.82271
G1 X129.085 Y90.552 E11.84121
G1 X128.551 Y91.086 E11.86005
G1 X128.21 Y91.756 E11.87881
G0 F3600 X128.115 Y91.726
G0 X119.571 Y104.946
G0 X119.518 Y105.03
G1 F1800 X119.002 Y104.747 E11.89349
G1 X118.453 Y104.528 E11.90823
G1 X117.88 Y104.382 E11.92298
G1 X117.295 Y104.309 E11.93769
G1 X116.706 Y104.309 E11.95238
G1 X116.121 Y104.382 E11.96708
G1 X115.548 Y104.528 E11.98184
G1 X114.999 Y104.747 E11.99658
G1 X114.483 Y105.03 E12.01126
G1 X114.004 Y105.377 E12.02601
G1 X113.574 Y105.782 E12.04075
G1 X113.198 Y106.236 E12.05545
G1 X112.882 Y106.734 E12.07017
G1 X112.629 Y107.268 E12.08491
G1 X112.447 Y107.83 E12.09964
G1 X112.336 Y108.411 E12.1144
G1 X112.3 Y109 E12.12912
G1 X112.336 Y109.588 E12.14381
G1 X112.447 Y110.169 E12.15857
G1 X112.629 Y110.731 E12.1733
G1 X112.882 Y111.265 E12.18804
G1 X113.198 Y111.763 E12.20276
G1 X113.574 Y112.217 E12.21746
G1 X114.004 Y112.622 E12.2322
G1 X114.483 Y112.969 E12.24695
G1 X114.999 Y113.252 E12.26163
G1 X115.548 Y113.471 E12.27638
G1 X116.12 Y113.618 E12.29111
G1 X116.706 Y113.691 E12.30584
G1 X117.295 Y113.691 E12.32053
G1 X117.881 Y113.618 E12.33526
G1 X118.453 Y113.471 E12.34999
G1 X119.002 Y113.252 E12.36474
G1 X119.518 Y112.969 E12.37942
G1 X119.997 Y112.622 E12.39417
G1 X120.427 Y112.217 E12.40891
G1 X120.803 Y111.763 E12.42361
G1 X121.119 Y111.265 E12.43833
G1 X121.372 Y110.731 E12.45307
G1 X121.554 Y110.169 E12.4678
G1 X121.665 Y109.588 E12.48256
G1 X121.702 Y109 E12.49725
G1 X121.665 Y108.411 E12.51198
G1 X121.554 Y107.83 E12.52673
G1 X121.372 Y107.268 E12.54147
G1 X121.119 Y106.734 E12.55621
G1 X120.803 Y106.236 E12.57092
G1 X120.427 Y105.782 E12.58562
G1 X119.997 Y105.377 E12.60036
G1 X119.518 Y105.03 E12.61511
G0 F3600 X119.571 Y104.946
G0 X120.456 Y105.755
G0 X121.154 Y106.715
G0 X129.021 Y121.478
G0 X129.079 Y121.558
G1 F1800 X128.551 Y122.085 E12.63372
G1 X128.21 Y122.756 E12.6525
G1 X128.093 Y123.5 E12.67129
G1 X128.21 Y124.243 E12.69005
G1 X128.551 Y124.915 E12.70885
G1 X129.085 Y125.448 E12.72767
G1 X129.755 Y125.789 E12.74642
G1 X130.5 Y125.908 E12.76524
G1 X131.244 Y125.789 E12.78404
G1 X131.915 Y125.448 E12.80281
G1 X132.448 Y124.915 E12.82161
G1 X132.784 Y124.251 E12.84018
G1 X132.904 Y123.512 E12.85885
G1 X132.792 Y122.766 E12.87767
G1 X132.441 Y122.078 E12.89694
G1 X131.906 Y121.546 E12.91576
G1 X131.233 Y121.208 E12.93454
G1 X130.489 Y121.093 E12.95332
G1 X129.746 Y121.216 E12.97211
G1 X129.079 Y121.558 E12.99081
G0 F3600 X129.317 Y121.885
;TYPE:WALL-OUTER
G1 F1800 X128.879 Y122.323 E13.00626
G1 X128.595 Y122.881 E13.02188
G1 X128.498 Y123.5 E13.03751
G1 X128.595 Y124.118 E13.05311
G1 X128.879 Y124.677 E13.06875
G1 X129.323 Y125.12 E13.0844
G1 X129.88 Y125.404 E13.1
G1 X130.5 Y125.503 E13.11566
G1 X131.119 Y125.404 E13.13129
G1 X131.677 Y125.12 E13.14691
G1 X132.12 Y124.677 E13.16254
G1 X132.399 Y124.126 E13.17795
G1 X132.499 Y123.51 E13.19352
G1 X132.406 Y122.89 E13.20915
G1 X132.114 Y122.317 E13.2252
G1 X131.669 Y121.875 E13.24084
G1 X131.11 Y121.594 E13.25645
G1 X130.491 Y121.498 E13.27207
G1 X129.873 Y121.6 E13.2877
G1 X129.317 Y121.885 E13.30329
G0 F3600 X128.966 Y121.531
G0 X125.699 Y123.441
G0 X125.2 Y123.453
G1 F1800 X125.2 Y117.745 E13.44567
G1 X124.255 Y116.8 E13.47901
G1 X117.008 Y116.8 E13.65979
G1 X116.392 Y116.775 E13.67517
G1 X115.773 Y116.702 E13.69071
G1 X115.187 Y116.585 E13.70562
G1 X114.588 Y116.417 E13.72114
G1 X114.018 Y116.206 E13.7363
G1 X113.453 Y115.946 E13.75181
G1 X112.925 Y115.651 E13.7669
G1 X112.419 Y115.313 E13.78208
G1 X111.937 Y114.932 E13.79741
G1 X111.486 Y114.514 E13.81275
G1 X111.068 Y114.063 E13.82809
G1 X110.685 Y113.578 E13.8435
G1 X110.354 Y113.082 E13.85838
G1 X110.05 Y112.539 E13.8739
G1 X109.791 Y111.977 E13.88934
G1 X109.583 Y111.412 E13.90435
G1 X109.415 Y110.813 E13.91987
G1 X109.298 Y110.227 E13.93478
G1 X109.224 Y109.603 E13.95045
G1 X109.2 Y109 E13.96551
G1 X109.2 Y89.008 E14.46421
G1 X109.224 Y88.397 E14.47946
G1 X109.298 Y87.773 E14.49514
G1 X109.415 Y87.187 E14.51005
G1 X109.583 Y86.588 E14.52556
G1 X109.791 Y86.023 E14.54058
G1 X110.054 Y85.453 E14.55624
G1 X110.349 Y84.925 E14.57133
G1 X110.685 Y84.422 E14.58642
G1 X111.068 Y83.937 E14.60183
G1 X111.486 Y83.486 E14.61717
G1 X111.937 Y83.068 E14.63251
G1 X112.419 Y82.687 E14.64784
G1 X112.924 Y82.351 E14.66297
G1 X113.467 Y82.047 E14.67849
G1 X114.024 Y81.791 E14.69379
G1 X114.594 Y81.581 E14.70894
G1 X115.193 Y81.414 E14.72445
G1 X115.78 Y81.297 E14.73938
G1 X116.397 Y81.225 E14.75488
G1 X117.006 Y81.2 E14.77008
G1 X117.614 Y81.226 E14.78526
G1 X118.234 Y81.299 E14.80083
G1 X118.82 Y81.417 E14.81575
G1 X119.419 Y81.585 E14.83126
G1 X119.989 Y81.796 E14.84643
G1 X120.553 Y82.057 E14.86193
G1 X121.078 Y82.351 E14.87694
G1 X121.584 Y82.689 E14.89212
G1 X122.069 Y83.072 E14.90753
G1 X122.515 Y83.486 E14.92271
G1 X122.933 Y83.937 E14.93805
G1 X123.316 Y84.422 E14.95347
G1 X123.652 Y84.925 E14.96856
G1 X123.947 Y85.453 E14.98364
G1 X124.21 Y86.023 E14.9993
G1 X124.418 Y86.588 E15.01432
G1 X124.591 Y87.2 E15.03019
G1 X130.8 Y87.2 E15.18507
G1 X130.8 Y87.207 E15.18525
G1 X131.486 Y87.294 E15.2025
G1 X132.138 Y87.461 E15.21928
G1 X132.76 Y87.707 E15.23597
G1 X133.334 Y88.023 E15.25231
G1 X133.878 Y88.419 E15.2691
